; HEADER_BLOCK_START
; generated by AnycubicSlicerNext 1.3.9.4 on 2026-06-20 at 14:23:45
; total layer number: 79
; filament_density: 1.24
; filament_diameter: 1.75
; max_z_height: 15.84
; exclude_object: 0
; model_instances: 2
; source_info: {"models":[{"file_source":0,"mo_file_id":-1,"name":"obj_5_Huelse_60mm.stl_id_0_copy_0"},{"file_source":0,"mo_file_id":-1,"name":"obj_8_Deckel_60mm.stl_id_1_copy_0"}],"models_from":0,"plate_index":1,"slice_paras_process":1,"software_version":"AnycubicSlicerNext 1.3.9.4 20260319224604"}
; paint_info = [{"material_type":"PLA","paint_color":[105,164,255],"paint_index":0}]
; project_info = {"flush_multiplier":1.0,"flush_volumes_chan_multipliers":[1.0,1.0,1.0,1.0],"flush_volumes_matrix":[0.0],"flush_volumes_vector":[140.0,140.0]}
; flush_multiplier_calculate_by_acnext: 1
; test_mode: 0
; HEADER_BLOCK_END

; THUMBNAIL_BLOCK_START
; THUMBNAIL_BLOCK_END

; external perimeters extrusion width = 0.42mm
; perimeters extrusion width = 0.45mm
; infill extrusion width = 0.45mm
; solid infill extrusion width = 0.42mm
; top infill extrusion width = 0.42mm
; first layer extrusion width = 0.50mm

; external perimeters extrusion width = 0.42mm
; perimeters extrusion width = 0.45mm
; infill extrusion width = 0.45mm
; solid infill extrusion width = 0.42mm
; top infill extrusion width = 0.42mm
; first layer extrusion width = 0.50mm

; EXECUTABLE_BLOCK_START
M201 X2000 Y2000 Z800 E2000
M203 X300 Y300 Z8 E100
M204 P2000 R2000 T2000
M205 X10.00 Y10.00 Z2.00 E5.00
;TYPE:Custom
G90 ; use absolute coordinates
M83 ; extruder relative mode
M104 S220 ; set extruder temp
M140 S55 ; set bed temp
M190 S55 ; wait for bed temp
M109 S220 ; wait for extruder temp
G28                                        ; move X/Y/Z to min endstops
G1 Z0.28                                   ; lift nozzle a bit 
G92 E0 
G1 Y3 F1800                                    ; zero the extruded length 
G1 X60  E25 F500                       ; Extrude 25mm of filament in a 5cm line. 
G92 E0                                     ; zero the extruded length again 
G1 E-2 F500                                ; Retract a little 
G1 X70 F4000                              ; Quickly wipe away from the filament line
M117
G90
G21
M83 ; use relative distances for extrusion
; EXECUTABLE_BLOCK_HEAD
; filament start gcode
M75 ; The first extruder is ready.
M106 S0
;LAYER_CHANGE
;Z:0.24
;HEIGHT:0.24
; BEFORE_LAYER_CHANGE 0 @ 0.24mm
G92 E0
; AFTER_LAYER_CHANGE 0 @ 0.24mm
M204 S500
G1 E-.8 F3600
G1 X59.701 Y79.241 F18000
G1 Z.24
G1 E.8 F3600
;TYPE:Skirt
;WIDTH:0.5
G1 F3000
G1 X61.727 Y78.904 E.09005
G1 X134.875 Y71.86 E3.22284
G1 X138.79 Y71.745 E.17176
G1 X141.459 Y71.897 E.11725
G1 X144.471 Y72.297 E.13325
G1 X147.833 Y73.034 E.15095
G1 X150.376 Y73.809 E.1166
G1 X153.216 Y74.913 E.13363
G1 X156.308 Y76.426 E.15095
G1 X158.925 Y77.995 E.13384
G1 X161.093 Y79.526 E.11639
G1 X163.738 Y81.729 E.15095
G1 X165.904 Y83.867 E.13346
G1 X167.653 Y85.873 E.11676
G1 X169.7 Y88.641 E.15095
G1 X171.294 Y91.223 E.13308
G1 X172.523 Y93.594 E.11714
G1 X173.564 Y95.997 E.11482
G1 X174.789 Y99.639 E.16853
G1 X175.426 Y102.251 E.11793
G1 X175.966 Y105.648 E.15085
G1 X176.195 Y108.656 E.13227
G1 X176.195 Y111.344 E.11793
G1 X176.014 Y113.951 E.1146
G1 X175.426 Y117.749 E.16853
G1 X174.789 Y120.361 E.11793
G1 X173.855 Y123.232 E.1324
G1 X172.525 Y126.401 E.15072
G1 X171.288 Y128.788 E.11793
G1 X169.7 Y131.359 E.13252
G1 X167.653 Y134.127 E.15095
G1 X165.904 Y136.133 E.11677
G1 X163.738 Y138.271 E.13346
G1 X161.093 Y140.474 E.15095
G1 X158.925 Y142.005 E.11638
G1 X156.342 Y143.556 E.13214
G1 X154.01 Y144.732 E.11452
G1 X151.604 Y145.746 E.11452
G1 X149.134 Y146.594 E.11453
G1 X146.612 Y147.271 E.11452
G1 X144.05 Y147.775 E.11453
G1 X141.459 Y148.103 E.11452
G1 X138.79 Y148.255 E.11725
G1 X135.346 Y148.172 E.15106
G1 X63.887 Y143.59 E3.14036
G1 X60.673 Y143.214 E.14193
G1 X57.619 Y142.549 E.13708
G1 X54.654 Y141.599 E.13655
G1 X52.616 Y140.757 E.09669
G1 X50.701 Y139.81 E.0937
G1 X47.96 Y138.164 E.14023
G1 X45.454 Y136.307 E.1368
G1 X43.082 Y134.162 E.14021
G1 X42.405 Y132.564 E.07613
G1 X42.405 Y89.713 E1.87926
G1 X43.082 Y88.115 E.07613
G1 X45.454 Y85.971 E.14021
G1 X48.024 Y84.07 E.14021
G1 X49.764 Y82.99 E.0898
G1 X51.653 Y81.977 E.094
G1 X54.585 Y80.704 E.14021
G1 X57.697 Y79.707 E.14332
G1 X59.662 Y79.25 E.08847
; printing object "obj_5_Huelse 60mm.stl" id:0 copy 0
G1 E-.8 F3600
G1 X136.684 Y74.534 F18000
G1 E.8 F3600
;TYPE:Outer wall
G1 F2400
G1 X138.022 Y74.51 E.05869
G1 X138.832 Y74.516 E.0355
G1 X140.047 Y74.567 E.05336
G1 X141.26 Y74.659 E.05333
G1 X142.469 Y74.793 E.05335
G1 X143.673 Y74.969 E.05336
G1 X144.869 Y75.185 E.05333
G1 X146.058 Y75.443 E.05335
G1 X147.238 Y75.741 E.05336
G1 X148.405 Y76.079 E.05332
G1 X149.562 Y76.457 E.05334
G1 X150.704 Y76.874 E.05335
G1 X151.832 Y77.331 E.05336
G1 X152.943 Y77.825 E.05332
G1 X154.036 Y78.358 E.05333
G1 X155.234 Y78.996 E.05954
G1 X156.286 Y79.606 E.05333
G1 X157.316 Y80.251 E.05332
G1 X158.325 Y80.932 E.05337
G1 X159.309 Y81.648 E.05335
G1 X160.267 Y82.395 E.05332
G1 X161.2 Y83.176 E.05337
G1 X162.106 Y83.989 E.05334
G1 X162.983 Y84.831 E.05335
G1 X163.83 Y85.703 E.05332
G1 X164.648 Y86.605 E.05336
G1 X165.434 Y87.533 E.05334
G1 X166.187 Y88.488 E.05335
G1 X166.908 Y89.467 E.05332
G1 X167.594 Y90.471 E.05336
G1 X168.246 Y91.499 E.05335
G1 X168.862 Y92.547 E.05333
G1 X169.442 Y93.616 E.05335
G1 X169.985 Y94.705 E.05334
G1 X170.49 Y95.811 E.05333
G1 X170.957 Y96.934 E.05336
G1 X171.386 Y98.073 E.05334
G1 X171.775 Y99.225 E.05333
G1 X172.124 Y100.39 E.05335
G1 X172.433 Y101.567 E.05334
G1 X172.702 Y102.753 E.05334
G1 X172.93 Y103.948 E.05334
G1 X173.117 Y105.15 E.05335
G1 X173.262 Y106.357 E.05335
G1 X173.366 Y107.569 E.05334
G1 X173.429 Y108.784 E.05335
G1 X173.449 Y110 E.05334
G1 X173.429 Y111.216 E.05334
G1 X173.366 Y112.431 E.05335
G1 X173.262 Y113.642 E.05332
G1 X173.095 Y114.989 E.0595
G1 X172.93 Y116.052 E.0472
G1 X172.702 Y117.247 E.05333
G1 X172.398 Y118.569 E.05952
G1 X172.124 Y119.61 E.04718
G1 X171.775 Y120.775 E.05335
G1 X171.385 Y121.927 E.05335
G1 X170.957 Y123.066 E.05333
G1 X170.49 Y124.189 E.05334
G1 X169.985 Y125.295 E.05335
G1 X169.442 Y126.384 E.05333
G1 X168.862 Y127.453 E.05334
G1 X168.246 Y128.502 E.05334
G1 X167.594 Y129.529 E.05336
G1 X166.908 Y130.533 E.05333
G1 X166.187 Y131.513 E.05335
G1 X165.434 Y132.467 E.05333
G1 X164.554 Y133.501 E.05951
G1 X163.831 Y134.296 E.04718
G1 X162.983 Y135.168 E.05334
G1 X162.002 Y136.106 E.05952
G1 X161.2 Y136.823 E.04717
G1 X160.268 Y137.604 E.05334
G1 X159.196 Y138.437 E.05952
G1 X158.325 Y139.067 E.04716
G1 X157.317 Y139.748 E.05336
G1 X156.286 Y140.394 E.05333
G1 X155.111 Y141.073 E.05954
G1 X154.036 Y141.642 E.05334
G1 X153.07 Y142.115 E.04717
G1 X151.831 Y142.67 E.05952
G1 X150.704 Y143.126 E.05334
G1 X149.694 Y143.497 E.04717
G1 X148.405 Y143.921 E.05952
G1 X147.237 Y144.259 E.05334
G1 X146.195 Y144.524 E.04717
G1 X144.869 Y144.815 E.05952
G1 X143.672 Y145.031 E.05334
G1 X142.608 Y145.188 E.04718
G1 X141.259 Y145.341 E.05951
G1 X140.047 Y145.433 E.05334
G1 X138.972 Y145.479 E.04718
G1 X137.615 Y145.493 E.05951
G1 X136.399 Y145.461 E.05333
G1 X135.325 Y145.396 E.04719
G1 X133.974 Y145.271 E.05951
G1 X132.768 Y145.114 E.05333
G1 X131.707 Y144.939 E.04719
G1 X130.375 Y144.676 E.05951
G1 X129.192 Y144.396 E.05333
G1 X128.154 Y144.113 E.0472
G1 X126.857 Y143.715 E.0595
G1 X125.708 Y143.315 E.05333
G1 X124.574 Y142.876 E.05334
G1 X123.584 Y142.454 E.04719
G1 X122.354 Y141.883 E.05951
G1 X121.271 Y141.33 E.05331
G1 X120.087 Y140.667 E.05951
G1 X119.164 Y140.113 E.0472
G1 X118.144 Y139.452 E.05333
G1 X117.034 Y138.672 E.0595
G1 X116.173 Y138.026 E.0472
G1 X115.226 Y137.263 E.05333
G1 X114.202 Y136.374 E.05951
G1 X113.412 Y135.643 E.04719
G1 X112.548 Y134.787 E.05333
G1 X111.62 Y133.797 E.05952
G1 X110.91 Y132.989 E.04718
G1 X110.138 Y132.049 E.05333
G1 X109.317 Y130.969 E.05951
G1 X108.693 Y130.092 E.04719
G1 X108.022 Y129.077 E.05333
G1 X107.316 Y127.919 E.05951
G1 X106.786 Y126.983 E.04719
G1 X106.223 Y125.905 E.05334
G1 X105.639 Y124.68 E.05951
G1 X105.208 Y123.694 E.04718
G1 X104.758 Y122.564 E.05334
G1 X104.303 Y121.286 E.05951
G1 X103.975 Y120.261 E.04718
G1 X103.644 Y119.091 E.05334
G1 X103.322 Y117.773 E.05952
G1 X103.102 Y116.72 E.04717
G1 X102.892 Y115.522 E.05334
G1 X102.707 Y114.177 E.05951
G1 X102.596 Y113.108 E.04717
G1 X102.511 Y111.894 E.05336
G1 X102.467 Y110.679 E.05333
G1 X102.467 Y109.321 E.05954
G1 X102.511 Y108.106 E.05334
G1 X102.584 Y107.033 E.04717
G1 X102.724 Y105.683 E.05951
G1 X102.892 Y104.478 E.05334
G1 X103.076 Y103.418 E.04717
G1 X103.353 Y102.09 E.05951
G1 X103.644 Y100.909 E.05334
G1 X103.936 Y99.874 E.04717
G1 X104.347 Y98.581 E.05952
G1 X104.758 Y97.436 E.05333
G1 X105.208 Y96.306 E.05335
G1 X105.639 Y95.32 E.04718
G1 X106.223 Y94.095 E.05951
G1 X106.786 Y93.018 E.05333
G1 X107.386 Y91.959 E.05335
G1 X107.948 Y91.042 E.04718
G1 X108.694 Y89.908 E.05951
G1 X109.399 Y88.918 E.05334
G1 X110.052 Y88.063 E.04719
G1 X110.91 Y87.011 E.05951
G1 X111.713 Y86.098 E.05333
G1 X112.451 Y85.315 E.04718
G1 X113.412 Y84.357 E.05951
G1 X114.305 Y83.531 E.05333
G1 X115.119 Y82.828 E.0472
G1 X116.173 Y81.974 E.0595
G1 X117.146 Y81.244 E.05333
G1 X118.028 Y80.628 E.0472
G1 X119.165 Y79.886 E.05951
G1 X120.207 Y79.26 E.05333
G1 X121.271 Y78.67 E.05334
G1 X122.354 Y78.117 E.05334
G1 X123.455 Y77.601 E.05334
G1 X124.574 Y77.124 E.05335
G1 X125.708 Y76.685 E.05334
G1 X126.857 Y76.284 E.05334
G1 X128.018 Y75.924 E.05333
G1 X129.328 Y75.571 E.0595
G1 X130.376 Y75.324 E.0472
G1 X131.568 Y75.084 E.05333
G1 X132.907 Y74.867 E.05952
G1 X133.974 Y74.729 E.04718
G1 X135.185 Y74.613 E.05335
G1 X136.399 Y74.539 E.05331
G1 X136.664 Y74.534 E.01164
G1 X136.692 Y74.983 F18000
;TYPE:Inner wall
G1 F2400
G1 X138.024 Y74.958 E.05844
G1 X138.821 Y74.964 E.03491
G1 X140.021 Y75.015 E.05268
G1 X141.218 Y75.106 E.05265
G1 X142.412 Y75.238 E.05267
G1 X143.6 Y75.412 E.05268
G1 X144.782 Y75.625 E.05265
G1 X145.955 Y75.879 E.05267
G1 X147.12 Y76.174 E.05269
G1 X148.273 Y76.507 E.05265
G1 X149.415 Y76.881 E.05267
G1 X150.543 Y77.293 E.05267
G1 X151.657 Y77.744 E.05269
G1 X152.753 Y78.232 E.05264
G1 X153.832 Y78.757 E.05264
G1 X155.016 Y79.388 E.05883
G1 X156.054 Y79.99 E.05264
G1 X157.072 Y80.627 E.05264
G1 X158.067 Y81.3 E.05269
G1 X159.039 Y82.006 E.05267
G1 X159.985 Y82.744 E.05264
G1 X160.906 Y83.515 E.05269
G1 X161.8 Y84.317 E.05267
G1 X162.666 Y85.149 E.05267
G1 X163.503 Y86.01 E.05265
G1 X164.31 Y86.9 E.05269
G1 X165.086 Y87.817 E.05267
G1 X165.831 Y88.759 E.05267
G1 X166.542 Y89.727 E.05265
G1 X167.22 Y90.718 E.05269
G1 X167.863 Y91.732 E.05267
G1 X168.471 Y92.768 E.05265
G1 X169.044 Y93.823 E.05268
G1 X169.58 Y94.898 E.05267
G1 X170.079 Y95.99 E.05266
G1 X170.54 Y97.1 E.05268
G1 X170.963 Y98.224 E.05267
G1 X171.347 Y99.361 E.05266
G1 X171.692 Y100.512 E.05268
G1 X171.997 Y101.673 E.05267
G1 X172.263 Y102.845 E.05267
G1 X172.488 Y104.024 E.05267
G1 X172.672 Y105.211 E.05267
G1 X172.816 Y106.403 E.05267
G1 X172.919 Y107.6 E.05267
G1 X172.98 Y108.799 E.05267
G1 X173.001 Y110 E.05267
G1 X172.98 Y111.201 E.05267
G1 X172.919 Y112.4 E.05267
G1 X172.816 Y113.596 E.05262
G1 X172.651 Y114.927 E.05883
G1 X172.488 Y115.976 E.04656
G1 X172.263 Y117.154 E.05263
G1 X171.962 Y118.462 E.05884
G1 X171.692 Y119.488 E.04654
G1 X171.347 Y120.639 E.05268
G1 X170.963 Y121.777 E.05268
G1 X170.54 Y122.9 E.05266
G1 X170.079 Y124.009 E.05267
G1 X169.58 Y125.102 E.05268
G1 X169.044 Y126.177 E.05266
G1 X168.472 Y127.232 E.05267
G1 X167.863 Y128.268 E.05267
G1 X167.22 Y129.282 E.05268
G1 X166.542 Y130.273 E.05266
G1 X165.831 Y131.241 E.05267
G1 X165.087 Y132.183 E.05263
G1 X164.218 Y133.204 E.05882
G1 X163.504 Y133.989 E.04653
G1 X162.667 Y134.85 E.05266
G1 X161.698 Y135.777 E.05883
G1 X160.907 Y136.484 E.04652
G1 X159.986 Y137.255 E.05266
G1 X158.927 Y138.078 E.05883
G1 X158.068 Y138.7 E.04651
G1 X157.072 Y139.372 E.0527
G1 X156.055 Y140.01 E.05263
G1 X154.893 Y140.68 E.05882
G1 X153.832 Y141.243 E.05267
G1 X152.88 Y141.709 E.04651
G1 X151.655 Y142.257 E.05883
G1 X150.542 Y142.707 E.05266
G1 X149.547 Y143.073 E.04652
G1 X148.273 Y143.493 E.05883
G1 X147.119 Y143.827 E.05266
G1 X146.091 Y144.088 E.04652
G1 X144.781 Y144.375 E.05883
G1 X143.599 Y144.589 E.05265
G1 X142.55 Y144.743 E.04653
G1 X141.217 Y144.894 E.05882
G1 X140.02 Y144.985 E.05265
G1 X138.96 Y145.031 E.04653
G1 X137.619 Y145.045 E.05883
G1 X136.419 Y145.013 E.05264
G1 X135.359 Y144.949 E.04654
G1 X134.024 Y144.825 E.05882
G1 X132.834 Y144.67 E.05264
G1 X131.787 Y144.498 E.04654
G1 X130.471 Y144.238 E.05883
G1 X129.303 Y143.962 E.05263
G1 X128.279 Y143.683 E.04655
G1 X126.996 Y143.289 E.05882
G1 X125.863 Y142.894 E.05262
G1 X124.743 Y142.461 E.05267
G1 X123.767 Y142.044 E.04655
G1 X122.55 Y141.479 E.05884
G1 X121.483 Y140.934 E.05256
G1 X120.312 Y140.279 E.05883
G1 X119.402 Y139.733 E.04656
G1 X118.395 Y139.08 E.05262
G1 X117.297 Y138.309 E.05883
G1 X116.448 Y137.672 E.04656
G1 X115.514 Y136.919 E.05263
G1 X114.501 Y136.04 E.05883
G1 X113.722 Y135.319 E.04655
G1 X112.87 Y134.474 E.05263
G1 X111.952 Y133.495 E.05884
G1 X111.252 Y132.698 E.04653
G1 X110.49 Y131.77 E.05264
G1 X109.678 Y130.703 E.05882
G1 X109.063 Y129.838 E.04654
G1 X108.401 Y128.837 E.05264
G1 X107.703 Y127.692 E.05882
G1 X107.18 Y126.768 E.04654
G1 X106.624 Y125.704 E.05265
G1 X106.047 Y124.494 E.05882
G1 X105.622 Y123.521 E.04653
G1 X105.178 Y122.406 E.05265
G1 X104.728 Y121.142 E.05882
G1 X104.405 Y120.132 E.04653
G1 X104.078 Y118.977 E.05265
G1 X103.759 Y117.674 E.05883
G1 X103.542 Y116.635 E.04652
G1 X103.335 Y115.452 E.05266
G1 X103.152 Y114.124 E.05882
G1 X103.043 Y113.069 E.04652
G1 X102.959 Y111.87 E.0527
G1 X102.915 Y110.671 E.05263
G1 X102.915 Y109.329 E.05882
G1 X102.959 Y108.129 E.05267
G1 X103.031 Y107.071 E.04651
G1 X103.169 Y105.737 E.05882
G1 X103.335 Y104.548 E.05266
G1 X103.516 Y103.503 E.04652
G1 X103.79 Y102.189 E.05882
G1 X104.078 Y101.024 E.05266
G1 X104.365 Y100.003 E.04652
G1 X104.772 Y98.724 E.05883
G1 X105.177 Y97.595 E.05263
G1 X105.622 Y96.479 E.05269
G1 X106.047 Y95.506 E.04653
G1 X106.624 Y94.296 E.05882
G1 X107.18 Y93.232 E.05263
G1 X107.773 Y92.187 E.05269
G1 X108.327 Y91.282 E.04654
G1 X109.064 Y90.162 E.05883
G1 X109.76 Y89.184 E.05264
G1 X110.404 Y88.341 E.04654
G1 X111.252 Y87.301 E.05883
G1 X112.045 Y86.4 E.05264
G1 X112.773 Y85.628 E.04654
G1 X113.723 Y84.681 E.05883
G1 X114.604 Y83.866 E.05263
G1 X115.407 Y83.172 E.04655
G1 X116.449 Y82.328 E.05882
G1 X117.409 Y81.608 E.05262
G1 X118.28 Y81 E.04656
G1 X119.403 Y80.267 E.05883
G1 X120.431 Y79.649 E.05262
G1 X121.482 Y79.066 E.05267
G1 X122.551 Y78.52 E.05267
G1 X123.639 Y78.011 E.05267
G1 X124.743 Y77.539 E.05268
G1 X125.863 Y77.106 E.05266
G1 X126.997 Y76.711 E.05267
G1 X128.143 Y76.355 E.05262
G1 X129.438 Y76.006 E.05882
G1 X130.471 Y75.762 E.04655
G1 X131.648 Y75.526 E.05263
G1 X132.972 Y75.311 E.05883
G1 X134.024 Y75.175 E.04653
G1 X135.22 Y75.061 E.05268
G1 X136.416 Y74.988 E.05255
G1 X136.672 Y74.983 E.01122
G1 E-.8 F3600
G1 X117.728 Y86.135 F18000
G1 E.8 F3600
;TYPE:Outer wall
G1 F2400
G1 X117.637 Y86.21 E.00518
G1 X116.775 Y86.974 E.05053
G1 X115.886 Y87.826 E.054
G1 X115.138 Y88.595 E.04702
G1 X114.366 Y89.449 E.05051
G1 X113.625 Y90.331 E.05051
G1 X112.918 Y91.24 E.05051
G1 X112.292 Y92.109 E.04695
G1 X111.606 Y93.133 E.05406
G1 X111.003 Y94.115 E.05053
G1 X110.436 Y95.117 E.05051
G1 X109.943 Y96.069 E.04701
G1 X109.416 Y97.182 E.05401
G1 X108.963 Y98.242 E.05053
G1 X108.55 Y99.317 E.05051
G1 X108.177 Y100.406 E.05051
G1 X107.866 Y101.432 E.04701
G1 X107.552 Y102.623 E.05401
G1 X107.301 Y103.747 E.05053
G1 X107.092 Y104.88 E.05051
G1 X106.935 Y105.94 E.04702
G1 X106.799 Y107.164 E.05401
G1 X106.715 Y108.313 E.05052
G1 X106.674 Y109.464 E.0505
G1 X106.674 Y110.536 E.04701
G1 X106.715 Y111.687 E.05051
G1 X106.806 Y112.915 E.05401
G1 X106.924 Y113.981 E.04702
G1 X107.092 Y115.12 E.05051
G1 X107.301 Y116.253 E.05053
G1 X107.571 Y117.454 E.05401
G1 X107.844 Y118.491 E.04701
G1 X108.177 Y119.594 E.05051
G1 X108.55 Y120.684 E.05053
