; HEADER_BLOCK_START
; generated by AnycubicSlicerNext 1.3.9.4 on 2026-06-15 at 16:17:39
; total layer number: 90
; filament_density: 1.24
; filament_diameter: 1.75
; max_z_height: 18.04
; exclude_object: 0
; model_instances: 18
; source_info: {"models":[{"file_source":0,"mo_file_id":-1,"name":"flat-cat7-clip-slimmed-tall.stl_id_0_copy_0"},{"file_source":0,"mo_file_id":-1,"name":"flat-cat7-clip-slimmed-tall.stl_id_1_copy_0"},{"file_source":0,"mo_file_id":-1,"name":"flat-cat7-clip-slimmed-tall.stl_id_2_copy_0"},{"file_source":0,"mo_file_id":-1,"name":"flat-cat7-clip-slimmed-tall.stl_id_3_copy_0"},{"file_source":0,"mo_file_id":-1,"name":"flat-cat7-clip-slimmed-tall.stl_id_4_copy_0"},{"file_source":0,"mo_file_id":-1,"name":"flat-cat7-clip-slimmed-tall.stl_id_5_copy_0"},{"file_source":0,"mo_file_id":-1,"name":"flat-cat7-clip-slimmed-tall.stl_id_6_copy_0"},{"file_source":0,"mo_file_id":-1,"name":"flat-cat7-clip-slimmed-tall.stl_id_7_copy_0"},{"file_source":0,"mo_file_id":-1,"name":"flat-cat7-clip-slimmed-tall.stl_id_8_copy_0"},{"file_source":0,"mo_file_id":-1,"name":"flat-cat7-clip-slimmed.stl_id_9_copy_0"},{"file_source":0,"mo_file_id":-1,"name":"flat-cat7-clip-slimmed.stl_id_10_copy_0"},{"file_source":0,"mo_file_id":-1,"name":"flat-cat7-clip-slimmed.stl_id_11_copy_0"},{"file_source":0,"mo_file_id":-1,"name":"flat-cat7-clip-slimmed.stl_id_12_copy_0"},{"file_source":0,"mo_file_id":-1,"name":"flat-cat7-clip-slimmed.stl_id_13_copy_0"},{"file_source":0,"mo_file_id":-1,"name":"flat-cat7-clip-slimmed.stl_id_14_copy_0"},{"file_source":0,"mo_file_id":-1,"name":"flat-cat7-clip-slimmed.stl_id_15_copy_0"},{"file_source":0,"mo_file_id":-1,"name":"flat-cat7-clip-slimmed.stl_id_16_copy_0"},{"file_source":0,"mo_file_id":-1,"name":"flat-cat7-clip-slimmed.stl_id_17_copy_0"}],"models_from":0,"plate_index":1,"slice_paras_process":1,"software_version":"AnycubicSlicerNext 1.3.9.4 20260319224604"}
; paint_info = [{"material_type":"PLA","paint_color":[105,164,255],"paint_index":0}]
; project_info = {"flush_multiplier":1.0,"flush_volumes_chan_multipliers":[1.0,1.0,1.0,1.0],"flush_volumes_matrix":[0.0],"flush_volumes_vector":[140.0,140.0]}
; flush_multiplier_calculate_by_acnext: 1
; test_mode: 0
; HEADER_BLOCK_END

; THUMBNAIL_BLOCK_START
; THUMBNAIL_BLOCK_END

; external perimeters extrusion width = 0.42mm
; perimeters extrusion width = 0.45mm
; infill extrusion width = 0.45mm
; solid infill extrusion width = 0.42mm
; top infill extrusion width = 0.42mm
; first layer extrusion width = 0.50mm

; external perimeters extrusion width = 0.42mm
; perimeters extrusion width = 0.45mm
; infill extrusion width = 0.45mm
; solid infill extrusion width = 0.42mm
; top infill extrusion width = 0.42mm
; first layer extrusion width = 0.50mm

; external perimeters extrusion width = 0.42mm
; perimeters extrusion width = 0.45mm
; infill extrusion width = 0.45mm
; solid infill extrusion width = 0.42mm
; top infill extrusion width = 0.42mm
; first layer extrusion width = 0.50mm

; external perimeters extrusion width = 0.42mm
; perimeters extrusion width = 0.45mm
; infill extrusion width = 0.45mm
; solid infill extrusion width = 0.42mm
; top infill extrusion width = 0.42mm
; first layer extrusion width = 0.50mm

; external perimeters extrusion width = 0.42mm
; perimeters extrusion width = 0.45mm
; infill extrusion width = 0.45mm
; solid infill extrusion width = 0.42mm
; top infill extrusion width = 0.42mm
; first layer extrusion width = 0.50mm

; external perimeters extrusion width = 0.42mm
; perimeters extrusion width = 0.45mm
; infill extrusion width = 0.45mm
; solid infill extrusion width = 0.42mm
; top infill extrusion width = 0.42mm
; first layer extrusion width = 0.50mm

; external perimeters extrusion width = 0.42mm
; perimeters extrusion width = 0.45mm
; infill extrusion width = 0.45mm
; solid infill extrusion width = 0.42mm
; top infill extrusion width = 0.42mm
; first layer extrusion width = 0.50mm

; external perimeters extrusion width = 0.42mm
; perimeters extrusion width = 0.45mm
; infill extrusion width = 0.45mm
; solid infill extrusion width = 0.42mm
; top infill extrusion width = 0.42mm
; first layer extrusion width = 0.50mm

; external perimeters extrusion width = 0.42mm
; perimeters extrusion width = 0.45mm
; infill extrusion width = 0.45mm
; solid infill extrusion width = 0.42mm
; top infill extrusion width = 0.42mm
; first layer extrusion width = 0.50mm

; external perimeters extrusion width = 0.42mm
; perimeters extrusion width = 0.45mm
; infill extrusion width = 0.45mm
; solid infill extrusion width = 0.42mm
; top infill extrusion width = 0.42mm
; first layer extrusion width = 0.50mm

; external perimeters extrusion width = 0.42mm
; perimeters extrusion width = 0.45mm
; infill extrusion width = 0.45mm
; solid infill extrusion width = 0.42mm
; top infill extrusion width = 0.42mm
; first layer extrusion width = 0.50mm

; external perimeters extrusion width = 0.42mm
; perimeters extrusion width = 0.45mm
; infill extrusion width = 0.45mm
; solid infill extrusion width = 0.42mm
; top infill extrusion width = 0.42mm
; first layer extrusion width = 0.50mm

; external perimeters extrusion width = 0.42mm
; perimeters extrusion width = 0.45mm
; infill extrusion width = 0.45mm
; solid infill extrusion width = 0.42mm
; top infill extrusion width = 0.42mm
; first layer extrusion width = 0.50mm

; external perimeters extrusion width = 0.42mm
; perimeters extrusion width = 0.45mm
; infill extrusion width = 0.45mm
; solid infill extrusion width = 0.42mm
; top infill extrusion width = 0.42mm
; first layer extrusion width = 0.50mm

; external perimeters extrusion width = 0.42mm
; perimeters extrusion width = 0.45mm
; infill extrusion width = 0.45mm
; solid infill extrusion width = 0.42mm
; top infill extrusion width = 0.42mm
; first layer extrusion width = 0.50mm

; external perimeters extrusion width = 0.42mm
; perimeters extrusion width = 0.45mm
; infill extrusion width = 0.45mm
; solid infill extrusion width = 0.42mm
; top infill extrusion width = 0.42mm
; first layer extrusion width = 0.50mm

; external perimeters extrusion width = 0.42mm
; perimeters extrusion width = 0.45mm
; infill extrusion width = 0.45mm
; solid infill extrusion width = 0.42mm
; top infill extrusion width = 0.42mm
; first layer extrusion width = 0.50mm

; external perimeters extrusion width = 0.42mm
; perimeters extrusion width = 0.45mm
; infill extrusion width = 0.45mm
; solid infill extrusion width = 0.42mm
; top infill extrusion width = 0.42mm
; first layer extrusion width = 0.50mm

; EXECUTABLE_BLOCK_START
M201 X2000 Y2000 Z800 E2000
M203 X300 Y300 Z8 E100
M204 P2000 R2000 T2000
M205 X10.00 Y10.00 Z2.00 E5.00
;TYPE:Custom
G90 ; use absolute coordinates
M83 ; extruder relative mode
M104 S220 ; set extruder temp
M140 S60 ; set bed temp
M190 S60 ; wait for bed temp
M109 S220 ; wait for extruder temp
G28                                        ; move X/Y/Z to min endstops
G1 Z0.28                                   ; lift nozzle a bit 
G92 E0 
G1 Y3 F1800                                    ; zero the extruded length 
G1 X60  E25 F500                       ; Extrude 25mm of filament in a 5cm line. 
G92 E0                                     ; zero the extruded length again 
G1 E-2 F500                                ; Retract a little 
G1 X70 F4000                              ; Quickly wipe away from the filament line
M117
G90
G21
M83 ; use relative distances for extrusion
; EXECUTABLE_BLOCK_HEAD
; filament start gcode
M75 ; The first extruder is ready.
M106 S0
;LAYER_CHANGE
;Z:0.24
;HEIGHT:0.24
; BEFORE_LAYER_CHANGE 0 @ 0.24mm
G92 E0
; AFTER_LAYER_CHANGE 0 @ 0.24mm
M204 S500
G1 E-.8 F3600
G1 X86.79 Y88.526 F18000
G1 Z.24
G1 E.8 F3600
;TYPE:Skirt
;WIDTH:0.5
G1 F3000
G1 X133.21 Y88.526 E2.0358
G1 X134.47 Y88.917 E.05784
G1 X135.286 Y89.952 E.05784
G1 X135.434 Y90.75 E.03558
G1 X135.434 Y129.25 E1.68846
G1 X135.043 Y130.51 E.05784
G1 X134.008 Y131.326 E.05784
G1 X133.21 Y131.474 E.03558
G1 X86.79 Y131.474 E2.0358
G1 X85.53 Y131.083 E.05784
G1 X84.714 Y130.048 E.05784
G1 X84.566 Y129.25 E.03558
G1 X84.566 Y90.75 E1.68846
G1 X84.957 Y89.49 E.05784
G1 X85.992 Y88.674 E.05784
G1 X86.751 Y88.533 E.03383
; printing object "flat-cat7-clip-slimmed.stl" id:16 copy 0
G1 E-.8 F3600
G1 X87.115 Y128.925 F18000
G1 E.8 F3600
;TYPE:Outer wall
G1 F2400
G1 X87.115 Y124.825 E.17981
G1 X100.605 Y124.825 E.59162
G1 X100.605 Y128.925 E.17981
G1 X87.135 Y128.925 E.59074
G1 X87.563 Y128.477 F18000
;TYPE:Inner wall
G1 F2400
G1 X87.563 Y125.273 E.14047
G1 X100.157 Y125.273 E.55228
G1 X100.157 Y128.477 E.14047
G1 X87.583 Y128.477 E.5514
G1 E-.8 F3600
G1 X100.022 Y126.322 F18000
G1 E.8 F3600
;TYPE:Bottom surface
;WIDTH:0.503684
G1 F3000
G1 X99.309 Y125.61 E.04456
G1 X98.67 Y125.61 E.02828
G1 X99.82 Y126.76 E.07193
G1 X99.82 Y127.4 E.02828
G1 X98.03 Y125.61 E.11192
G1 X97.391 Y125.61 E.02828
G1 X99.82 Y128.039 E.1519
G1 X99.82 Y128.14 E.00447
G1 X99.282 Y128.14 E.02381
G1 X96.751 Y125.61 E.15822
G1 X96.112 Y125.61 E.02828
G1 X98.642 Y128.14 E.15822
G1 X98.003 Y128.14 E.02828
G1 X95.472 Y125.61 E.15822
G1 X94.833 Y125.61 E.02828
G1 X97.363 Y128.14 E.15822
G1 X96.724 Y128.14 E.02828
G1 X94.194 Y125.61 E.15822
G1 X93.554 Y125.61 E.02828
G1 X96.084 Y128.14 E.15822
G1 X95.445 Y128.14 E.02828
G1 X92.915 Y125.61 E.15822
G1 X92.275 Y125.61 E.02828
G1 X94.805 Y128.14 E.15822
G1 X94.166 Y128.14 E.02828
G1 X91.636 Y125.61 E.15822
G1 X90.996 Y125.61 E.02828
G1 X93.526 Y128.14 E.15822
G1 X92.887 Y128.14 E.02828
G1 X90.357 Y125.61 E.15822
G1 X89.717 Y125.61 E.02828
G1 X92.247 Y128.14 E.15822
G1 X91.608 Y128.14 E.02828
G1 X89.078 Y125.61 E.15822
G1 X88.438 Y125.61 E.02828
G1 X90.968 Y128.14 E.15822
G1 X90.329 Y128.14 E.02828
G1 X87.9 Y125.711 E.1519
G1 X87.9 Y126.35 E.02828
G1 X89.69 Y128.14 E.11191
G1 X89.05 Y128.14 E.02828
G1 X87.9 Y126.99 E.07192
G1 X87.9 Y127.629 E.02828
G1 X88.612 Y128.342 E.04455
; stop printing object flat-cat7-clip-slimmed.stl id:16 copy 0
; printing object "flat-cat7-clip-slimmed.stl" id:14 copy 0
G1 E-.8 F3600
G1 X87.115 Y122.175 F18000
G1 E.8 F3600
;TYPE:Outer wall
;WIDTH:0.5
G1 F2400
G1 X87.115 Y118.075 E.17981
G1 X100.605 Y118.075 E.59162
G1 X100.605 Y122.175 E.17981
G1 X87.135 Y122.175 E.59074
G1 X87.563 Y121.727 F18000
;TYPE:Inner wall
G1 F2400
G1 X87.563 Y118.523 E.14047
G1 X100.157 Y118.523 E.55228
G1 X100.157 Y121.727 E.14047
G1 X87.583 Y121.727 E.5514
G1 E-.8 F3600
G1 X100.022 Y119.572 F18000
G1 E.8 F3600
;TYPE:Bottom surface
;WIDTH:0.503684
G1 F3000
G1 X99.309 Y118.86 E.04456
G1 X98.67 Y118.86 E.02828
G1 X99.82 Y120.01 E.07193
G1 X99.82 Y120.65 E.02828
G1 X98.03 Y118.86 E.11192
G1 X97.391 Y118.86 E.02828
G1 X99.82 Y121.289 E.1519
G1 X99.82 Y121.39 E.00447
G1 X99.282 Y121.39 E.02381
G1 X96.751 Y118.86 E.15822
G1 X96.112 Y118.86 E.02828
G1 X98.642 Y121.39 E.15822
G1 X98.003 Y121.39 E.02828
G1 X95.472 Y118.86 E.15822
G1 X94.833 Y118.86 E.02828
G1 X97.363 Y121.39 E.15822
G1 X96.724 Y121.39 E.02828
G1 X94.194 Y118.86 E.15822
G1 X93.554 Y118.86 E.02828
G1 X96.084 Y121.39 E.15822
G1 X95.445 Y121.39 E.02828
G1 X92.915 Y118.86 E.15822
G1 X92.275 Y118.86 E.02828
G1 X94.805 Y121.39 E.15822
G1 X94.166 Y121.39 E.02828
G1 X91.636 Y118.86 E.15822
G1 X90.996 Y118.86 E.02828
G1 X93.526 Y121.39 E.15822
G1 X92.887 Y121.39 E.02828
G1 X90.357 Y118.86 E.15822
G1 X89.717 Y118.86 E.02828
G1 X92.247 Y121.39 E.15822
G1 X91.608 Y121.39 E.02828
G1 X89.078 Y118.86 E.15822
G1 X88.438 Y118.86 E.02828
G1 X90.968 Y121.39 E.15822
G1 X90.329 Y121.39 E.02828
G1 X87.9 Y118.961 E.1519
G1 X87.9 Y119.6 E.02828
G1 X89.69 Y121.39 E.11191
G1 X89.05 Y121.39 E.02828
G1 X87.9 Y120.24 E.07192
G1 X87.9 Y120.879 E.02828
G1 X88.612 Y121.592 E.04455
; stop printing object flat-cat7-clip-slimmed.stl id:14 copy 0
; printing object "flat-cat7-clip-slimmed.stl" id:12 copy 0
G1 E-.8 F3600
G1 X87.115 Y115.425 F18000
G1 E.8 F3600
;TYPE:Outer wall
;WIDTH:0.5
G1 F2400
G1 X87.115 Y111.325 E.17981
G1 X100.605 Y111.325 E.59162
G1 X100.605 Y115.425 E.17981
G1 X87.135 Y115.425 E.59074
G1 X87.563 Y114.977 F18000
;TYPE:Inner wall
G1 F2400
G1 X87.563 Y111.773 E.14047
G1 X100.157 Y111.773 E.55228
G1 X100.157 Y114.977 E.14047
G1 X87.583 Y114.977 E.5514
G1 E-.8 F3600
G1 X100.022 Y112.822 F18000
G1 E.8 F3600
;TYPE:Bottom surface
;WIDTH:0.503684
G1 F3000
G1 X99.309 Y112.11 E.04456
G1 X98.67 Y112.11 E.02828
G1 X99.82 Y113.26 E.07193
G1 X99.82 Y113.9 E.02828
G1 X98.03 Y112.11 E.11192
G1 X97.391 Y112.11 E.02828
G1 X99.82 Y114.539 E.1519
G1 X99.82 Y114.64 E.00447
G1 X99.282 Y114.64 E.02381
G1 X96.751 Y112.11 E.15822
G1 X96.112 Y112.11 E.02828
G1 X98.642 Y114.64 E.15822
G1 X98.003 Y114.64 E.02828
G1 X95.472 Y112.11 E.15822
G1 X94.833 Y112.11 E.02828
G1 X97.363 Y114.64 E.15822
G1 X96.724 Y114.64 E.02828
G1 X94.194 Y112.11 E.15822
G1 X93.554 Y112.11 E.02828
G1 X96.084 Y114.64 E.15822
G1 X95.445 Y114.64 E.02828
G1 X92.915 Y112.11 E.15822
G1 X92.275 Y112.11 E.02828
G1 X94.805 Y114.64 E.15822
G1 X94.166 Y114.64 E.02828
G1 X91.636 Y112.11 E.15822
G1 X90.996 Y112.11 E.02828
G1 X93.526 Y114.64 E.15822
G1 X92.887 Y114.64 E.02828
G1 X90.357 Y112.11 E.15822
G1 X89.717 Y112.11 E.02828
G1 X92.247 Y114.64 E.15822
G1 X91.608 Y114.64 E.02828
G1 X89.078 Y112.11 E.15822
G1 X88.438 Y112.11 E.02828
G1 X90.968 Y114.64 E.15822
G1 X90.329 Y114.64 E.02828
G1 X87.9 Y112.211 E.1519
G1 X87.9 Y112.85 E.02828
G1 X89.69 Y114.64 E.11191
G1 X89.05 Y114.64 E.02828
G1 X87.9 Y113.49 E.07192
G1 X87.9 Y114.129 E.02828
G1 X88.612 Y114.842 E.04455
; stop printing object flat-cat7-clip-slimmed.stl id:12 copy 0
; printing object "flat-cat7-clip-slimmed.stl" id:13 copy 0
G1 E-.8 F3600
G1 X87.115 Y108.675 F18000
G1 E.8 F3600
;TYPE:Outer wall
;WIDTH:0.5
G1 F2400
G1 X87.115 Y104.575 E.17981
G1 X100.605 Y104.575 E.59162
G1 X100.605 Y108.675 E.17981
G1 X87.135 Y108.675 E.59074
G1 X87.563 Y108.227 F18000
;TYPE:Inner wall
G1 F2400
G1 X87.563 Y105.023 E.14047
G1 X100.157 Y105.023 E.55228
G1 X100.157 Y108.227 E.14047
G1 X87.583 Y108.227 E.5514
G1 E-.8 F3600
G1 X100.022 Y106.072 F18000
G1 E.8 F3600
;TYPE:Bottom surface
;WIDTH:0.503684
G1 F3000
G1 X99.309 Y105.36 E.04456
G1 X98.67 Y105.36 E.02828
G1 X99.82 Y106.51 E.07193
G1 X99.82 Y107.15 E.02828
G1 X98.03 Y105.36 E.11192
G1 X97.391 Y105.36 E.02828
G1 X99.82 Y107.789 E.1519
G1 X99.82 Y107.89 E.00447
G1 X99.282 Y107.89 E.02381
G1 X96.751 Y105.36 E.15822
G1 X96.112 Y105.36 E.02828
G1 X98.642 Y107.89 E.15822
G1 X98.003 Y107.89 E.02828
G1 X95.472 Y105.36 E.15822
G1 X94.833 Y105.36 E.02828
G1 X97.363 Y107.89 E.15822
G1 X96.724 Y107.89 E.02828
G1 X94.194 Y105.36 E.15822
G1 X93.554 Y105.36 E.02828
G1 X96.084 Y107.89 E.15822
G1 X95.445 Y107.89 E.02828
G1 X92.915 Y105.36 E.15822
G1 X92.275 Y105.36 E.02828
G1 X94.805 Y107.89 E.15822
G1 X94.166 Y107.89 E.02828
G1 X91.636 Y105.36 E.15822
G1 X90.996 Y105.36 E.02828
G1 X93.526 Y107.89 E.15822
G1 X92.887 Y107.89 E.02828
G1 X90.357 Y105.36 E.15822
G1 X89.717 Y105.36 E.02828
G1 X92.247 Y107.89 E.15822
G1 X91.608 Y107.89 E.02828
G1 X89.078 Y105.36 E.15822
G1 X88.438 Y105.36 E.02828
G1 X90.968 Y107.89 E.15822
G1 X90.329 Y107.89 E.02828
G1 X87.9 Y105.461 E.1519
G1 X87.9 Y106.1 E.02828
G1 X89.69 Y107.89 E.11191
G1 X89.05 Y107.89 E.02828
G1 X87.9 Y106.74 E.07192
G1 X87.9 Y107.379 E.02828
G1 X88.612 Y108.092 E.04455
; stop printing object flat-cat7-clip-slimmed.stl id:13 copy 0
; printing object "flat-cat7-clip-slimmed.stl" id:15 copy 0
G1 E-.8 F3600
G1 X87.115 Y101.925 F18000
G1 E.8 F3600
;TYPE:Outer wall
;WIDTH:0.5
G1 F2400
G1 X87.115 Y97.825 E.17981
G1 X100.605 Y97.825 E.59162
G1 X100.605 Y101.925 E.17981
G1 X87.135 Y101.925 E.59074
G1 X87.563 Y101.477 F18000
;TYPE:Inner wall
G1 F2400
G1 X87.563 Y98.273 E.14047
G1 X100.157 Y98.273 E.55228
G1 X100.157 Y101.477 E.14047
G1 X87.583 Y101.477 E.5514
G1 E-.8 F3600
G1 X100.022 Y99.322 F18000
G1 E.8 F3600
;TYPE:Bottom surface
;WIDTH:0.503684
G1 F3000
G1 X99.309 Y98.61 E.04456
G1 X98.67 Y98.61 E.02828
G1 X99.82 Y99.76 E.07193
G1 X99.82 Y100.4 E.02828
G1 X98.03 Y98.61 E.11192
G1 X97.391 Y98.61 E.02828
G1 X99.82 Y101.039 E.1519
G1 X99.82 Y101.14 E.00447
G1 X99.282 Y101.14 E.02381
