; HEADER_BLOCK_START
; generated by AnycubicSlicerNext 1.3.9.4 on 2026-06-20 at 17:06:23
; total layer number: 90
; filament_density: 1.24
; filament_diameter: 1.75
; max_z_height: 18.04
; exclude_object: 0
; model_instances: 20
; source_info: {"models":[{"file_source":0,"mo_file_id":-1,"name":"0.4mmCalibration.stl_id_0_copy_0"},{"file_source":0,"mo_file_id":-1,"name":"0.2mmCalibration.stl_id_1_copy_0"},{"file_source":0,"mo_file_id":-1,"name":"flat-cat7-clip-slimmed-tall.stl_id_2_copy_0"},{"file_source":0,"mo_file_id":-1,"name":"flat-cat7-clip-slimmed-tall.stl_id_3_copy_0"},{"file_source":0,"mo_file_id":-1,"name":"flat-cat7-clip-slimmed-tall.stl_id_4_copy_0"},{"file_source":0,"mo_file_id":-1,"name":"flat-cat7-clip-slimmed-tall.stl_id_5_copy_0"},{"file_source":0,"mo_file_id":-1,"name":"flat-cat7-clip-slimmed-tall.stl_id_6_copy_0"},{"file_source":0,"mo_file_id":-1,"name":"flat-cat7-clip-slimmed-tall.stl_id_7_copy_0"},{"file_source":0,"mo_file_id":-1,"name":"flat-cat7-clip-slimmed-tall.stl_id_8_copy_0"},{"file_source":0,"mo_file_id":-1,"name":"flat-cat7-clip-slimmed-tall.stl_id_9_copy_0"},{"file_source":0,"mo_file_id":-1,"name":"flat-cat7-clip-slimmed-tall.stl_id_10_copy_0"},{"file_source":0,"mo_file_id":-1,"name":"flat-cat7-clip-slimmed-tall.stl_id_11_copy_0"},{"file_source":0,"mo_file_id":-1,"name":"flat-cat7-clip-slimmed.stl_id_12_copy_0"},{"file_source":0,"mo_file_id":-1,"name":"flat-cat7-clip-slimmed.stl_id_13_copy_0"},{"file_source":0,"mo_file_id":-1,"name":"flat-cat7-clip-slimmed.stl_id_14_copy_0"},{"file_source":0,"mo_file_id":-1,"name":"flat-cat7-clip-slimmed.stl_id_15_copy_0"},{"file_source":0,"mo_file_id":-1,"name":"flat-cat7-clip-slimmed.stl_id_16_copy_0"},{"file_source":0,"mo_file_id":-1,"name":"flat-cat7-clip-slimmed.stl_id_17_copy_0"},{"file_source":0,"mo_file_id":-1,"name":"flat-cat7-clip-slimmed.stl_id_18_copy_0"},{"file_source":0,"mo_file_id":-1,"name":"flat-cat7-clip-slimmed.stl_id_19_copy_0"}],"models_from":0,"plate_index":1,"slice_paras_process":1,"software_version":"AnycubicSlicerNext 1.3.9.4 20260319224604"}
; paint_info = [{"material_type":"PLA","paint_color":[105,164,255],"paint_index":0}]
; project_info = {"flush_multiplier":1.0,"flush_volumes_chan_multipliers":[1.0,1.0,1.0,1.0],"flush_volumes_matrix":[0.0],"flush_volumes_vector":[140.0,140.0]}
; flush_multiplier_calculate_by_acnext: 1
; test_mode: 0
; HEADER_BLOCK_END

; THUMBNAIL_BLOCK_START
; THUMBNAIL_BLOCK_END

; external perimeters extrusion width = 0.42mm
; perimeters extrusion width = 0.45mm
; infill extrusion width = 0.45mm
; solid infill extrusion width = 0.42mm
; top infill extrusion width = 0.42mm
; first layer extrusion width = 0.50mm

; external perimeters extrusion width = 0.42mm
; perimeters extrusion width = 0.45mm
; infill extrusion width = 0.45mm
; solid infill extrusion width = 0.42mm
; top infill extrusion width = 0.42mm
; first layer extrusion width = 0.50mm

; external perimeters extrusion width = 0.42mm
; perimeters extrusion width = 0.45mm
; infill extrusion width = 0.45mm
; solid infill extrusion width = 0.42mm
; top infill extrusion width = 0.42mm
; first layer extrusion width = 0.50mm

; external perimeters extrusion width = 0.42mm
; perimeters extrusion width = 0.45mm
; infill extrusion width = 0.45mm
; solid infill extrusion width = 0.42mm
; top infill extrusion width = 0.42mm
; first layer extrusion width = 0.50mm

; external perimeters extrusion width = 0.42mm
; perimeters extrusion width = 0.45mm
; infill extrusion width = 0.45mm
; solid infill extrusion width = 0.42mm
; top infill extrusion width = 0.42mm
; first layer extrusion width = 0.50mm

; external perimeters extrusion width = 0.42mm
; perimeters extrusion width = 0.45mm
; infill extrusion width = 0.45mm
; solid infill extrusion width = 0.42mm
; top infill extrusion width = 0.42mm
; first layer extrusion width = 0.50mm

; external perimeters extrusion width = 0.42mm
; perimeters extrusion width = 0.45mm
; infill extrusion width = 0.45mm
; solid infill extrusion width = 0.42mm
; top infill extrusion width = 0.42mm
; first layer extrusion width = 0.50mm

; external perimeters extrusion width = 0.42mm
; perimeters extrusion width = 0.45mm
; infill extrusion width = 0.45mm
; solid infill extrusion width = 0.42mm
; top infill extrusion width = 0.42mm
; first layer extrusion width = 0.50mm

; external perimeters extrusion width = 0.42mm
; perimeters extrusion width = 0.45mm
; infill extrusion width = 0.45mm
; solid infill extrusion width = 0.42mm
; top infill extrusion width = 0.42mm
; first layer extrusion width = 0.50mm

; external perimeters extrusion width = 0.42mm
; perimeters extrusion width = 0.45mm
; infill extrusion width = 0.45mm
; solid infill extrusion width = 0.42mm
; top infill extrusion width = 0.42mm
; first layer extrusion width = 0.50mm

; external perimeters extrusion width = 0.42mm
; perimeters extrusion width = 0.45mm
; infill extrusion width = 0.45mm
; solid infill extrusion width = 0.42mm
; top infill extrusion width = 0.42mm
; first layer extrusion width = 0.50mm

; external perimeters extrusion width = 0.42mm
; perimeters extrusion width = 0.45mm
; infill extrusion width = 0.45mm
; solid infill extrusion width = 0.42mm
; top infill extrusion width = 0.42mm
; first layer extrusion width = 0.50mm

; external perimeters extrusion width = 0.42mm
; perimeters extrusion width = 0.45mm
; infill extrusion width = 0.45mm
; solid infill extrusion width = 0.42mm
; top infill extrusion width = 0.42mm
; first layer extrusion width = 0.50mm

; external perimeters extrusion width = 0.42mm
; perimeters extrusion width = 0.45mm
; infill extrusion width = 0.45mm
; solid infill extrusion width = 0.42mm
; top infill extrusion width = 0.42mm
; first layer extrusion width = 0.50mm

; external perimeters extrusion width = 0.42mm
; perimeters extrusion width = 0.45mm
; infill extrusion width = 0.45mm
; solid infill extrusion width = 0.42mm
; top infill extrusion width = 0.42mm
; first layer extrusion width = 0.50mm

; external perimeters extrusion width = 0.42mm
; perimeters extrusion width = 0.45mm
; infill extrusion width = 0.45mm
; solid infill extrusion width = 0.42mm
; top infill extrusion width = 0.42mm
; first layer extrusion width = 0.50mm

; external perimeters extrusion width = 0.42mm
; perimeters extrusion width = 0.45mm
; infill extrusion width = 0.45mm
; solid infill extrusion width = 0.42mm
; top infill extrusion width = 0.42mm
; first layer extrusion width = 0.50mm

; external perimeters extrusion width = 0.42mm
; perimeters extrusion width = 0.45mm
; infill extrusion width = 0.45mm
; solid infill extrusion width = 0.42mm
; top infill extrusion width = 0.42mm
; first layer extrusion width = 0.50mm

; external perimeters extrusion width = 0.42mm
; perimeters extrusion width = 0.45mm
; infill extrusion width = 0.45mm
; solid infill extrusion width = 0.42mm
; top infill extrusion width = 0.42mm
; first layer extrusion width = 0.50mm

; external perimeters extrusion width = 0.42mm
; perimeters extrusion width = 0.45mm
; infill extrusion width = 0.45mm
; solid infill extrusion width = 0.42mm
; top infill extrusion width = 0.42mm
; first layer extrusion width = 0.50mm

; EXECUTABLE_BLOCK_START
M201 X2000 Y2000 Z800 E2000
M203 X300 Y300 Z8 E100
M204 P2000 R2000 T2000
M205 X10.00 Y10.00 Z2.00 E5.00
;TYPE:Custom
G90 ; use absolute coordinates
M83 ; extruder relative mode
M104 S220 ; set extruder temp
M140 S55 ; set bed temp
M190 S55 ; wait for bed temp
M109 S220 ; wait for extruder temp
G28                                        ; move X/Y/Z to min endstops
G1 Z0.28                                   ; lift nozzle a bit 
G92 E0 
G1 Y3 F1800                                    ; zero the extruded length 
G1 X60  E25 F500                       ; Extrude 25mm of filament in a 5cm line. 
G92 E0                                     ; zero the extruded length again 
G1 E-2 F500                                ; Retract a little 
G1 X70 F4000                              ; Quickly wipe away from the filament line
M117
G90
G21
M83 ; use relative distances for extrusion
; EXECUTABLE_BLOCK_HEAD
; filament start gcode
M75 ; The first extruder is ready.
M106 S0
;LAYER_CHANGE
;Z:0.24
;HEIGHT:0.24
; BEFORE_LAYER_CHANGE 0 @ 0.24mm
G92 E0
; AFTER_LAYER_CHANGE 0 @ 0.24mm
M204 S500
G1 E-.8 F3600
G1 X80.681 Y91.244 F18000
G1 Z.24
G1 E.8 F3600
;TYPE:Skirt
;WIDTH:0.5
G1 F3000
G1 X84.088 Y88.446 E.19335
G1 X84.653 Y88.108 E.02885
G1 X101.041 Y81.358 E.7773
G1 X101.888 Y81.191 E.03787
G1 X116.028 Y81.191 E.62012
G1 X116.955 Y81.393 E.04161
G1 X131.677 Y88.143 E.71027
G1 X132.659 Y89.024 E.05784
G1 X132.974 Y90.165 E.05193
G1 X132.974 Y120.445 E1.32796
G1 X132.731 Y121.457 E.04567
G1 X124.481 Y137.597 E.79495
G1 X123.559 Y138.541 E.05784
G1 X122.5 Y138.809 E.04791
G1 X92.25 Y138.809 E1.32665
G1 X90.99 Y138.418 E.05784
G1 X90.501 Y137.959 E.02942
G1 X70.459 Y112.457 E1.42251
G1 X69.983 Y111.082 E.06378
G1 X69.983 Y101.082 E.43856
G1 X70.796 Y99.363 E.08338
G1 X80.65 Y91.27 E.55926
; printing object "flat-cat7-clip-slimmed.stl" id:19 copy 0
G1 E-.8 F3600
G1 X102.213 Y87.84 F18000
G1 E.8 F3600
;TYPE:Outer wall
G1 F2400
G1 X102.213 Y83.74 E.17981
G1 X115.703 Y83.74 E.59162
G1 X115.703 Y87.84 E.17981
G1 X102.233 Y87.84 E.59074
G1 X102.662 Y87.392 F18000
;TYPE:Inner wall
G1 F2400
G1 X102.662 Y84.188 E.14047
G1 X115.255 Y84.188 E.55228
G1 X115.255 Y87.392 E.14047
G1 X102.682 Y87.392 E.5514
G1 E-.8 F3600
G1 X115.12 Y85.237 F18000
G1 E.8 F3600
;TYPE:Bottom surface
;WIDTH:0.503684
G1 F3000
G1 X114.407 Y84.525 E.04456
G1 X113.768 Y84.525 E.02828
G1 X114.918 Y85.675 E.07193
G1 X114.918 Y86.315 E.02828
G1 X113.129 Y84.525 E.11192
G1 X112.489 Y84.525 E.02828
G1 X114.918 Y86.954 E.1519
G1 X114.918 Y87.055 E.00447
G1 X114.38 Y87.055 E.02381
G1 X111.85 Y84.525 E.15822
G1 X111.21 Y84.525 E.02828
G1 X113.74 Y87.055 E.15822
G1 X113.101 Y87.055 E.02828
G1 X110.571 Y84.525 E.15822
G1 X109.931 Y84.525 E.02828
G1 X112.461 Y87.055 E.15822
G1 X111.822 Y87.055 E.02828
G1 X109.292 Y84.525 E.15822
G1 X108.652 Y84.525 E.02828
G1 X111.182 Y87.055 E.15822
G1 X110.543 Y87.055 E.02828
G1 X108.013 Y84.525 E.15822
G1 X107.373 Y84.525 E.02828
G1 X109.903 Y87.055 E.15822
G1 X109.264 Y87.055 E.02828
G1 X106.734 Y84.525 E.15822
G1 X106.094 Y84.525 E.02828
G1 X108.625 Y87.055 E.15822
G1 X107.985 Y87.055 E.02828
G1 X105.455 Y84.525 E.15822
G1 X104.815 Y84.525 E.02828
G1 X107.346 Y87.055 E.15822
G1 X106.706 Y87.055 E.02828
G1 X104.176 Y84.525 E.15822
G1 X103.536 Y84.525 E.02828
G1 X106.067 Y87.055 E.15822
G1 X105.427 Y87.055 E.02828
G1 X102.998 Y84.626 E.1519
G1 X102.998 Y85.265 E.02828
G1 X104.788 Y87.055 E.11191
G1 X104.148 Y87.055 E.02828
G1 X102.998 Y85.905 E.07192
G1 X102.998 Y86.544 E.02828
G1 X103.711 Y87.257 E.04455
; stop printing object flat-cat7-clip-slimmed.stl id:19 copy 0
; printing object "flat-cat7-clip-slimmed.stl" id:14 copy 0
G1 E-.8 F3600
G1 X130.425 Y103.98 F18000
G1 E.8 F3600
;TYPE:Outer wall
;WIDTH:0.5
G1 F2400
G1 X126.325 Y103.98 E.17981
G1 X126.325 Y90.49 E.59162
G1 X130.425 Y90.49 E.17981
G1 X130.425 Y103.96 E.59074
G1 X129.977 Y103.532 F18000
;TYPE:Inner wall
G1 F2400
G1 X126.773 Y103.532 E.14047
G1 X126.773 Y90.938 E.55228
G1 X129.977 Y90.938 E.14047
G1 X129.977 Y103.512 E.5514
G1 E-.8 F3600
G1 X129.842 Y91.987 F18000
G1 E.8 F3600
;TYPE:Bottom surface
;WIDTH:0.503684
G1 F3000
G1 X129.129 Y91.275 E.04456
G1 X128.49 Y91.275 E.02828
G1 X129.64 Y92.425 E.07193
G1 X129.64 Y93.065 E.02828
G1 X127.85 Y91.275 E.11192
G1 X127.211 Y91.275 E.02828
G1 X129.64 Y93.704 E.1519
G1 X129.64 Y94.344 E.02828
G1 X127.11 Y91.813 E.15822
G1 X127.11 Y92.453 E.02828
G1 X129.64 Y94.983 E.15822
G1 X129.64 Y95.623 E.02828
G1 X127.11 Y93.092 E.15822
G1 X127.11 Y93.732 E.02828
G1 X129.64 Y96.262 E.15822
G1 X129.64 Y96.901 E.02828
G1 X127.11 Y94.371 E.15822
G1 X127.11 Y95.011 E.02828
G1 X129.64 Y97.541 E.15822
G1 X129.64 Y98.18 E.02828
G1 X127.11 Y95.65 E.15822
G1 X127.11 Y96.29 E.02828
G1 X129.64 Y98.82 E.15822
G1 X129.64 Y99.459 E.02828
G1 X127.11 Y96.929 E.15822
G1 X127.11 Y97.569 E.02828
G1 X129.64 Y100.099 E.15822
G1 X129.64 Y100.738 E.02828
G1 X127.11 Y98.208 E.15822
G1 X127.11 Y98.848 E.02828
G1 X129.64 Y101.378 E.15822
G1 X129.64 Y102.017 E.02828
G1 X127.11 Y99.487 E.15822
G1 X127.11 Y100.127 E.02828
G1 X129.64 Y102.657 E.15822
G1 X129.64 Y103.195 E.0238
G1 X129.539 Y103.195 E.00447
G1 X127.11 Y100.766 E.1519
G1 X127.11 Y101.405 E.02828
G1 X128.9 Y103.195 E.11191
G1 X128.26 Y103.195 E.02828
G1 X127.11 Y102.045 E.07192
G1 X127.11 Y102.684 E.02828
G1 X127.822 Y103.397 E.04455
; stop printing object flat-cat7-clip-slimmed.stl id:14 copy 0
; printing object "flat-cat7-clip-slimmed-tall.stl" id:10 copy 0
G1 E-.8 F3600
G1 X119.575 Y103.98 F18000
G1 E.8 F3600
;TYPE:Outer wall
;WIDTH:0.5
G1 F2400
G1 X119.575 Y90.49 E.59162
G1 X123.675 Y90.49 E.17981
G1 X123.675 Y103.98 E.59162
G1 X119.595 Y103.98 E.17893
G1 X120.023 Y103.532 F18000
;TYPE:Inner wall
G1 F2400
G1 X120.023 Y90.938 E.55228
G1 X123.227 Y90.938 E.14047
G1 X123.227 Y103.532 E.55228
G1 X120.043 Y103.532 E.13959
G1 E-.8 F3600
G1 X122.178 Y91.073 F18000
G1 E.8 F3600
;TYPE:Bottom surface
;WIDTH:0.503685
G1 F3000
G1 X122.89 Y91.786 E.04456
G1 X122.89 Y92.425 E.02828
G1 X121.74 Y91.275 E.07193
G1 X121.1 Y91.275 E.02828
G1 X122.89 Y93.065 E.11192
G1 X122.89 Y93.704 E.02828
G1 X120.461 Y91.275 E.1519
G1 X120.36 Y91.275 E.00447
G1 X120.36 Y91.813 E.02381
G1 X122.89 Y94.344 E.15822
G1 X122.89 Y94.983 E.02828
G1 X120.36 Y92.453 E.15822
G1 X120.36 Y93.092 E.02828
G1 X122.89 Y95.623 E.15822
G1 X122.89 Y96.262 E.02828
G1 X120.36 Y93.732 E.15822
G1 X120.36 Y94.371 E.02828
G1 X122.89 Y96.902 E.15822
G1 X122.89 Y97.541 E.02828
G1 X120.36 Y95.011 E.15822
G1 X120.36 Y95.65 E.02828
G1 X122.89 Y98.18 E.15822
G1 X122.89 Y98.82 E.02828
G1 X120.36 Y96.29 E.15822
G1 X120.36 Y96.929 E.02828
G1 X122.89 Y99.459 E.15822
G1 X122.89 Y100.099 E.02828
G1 X120.36 Y97.569 E.15822
G1 X120.36 Y98.208 E.02828
G1 X122.89 Y100.738 E.15822
G1 X122.89 Y101.378 E.02828
G1 X120.36 Y98.848 E.15822
G1 X120.36 Y99.487 E.02828
G1 X122.89 Y102.017 E.15822
G1 X122.89 Y102.657 E.02828
G1 X120.36 Y100.127 E.15822
G1 X120.36 Y100.766 E.02828
G1 X122.789 Y103.195 E.1519
G1 X122.149 Y103.195 E.02828
G1 X120.36 Y101.406 E.11191
G1 X120.36 Y102.045 E.02828
G1 X121.51 Y103.195 E.07192
G1 X120.871 Y103.195 E.02828
G1 X120.158 Y102.483 E.04455
; stop printing object flat-cat7-clip-slimmed-tall.stl id:10 copy 0
; printing object "flat-cat7-clip-slimmed-tall.stl" id:11 copy 0
G1 E-.8 F3600
G1 X112.825 Y103.98 F18000
G1 E.8 F3600
;TYPE:Outer wall
;WIDTH:0.5
G1 F2400
G1 X112.825 Y90.49 E.59162
G1 X116.925 Y90.49 E.17981
G1 X116.925 Y103.98 E.59162
G1 X112.845 Y103.98 E.17893
G1 X113.273 Y103.532 F18000
;TYPE:Inner wall
G1 F2400
G1 X113.273 Y90.938 E.55228
G1 X116.477 Y90.938 E.14047
G1 X116.477 Y103.532 E.55228
G1 X113.293 Y103.532 E.13959
G1 E-.8 F3600
G1 X115.428 Y91.073 F18000
G1 E.8 F3600
;TYPE:Bottom surface
;WIDTH:0.503685
G1 F3000
G1 X116.14 Y91.786 E.04456
G1 X116.14 Y92.425 E.02828
G1 X114.99 Y91.275 E.07193
G1 X114.35 Y91.275 E.02828
G1 X116.14 Y93.065 E.11192
G1 X116.14 Y93.704 E.02828
G1 X113.711 Y91.275 E.1519
G1 X113.61 Y91.275 E.00447
G1 X113.61 Y91.813 E.02381
G1 X116.14 Y94.344 E.15822
G1 X116.14 Y94.983 E.02828
G1 X113.61 Y92.453 E.15822
G1 X113.61 Y93.092 E.02828
G1 X116.14 Y95.623 E.15822
G1 X116.14 Y96.262 E.02828
G1 X113.61 Y93.732 E.15822
G1 X113.61 Y94.371 E.02828
G1 X116.14 Y96.902 E.15822
G1 X116.14 Y97.541 E.02828
G1 X113.61 Y95.011 E.15822
G1 X113.61 Y95.65 E.02828
G1 X116.14 Y98.18 E.15822
G1 X116.14 Y98.82 E.02828
G1 X113.61 Y96.29 E.15822
G1 X113.61 Y96.929 E.02828
G1 X116.14 Y99.459 E.15822
G1 X116.14 Y100.099 E.02828
G1 X113.61 Y97.569 E.15822
G1 X113.61 Y98.208 E.02828
G1 X116.14 Y100.738 E.15822
G1 X116.14 Y101.378 E.02828
G1 X113.61 Y98.848 E.15822
G1 X113.61 Y99.487 E.02828
G1 X116.14 Y102.017 E.15822
G1 X116.14 Y102.657 E.02828
G1 X113.61 Y100.127 E.15822
G1 X113.61 Y100.766 E.02828
G1 X116.039 Y103.195 E.1519
G1 X115.399 Y103.195 E.02828
G1 X113.61 Y101.406 E.11191
