; HEADER_BLOCK_START
; generated by AnycubicSlicerNext 1.3.9.4 on 2026-06-20 at 10:36:48
; total layer number: 239
; filament_density: 1.24
; filament_diameter: 1.75
; max_z_height: 47.84
; exclude_object: 0
; model_instances: 5
; source_info: {"models":[{"file_source":0,"mo_file_id":-1,"name":"Apple_Watch_Standard_BaseV14_v2.stl_id_0_copy_0"},{"file_source":0,"mo_file_id":-1,"name":"laptop_spacer_rounded.stl_id_1_copy_0"},{"file_source":0,"mo_file_id":-1,"name":"laptop_spacer_rounded.stl_id_2_copy_0"},{"file_source":0,"mo_file_id":-1,"name":"laptop_spacer_rounded.stl_id_3_copy_0"},{"file_source":0,"mo_file_id":-1,"name":"laptop_spacer_rounded.stl_id_4_copy_0"}],"models_from":0,"plate_index":1,"slice_paras_process":1,"software_version":"AnycubicSlicerNext 1.3.9.4 20260319224604"}
; paint_info = [{"material_type":"PLA","paint_color":[105,164,255],"paint_index":0}]
; project_info = {"flush_multiplier":1.0,"flush_volumes_chan_multipliers":[1.0,1.0,1.0,1.0],"flush_volumes_matrix":[0.0],"flush_volumes_vector":[140.0,140.0]}
; flush_multiplier_calculate_by_acnext: 1
; test_mode: 0
; HEADER_BLOCK_END

; THUMBNAIL_BLOCK_START
; THUMBNAIL_BLOCK_END

; external perimeters extrusion width = 0.42mm
; perimeters extrusion width = 0.45mm
; infill extrusion width = 0.45mm
; solid infill extrusion width = 0.42mm
; top infill extrusion width = 0.42mm
; first layer extrusion width = 0.50mm

; external perimeters extrusion width = 0.42mm
; perimeters extrusion width = 0.45mm
; infill extrusion width = 0.45mm
; solid infill extrusion width = 0.42mm
; top infill extrusion width = 0.42mm
; first layer extrusion width = 0.50mm

; external perimeters extrusion width = 0.42mm
; perimeters extrusion width = 0.45mm
; infill extrusion width = 0.45mm
; solid infill extrusion width = 0.42mm
; top infill extrusion width = 0.42mm
; first layer extrusion width = 0.50mm

; external perimeters extrusion width = 0.42mm
; perimeters extrusion width = 0.45mm
; infill extrusion width = 0.45mm
; solid infill extrusion width = 0.42mm
; top infill extrusion width = 0.42mm
; first layer extrusion width = 0.50mm

; external perimeters extrusion width = 0.42mm
; perimeters extrusion width = 0.45mm
; infill extrusion width = 0.45mm
; solid infill extrusion width = 0.42mm
; top infill extrusion width = 0.42mm
; first layer extrusion width = 0.50mm

; EXECUTABLE_BLOCK_START
M201 X2000 Y2000 Z800 E2000
M203 X300 Y300 Z8 E100
M204 P2000 R2000 T2000
M205 X10.00 Y10.00 Z2.00 E5.00
;TYPE:Custom
G90 ; use absolute coordinates
M83 ; extruder relative mode
M104 S220 ; set extruder temp
M140 S55 ; set bed temp
M190 S55 ; wait for bed temp
M109 S220 ; wait for extruder temp
G28                                        ; move X/Y/Z to min endstops
G1 Z0.28                                   ; lift nozzle a bit 
G92 E0 
G1 Y3 F1800                                    ; zero the extruded length 
G1 X60  E25 F500                       ; Extrude 25mm of filament in a 5cm line. 
G92 E0                                     ; zero the extruded length again 
G1 E-2 F500                                ; Retract a little 
G1 X70 F4000                              ; Quickly wipe away from the filament line
M117
G90
G21
M83 ; use relative distances for extrusion
; EXECUTABLE_BLOCK_HEAD
; filament start gcode
M75 ; The first extruder is ready.
M106 S0
;LAYER_CHANGE
;Z:0.24
;HEIGHT:0.24
; BEFORE_LAYER_CHANGE 0 @ 0.24mm
G92 E0
; AFTER_LAYER_CHANGE 0 @ 0.24mm
M204 S500
G1 E-.8 F3600
G1 X77.99 Y74.888 F18000
G1 Z.24
G1 E.8 F3600
;TYPE:Skirt
;WIDTH:0.5
G1 F3000
G1 X93.199 Y57.263 E1.02101
G1 X94.883 Y56.491 E.08123
G1 X151.452 Y56.491 E2.48087
G1 X152.711 Y56.882 E.05784
G1 X153.599 Y58.137 E.06742
G1 X161.756 Y88.422 E1.37548
G1 X161.832 Y89.019 E.0264
G1 X161.267 Y154.804 E2.8852
G1 X161.077 Y156.143 E.05932
G1 X160.562 Y157.709 E.07226
G1 X159.878 Y158.964 E.0627
G1 X158.896 Y160.188 E.06883
G1 X157.758 Y161.173 E.06602
G1 X156.345 Y161.999 E.07177
G1 X155.075 Y162.466 E.05932
G1 X153.308 Y162.764 E.07861
G1 X112.709 Y162.779 E1.78048
G1 X59.997 Y157.677 E2.32259
G1 X58.781 Y157.166 E.05784
G1 X57.988 Y155.463 E.08237
G1 X57.988 Y98.895 E2.48087
G1 X58.528 Y97.442 E.06799
G1 X77.963 Y74.919 E1.30468
; printing object "Apple Watch Standard BaseV14 v2.stl" id:0 copy 0
G1 E-.8 F3600
G1 X141.402 Y143.039 F18000
G1 E.8 F3600
;TYPE:Outer wall
G1 F2400
G1 X141.643 Y142.904 E.01215
G1 X141.987 Y142.645 E.01888
G1 X142.29 Y142.344 E.0187
G1 X142.431 Y142.17 E.00982
G1 X142.665 Y141.815 E.01866
G1 X142.85 Y141.427 E.01884
G1 X142.98 Y141.018 E.01885
G1 X143.052 Y140.596 E.01876
G1 X143.068 Y140.284 E.0137
G1 X143.052 Y139.972 E.0137
G1 X142.98 Y139.551 E.01876
G1 X142.851 Y139.145 E.01866
G1 X142.762 Y138.94 E.00981
G1 X142.553 Y138.57 E.01865
G1 X142.293 Y138.228 E.01886
G1 X141.987 Y137.924 E.01889
G1 X141.643 Y137.665 E.01888
G1 X141.272 Y137.456 E.01869
G1 X141.068 Y137.367 E.00975
G1 X140.755 Y137.261 E.01449
G1 X140.439 Y137.19 E.01421
G1 X128.939 Y135.235 E.51157
G1 X128.288 Y135.215 E.02859
G1 X120.445 Y135.523 E.34421
G1 X120.067 Y135.553 E.01662
G1 X119.687 Y135.615 E.01691
G1 X119.312 Y135.707 E.01691
G1 X118.946 Y135.83 E.01691
G1 X118.592 Y135.981 E.01691
G1 X118.251 Y136.161 E.01687
G1 X117.962 Y136.342 E.01498
G1 X117.652 Y136.571 E.01688
G1 X117.362 Y136.824 E.01691
G1 X117.093 Y137.1 E.01688
G1 X116.706 Y137.562 E.02644
G1 X116.534 Y137.717 E.01012
G1 X116.388 Y137.82 E.00785
G1 X116.059 Y137.982 E.0161
G1 X115.837 Y138.049 E.01017
G1 X115.651 Y138.081 E.00826
G1 X107.429 Y138.092 E.36059
G1 X107.219 Y138.059 E.00933
G1 X107.134 Y138.017 E.00416
G1 X107.041 Y137.901 E.00649
G1 X107.017 Y137.765 E.00607
G1 X107.017 Y126.29 E.50325
G1 X107.032 Y125.875 E.01823
G1 X107.075 Y125.467 E.01798
G1 X107.148 Y125.064 E.01794
G1 X107.262 Y124.623 E.01998
G1 X107.377 Y124.277 E.01601
G1 X107.534 Y123.898 E.01799
G1 X107.716 Y123.532 E.01795
G1 X107.949 Y123.14 E.01997
G1 X108.157 Y122.841 E.016
G1 X108.414 Y122.52 E.018
G1 X108.692 Y122.22 E.01795
G1 X109.024 Y121.91 E.01994
G1 X109.344 Y121.654 E.01795
G1 X109.682 Y121.421 E.018
G1 X109.995 Y121.235 E.016
G1 X110.402 Y121.03 E.01997
G1 X110.781 Y120.874 E.01795
G1 X111.17 Y120.745 E.01798
G1 X111.567 Y120.644 E.01798
G1 X111.97 Y120.572 E.01797
G1 X112.376 Y120.528 E.01789
G1 X113.284 Y120.513 E.03985
G1 X152.828 Y120.515 E1.73422
G1 X153.198 Y120.528 E.01622
G1 X153.605 Y120.572 E.01798
G1 X154.008 Y120.644 E.01794
G1 X154.449 Y120.759 E.01998
G1 X154.795 Y120.874 E.01601
G1 X155.174 Y121.03 E.01799
G1 X155.541 Y121.213 E.01795
G1 X155.932 Y121.446 E.01997
G1 X156.231 Y121.654 E.016
G1 X156.552 Y121.91 E.018
G1 X156.852 Y122.188 E.01795
G1 X157.162 Y122.521 E.01994
G1 X157.418 Y122.84 E.01795
G1 X157.651 Y123.178 E.018
G1 X157.837 Y123.492 E.016
G1 X158.042 Y123.899 E.01997
G1 X158.198 Y124.277 E.01795
G1 X158.327 Y124.666 E.01798
G1 X158.428 Y125.063 E.01796
G1 X158.5 Y125.467 E.01799
G1 X158.544 Y125.875 E.01798
G1 X158.559 Y126.29 E.01823
G1 X158.559 Y154.279 E1.22746
G1 X158.544 Y154.694 E.01823
G1 X158.5 Y155.102 E.01799
G1 X158.428 Y155.505 E.01797
G1 X158.327 Y155.902 E.01794
G1 X158.182 Y156.333 E.01998
G1 X158.042 Y156.67 E.016
G1 X157.86 Y157.037 E.01796
G1 X157.626 Y157.428 E.01997
G1 X157.418 Y157.728 E.016
G1 X157.162 Y158.048 E.018
G1 X156.884 Y158.349 E.01795
G1 X156.551 Y158.659 E.01994
G1 X156.232 Y158.914 E.01795
G1 X155.894 Y159.148 E.018
G1 X155.58 Y159.334 E.016
G1 X155.174 Y159.539 E.01997
G1 X154.795 Y159.695 E.01795
G1 X154.406 Y159.823 E.01798
G1 X154.009 Y159.924 E.01798
G1 X153.605 Y159.997 E.01797
G1 X153.198 Y160.041 E.01799
G1 X152.782 Y160.055 E.01823
G1 X112.794 Y160.055 E1.75374
G1 X112.378 Y160.04 E.01824
G1 X111.971 Y159.997 E.01797
G1 X111.568 Y159.925 E.01794
G1 X111.127 Y159.81 E.01998
G1 X110.781 Y159.695 E.01601
G1 X110.402 Y159.539 E.01796
G1 X109.995 Y159.334 E.01997
G1 X109.682 Y159.148 E.016
G1 X109.344 Y158.914 E.018
G1 X109.024 Y158.658 E.01798
G1 X108.723 Y158.38 E.01795
G1 X108.413 Y158.048 E.01994
G1 X108.158 Y157.728 E.01795
G1 X107.925 Y157.391 E.01798
G1 X107.716 Y157.038 E.01798
G1 X107.534 Y156.67 E.01799
G1 X107.394 Y156.333 E.016
G1 X107.248 Y155.902 E.01998
G1 X107.148 Y155.505 E.01794
G1 X107.075 Y155.102 E.01798
G1 X107.032 Y154.694 E.01798
G1 X107.017 Y154.279 E.01823
G1 X107.017 Y142.809 E.50302
G1 X107.057 Y142.635 E.00782
G1 X107.148 Y142.542 E.00568
G1 X107.319 Y142.484 E.00794
G1 X107.419 Y142.477 E.00439
G1 X115.649 Y142.488 E.36092
G1 X115.857 Y142.524 E.00929
G1 X116.052 Y142.583 E.00895
G1 X116.383 Y142.745 E.01612
G1 X116.532 Y142.85 E.00801
G1 X116.704 Y143.005 E.01016
G1 X117.093 Y143.468 E.02653
G1 X117.362 Y143.744 E.01688
G1 X117.652 Y143.998 E.01691
G1 X117.962 Y144.226 E.01688
G1 X118.251 Y144.408 E.01498
G1 X118.592 Y144.587 E.01687
G1 X118.946 Y144.739 E.01691
G1 X119.312 Y144.861 E.01691
G1 X119.687 Y144.953 E.01691
G1 X120.067 Y145.015 E.01691
G1 X120.445 Y145.045 E.01663
G1 X128.609 Y145.355 E.35829
G1 X129.258 Y145.29 E.02859
G1 X140.439 Y143.379 E.4975
G1 X140.76 Y143.306 E.01442
G1 X141.266 Y143.115 E.02373
G1 X141.384 Y143.049 E.00595
G1 X141.621 Y143.43 F18000
;TYPE:Inner wall
G1 F2400
G1 X141.889 Y143.28 E.01347
G1 X142.282 Y142.984 E.02155
G1 X142.622 Y142.645 E.02108
G1 X142.793 Y142.436 E.01184
G1 X143.056 Y142.036 E.02101
G1 X143.268 Y141.593 E.02155
G1 X143.417 Y141.124 E.02157
G1 X143.499 Y140.645 E.02129
G1 X143.517 Y140.284 E.01585
G1 X143.499 Y139.923 E.01585
G1 X143.417 Y139.445 E.02129
G1 X143.272 Y138.987 E.02105
G1 X143.164 Y138.74 E.01184
G1 X142.928 Y138.323 E.021
G1 X142.631 Y137.932 E.02156
G1 X142.282 Y137.584 E.0216
G1 X141.889 Y137.288 E.02155
G1 X141.472 Y137.054 E.02099
G1 X141.23 Y136.949 E.01157
G1 X140.877 Y136.829 E.01635
G1 X140.526 Y136.75 E.01577
G1 X128.984 Y134.788 E.51346
G1 X128.286 Y134.767 E.03064
G1 X120.418 Y135.075 E.34529
G1 X120.013 Y135.108 E.01782
G1 X119.597 Y135.175 E.01851
G1 X119.187 Y135.276 E.01851
G1 X118.787 Y135.41 E.01851
G1 X118.399 Y135.576 E.01851
G1 X118.028 Y135.772 E.0184
G1 X117.709 Y135.971 E.01648
G1 X117.371 Y136.221 E.01844
G1 X117.053 Y136.499 E.01851
G1 X116.76 Y136.799 E.0184
G1 X116.382 Y137.25 E.02581
G1 X116.253 Y137.366 E.0076
G1 X116.158 Y137.434 E.00512
G1 X115.894 Y137.564 E.01291
G1 X115.601 Y137.634 E.01323
G1 X107.465 Y137.644 E.35679
G1 X107.465 Y126.298 E.49757
G1 X107.479 Y125.906 E.01718
G1 X107.52 Y125.53 E.01658
G1 X107.586 Y125.161 E.01649
G1 X107.692 Y124.751 E.01857
G1 X107.798 Y124.434 E.01466
G1 X107.942 Y124.083 E.01661
G1 X108.11 Y123.747 E.0165
G1 X108.327 Y123.383 E.01854
G1 X108.517 Y123.109 E.01465
G1 X108.754 Y122.813 E.01663
G1 X109.01 Y122.537 E.01652
G1 X109.318 Y122.25 E.01847
G1 X109.612 Y122.014 E.01652
G1 X109.924 Y121.799 E.01662
G1 X110.211 Y121.628 E.01465
G1 X110.589 Y121.438 E.01855
G1 X110.937 Y121.295 E.0165
G1 X111.296 Y121.176 E.01658
G1 X111.662 Y121.083 E.01658
G1 X112.034 Y121.016 E.01657
G1 X112.403 Y120.976 E.0163
G1 X113.288 Y120.962 E.0388
G1 X152.82 Y120.963 E1.73371
G1 X153.166 Y120.976 E.01518
G1 X153.542 Y121.016 E.01658
G1 X153.912 Y121.082 E.01648
G1 X154.321 Y121.189 E.01857
G1 X154.639 Y121.294 E.01466
G1 X154.989 Y121.439 E.01661
G1 X155.326 Y121.606 E.0165
G1 X155.689 Y121.823 E.01854
G1 X155.963 Y122.013 E.01465
G1 X156.259 Y122.25 E.01663
G1 X156.536 Y122.506 E.01652
G1 X156.823 Y122.814 E.01847
G1 X157.058 Y123.108 E.01652
G1 X157.273 Y123.42 E.01662
G1 X157.444 Y123.707 E.01465
G1 X157.634 Y124.085 E.01855
G1 X157.777 Y124.433 E.0165
G1 X157.896 Y124.792 E.01658
G1 X157.989 Y125.158 E.01656
G1 X158.056 Y125.53 E.01659
G1 X158.096 Y125.906 E.01658
G1 X158.11 Y126.298 E.01718
G1 X158.11 Y154.271 E1.22676
G1 X158.096 Y154.662 E.01718
G1 X158.056 Y155.038 E.01659
G1 X157.989 Y155.41 E.01657
G1 X157.897 Y155.775 E.01649
G1 X157.762 Y156.176 E.01856
G1 X157.634 Y156.484 E.01466
G1 X157.466 Y156.822 E.01654
G1 X157.249 Y157.185 E.01854
G1 X157.059 Y157.459 E.01465
G1 X156.822 Y157.755 E.01663
G1 X156.566 Y158.032 E.01652
G1 X156.258 Y158.319 E.01847
G1 X155.964 Y158.554 E.01652
G1 X155.652 Y158.77 E.01662
G1 X155.365 Y158.94 E.01465
G1 X154.987 Y159.131 E.01855
G1 X154.639 Y159.274 E.0165
G1 X154.28 Y159.393 E.01658
G1 X153.914 Y159.486 E.01658
G1 X153.542 Y159.553 E.01657
G1 X153.166 Y159.593 E.01659
G1 X152.774 Y159.607 E.01718
G1 X112.802 Y159.607 E1.75304
G1 X112.41 Y159.593 E.01719
G1 X112.034 Y159.553 E.01657
G1 X111.664 Y159.486 E.01649
G1 X111.254 Y159.38 E.01857
G1 X110.937 Y159.274 E.01466
G1 X110.589 Y159.131 E.01653
G1 X110.211 Y158.94 E.01855
G1 X109.924 Y158.77 E.01465
G1 X109.612 Y158.554 E.01662
G1 X109.317 Y158.318 E.01658
G1 X109.04 Y158.062 E.01652
G1 X108.753 Y157.754 E.01847
G1 X108.518 Y157.46 E.01652
G1 X108.303 Y157.149 E.01658
G1 X108.111 Y156.824 E.01658
G1 X107.942 Y156.484 E.01661
G1 X107.814 Y156.176 E.01466
G1 X107.679 Y155.775 E.01856
G1 X107.586 Y155.41 E.01649
G1 X107.52 Y155.038 E.01658
G1 X107.479 Y154.662 E.01658
G1 X107.465 Y154.271 E.01718
G1 X107.465 Y142.925 E.49757
G1 X115.597 Y142.934 E.35664
G1 X115.888 Y143.002 E.01308
G1 X116.153 Y143.132 E.01298
G1 X116.252 Y143.201 E.00527
G1 X116.381 Y143.318 E.00761
G1 X116.76 Y143.769 E.02589
G1 X117.053 Y144.07 E.0184
G1 X117.371 Y144.347 E.01851
G1 X117.709 Y144.597 E.01844
G1 X118.028 Y144.797 E.01648
G1 X118.399 Y144.992 E.0184
G1 X118.787 Y145.158 E.01851
G1 X119.187 Y145.292 E.01851
G1 X119.597 Y145.393 E.01851
G1 X120.013 Y145.461 E.01851
G1 X120.419 Y145.493 E.01784
G1 X128.623 Y145.804 E.36005
G1 X129.318 Y145.735 E.03063
G1 X140.527 Y143.819 E.4987
G1 X140.889 Y143.737 E.0163
G1 X141.456 Y143.523 E.02658
G1 X141.604 Y143.44 E.00744
G1 E-.8 F3600
G1 X156.081 Y138.279 F18000
G1 E.8 F3600
;TYPE:Outer wall
G1 F2400
G1 X156.146 Y138.139 E.00678
G1 X156.186 Y137.913 E.01004
G1 X156.186 Y137.427 E.02132
G1 X156.144 Y137.191 E.01053
G1 X156.015 Y136.966 E.01136
G1 X155.882 Y136.843 E.00795
G1 X155.686 Y136.734 E.00985
G1 X155.451 Y136.692 E.01045
G1 X154.965 Y136.692 E.02132
G1 X154.729 Y136.734 E.01053
G1 X154.509 Y136.861 E.01115
G1 X154.399 Y136.971 E.00679
G1 X154.272 Y137.191 E.01115
G1 X154.23 Y137.427 E.01053
G1 X154.23 Y137.913 E.02132
G1 X154.272 Y138.15 E.01053
G1 X154.405 Y138.379 E.01164
G1 X154.6 Y138.543 E.01116
G1 X154.74 Y138.608 E.00678
G1 X154.965 Y138.648 E.01004
G1 X155.451 Y138.648 E.02132
G1 X155.688 Y138.606 E.01053
G1 X155.917 Y138.474 E.01164
G1 X156.068 Y138.294 E.01028
G1 X156.483 Y138.479 F18000
;TYPE:Inner wall
G1 F2400
G1 X156.578 Y138.275 E.00986
G1 X156.635 Y137.953 E.01435
G1 X156.635 Y137.387 E.0248
G1 X156.572 Y137.035 E.01572
G1 X156.369 Y136.684 E.01778
G1 X156.148 Y136.478 E.01327
G1 X155.839 Y136.305 E.01551
G1 X155.491 Y136.243 E.01549
G1 X154.925 Y136.243 E.0248
G1 X154.573 Y136.306 E.01572
G1 X154.233 Y136.502 E.01719
G1 X154.04 Y136.695 E.01197
G1 X153.844 Y137.035 E.01719
G1 X153.781 Y137.387 E.01572
G1 X153.781 Y137.953 E.0248
G1 X153.844 Y138.306 E.01572
G1 X154.056 Y138.672 E.01856
G1 X154.357 Y138.924 E.01721
G1 X154.603 Y139.04 E.01194
G1 X154.925 Y139.097 E.01435
G1 X155.491 Y139.097 E.0248
G1 X155.844 Y139.034 E.01572
G1 X156.21 Y138.823 E.01856
G1 X156.462 Y138.522 E.01721
G1 X156.474 Y138.497 E.0012
G1 E-.8 F3600
G1 X152.417 Y136.846 F18000
G1 E.8 F3600
;TYPE:Outer wall
G1 F2400
G1 X152.155 Y136.764 E.01203
G1 X147.082 Y136.752 E.22246
G1 X146.825 Y136.785 E.01138
G1 X146.649 Y136.849 E.00822
G1 X146.497 Y136.942 E.00783
G1 X146.368 Y137.062 E.00773
G1 X146.268 Y137.206 E.00768
G1 X146.2 Y137.367 E.00766
G1 X146.166 Y137.539 E.00769
G1 X146.166 Y137.716 E.00777
G1 X146.2 Y137.888 E.00768
G1 X146.268 Y138.048 E.00766
G1 X146.368 Y138.192 E.00768
G1 X146.497 Y138.312 E.00773
G1 X146.654 Y138.408 E.0081
G1 X146.916 Y138.49 E.01205
G1 X152.154 Y138.491 E.22972
G1 X152.423 Y138.407 E.01233
G1 X152.643 Y138.257 E.01169
G1 X152.8 Y138.055 E.01123
G1 X152.871 Y137.888 E.00795
G1 X152.905 Y137.716 E.00769
G1 X152.905 Y137.539 E.00777
G1 X152.871 Y137.367 E.00768
G1 X152.803 Y137.206 E.00766
G1 X152.703 Y137.062 E.00768
G1 X152.574 Y136.942 E.00773
G1 X152.434 Y136.856 E.00722
