; Postprocessed by [ArcWelder](https://github.com/FormerLurker/ArcWelderLib)
; Copyright(C) 2021 - Brad Hochgesang
; Version: 1.2.0, Branch: master, BuildDate: 2021-11-21T20:04:00Z
; resolution=0.05mm
; path_tolerance=5.0%
; max_radius=9999.00mm
; default_xyz_precision=3
; default_e_precision=5
; extrusion_rate_variance=5.0%

; generated by AnycubicSlicer 1.4.4 on 2025-06-28 at 05:07:35 UTC




; 

; external perimeters extrusion width = 0.42mm
; perimeters extrusion width = 0.45mm
; infill extrusion width = 0.45mm
; solid infill extrusion width = 0.50mm
; top infill extrusion width = 0.42mm
; first layer extrusion width = 0.56mm

M201 X2500 Y2500 Z800 E2500 ; sets maximum accelerations, mm/sec^2
M203 X250 Y250 Z8 E80 ; sets maximum feedrates, mm / sec
M204 S2500 T2500 ; sets acceleration (S) and retract acceleration (R), mm/sec^2
M205 X10.00 Y10.00 Z2.00 E10.00 ; sets the jerk limits, mm/sec
M205 S0 T0 ; sets the minimum extruding and travel feed rate, mm/sec
;TYPE:Custom
G90 ; use absolute coordinates
M83 ; extruder relative mode
M104 S215 ; set extruder temp
M140 S60 ; set bed temp
M190 S60 ; wait for bed temp
M109 S215 ; wait for extruder temp
G28                                        ; move X/Y/Z to min endstops
G1 Z0.28                                   ; lift nozzle a bit 
G92 E0 
G1 Y3 F1800                                    ; zero the extruded length 
G1 X60  E25 F500                       ; Extrude 25mm of filament in a 5cm line. 
G92 E0                                     ; zero the extruded length again 
G1 E-2 F500                                ; Retract a little 
G1 X70 F4000                              ; Quickly wipe away from the filament line
M117
G21 ; set units to millimeters
G90 ; use absolute coordinates
M82 ; use absolute distances for extrusion
G92 E0
M107
;LAYER_CHANGE
;Z:0.28
;HEIGHT:0.28
; BEFORE_LAYER_CHANGE 0 @ 0.28mm
G1 E-2 F4800
G92 E0
G1 Z.28 F7200
; AFTER_LAYER_CHANGE 0 @ 0.28mm
G1 X59.517 Y76.913
G1 E2 F4800
;TYPE:Skirt/Brim
;WIDTH:0.56
G1 F3000
G1 X60.922 Y75.838 E2.10295
G1 X62.593 Y74.905 E2.21432
G1 X64.086 Y74.314 E2.30776
G1 X65.85 Y73.881 E2.41346
G1 X67.804 Y73.702 E2.52765
G1 X152.199 Y73.704 E7.43901
G1 X154.345 Y73.919 E7.56452
G3 X156.843 Y74.655 I-2.327 J12.506 E7.71627
G1 X158.919 Y75.731 E7.85235
G1 X160.484 Y76.913 E7.96648
G1 X161.964 Y78.469 E8.09145
G3 X164.235 Y82.745 I-10.183 J8.149 E8.37479
G1 X164.692 Y84.853 E8.50031
G1 X164.789 Y86.124 E8.57449
G1 X164.789 Y133.877 E11.35347
G1 X164.69 Y135.168 E11.42882
G1 X164.135 Y137.566 E11.57206
G1 X163.66 Y138.772 E11.64749
G1 X162.768 Y140.421 E11.75659
G1 X161.459 Y142.121 E11.88145
G1 X160.484 Y143.087 E11.96132
G1 X159.078 Y144.162 E12.06432
G1 X157.408 Y145.094 E12.17562
G1 X155.919 Y145.685 E12.26885
G1 X154.147 Y146.12 E12.37503
G1 X152.195 Y146.298 E12.4891
G1 X67.805 Y146.298 E17.40017
G1 X66.245 Y146.18 E17.49121
G1 X64.396 Y145.78 E17.6013
G1 X63.01 Y145.285 E17.68695
G1 X61.584 Y144.572 E17.77973
G1 X59.971 Y143.466 E17.89355
G3 X58.411 Y141.981 I8.116 J-10.087 E18.01899
G1 X57.34 Y140.58 E18.12162
G1 X56.405 Y138.908 E18.2331
G1 X55.815 Y137.416 E18.32647
G1 X55.381 Y135.649 E18.43236
G1 X55.21 Y133.893 E18.53503
G1 X55.21 Y86.106 E21.31599
G1 X55.381 Y84.352 E21.41855
G3 X57.340 Y79.420 I12.731 J2.202 E21.72945
G1 X58.541 Y77.879 E21.84315
G1 X59.474 Y76.955 E21.91957
G1 E20.51957 F4800
;WIPE_START
G1 F5760
G1 X60.074 Y76.492 E19.91957
;WIPE_END
G92 E0
G1 X61.401 Y78.928 F7200
G1 E2 F4800
G1 F3000
G1 X62.501 Y78.091 E2.08044
G1 X63.802 Y77.375 E2.16686
G1 X65.083 Y76.887 E2.24663
G1 X66.488 Y76.567 E2.33049
G1 X67.909 Y76.451 E2.41346
G1 X152.197 Y76.455 E7.31859
G1 X153.742 Y76.603 E7.40891
G3 X155.830 Y77.212 I-1.865 J10.278 E7.53566
G1 X157.359 Y78.001 E7.63579
G1 X158.732 Y79.039 E7.73596
G1 X159.765 Y80.122 E7.82306
G3 X162.025 Y85.870 I-7.763 J6.370 E8.18825
G1 X162.023 Y134.156 E10.99825
G3 X160.639 Y138.632 I-10.022 J-0.647 E11.27328
G1 X159.484 Y140.208 E11.38699
G3 X157.500 Y141.909 I-7.461 J-6.695 E11.53940
G1 X156.199 Y142.624 E11.62579
G1 X154.917 Y143.113 E11.70564
G1 X153.511 Y143.434 E11.78957
G1 X152.09 Y143.549 E11.87254
G1 X67.91 Y143.549 E16.77139
G3 X62.874 Y142.143 I0.110 J-10.115 E17.07892
G1 X61.29 Y140.982 E17.19321
G3 X59.592 Y139.001 I6.736 J-7.492 E17.34537
G1 X58.875 Y137.698 E17.43192
G1 X58.387 Y136.417 E17.51169
G1 X58.066 Y135.011 E17.59562
G1 X57.951 Y133.59 E17.67859
G1 X57.957 Y86.265 E20.43267
G3 X59.357 Y81.373 I10.093 J0.242 E20.73182
G1 X60.517 Y79.792 E20.84593
G1 X61.358 Y78.97 E20.91437
G1 X61.707 Y79.325 F7200
G1 F3000
G1 X62.786 Y78.501 E20.99338
G1 X64.027 Y77.822 E21.0757
G3 X67.920 Y76.951 I3.978 J8.645 E21.30940
G1 X152.186 Y76.955 E26.21325
G1 X153.644 Y77.094 E26.29848
G3 X155.648 Y77.678 I-1.721 J9.636 E26.42013
G1 X157.11 Y78.435 E26.51594
G1 X158.385 Y79.399 E26.60896
G1 X159.371 Y80.429 E26.69194
G3 X161.526 Y85.909 I-7.368 J6.061 E27.04013
G1 X161.525 Y134.112 E29.8453
G3 X160.204 Y138.386 I-9.527 J-0.603 E30.10793
G1 X159.119 Y139.865 E30.21468
G3 X157.215 Y141.498 I-7.107 J-6.359 E30.36097
G1 X155.974 Y142.178 E30.44332
G3 X152.080 Y143.049 I-3.981 J-8.660 E30.67706
G1 X67.92 Y143.049 E35.57475
G3 X63.118 Y141.706 I0.099 J-9.612 E35.86806
G1 X61.633 Y140.618 E35.97519
G3 X60.002 Y138.716 I6.470 J-7.198 E36.12131
G1 X59.322 Y137.474 E36.20371
G3 X58.451 Y133.580 I8.660 J-3.981 E36.43745
G1 X58.456 Y86.297 E39.18908
G3 X59.794 Y81.618 I9.570 J0.206 E39.47524
G1 X60.882 Y80.134 E39.58233
G1 X61.664 Y79.367 E39.64607
G1 X62.014 Y79.724 F7200
G1 F3000
G1 X62.106 Y79.634 E39.65356
G1 X63.071 Y78.913 E39.72366
G3 X67.930 Y77.451 I4.964 J7.692 E40.02266
G1 X152.174 Y77.455 E44.92523
G1 X153.547 Y77.585 E45.00549
G3 X155.466 Y78.143 I-1.636 J9.206 E45.12196
G1 X156.826 Y78.847 E45.21108
G1 X158.038 Y79.76 E45.29939
G1 X158.977 Y80.737 E45.37825
G3 X161.028 Y85.949 I-6.985 J5.758 E45.70947
G1 X161.027 Y134.069 E48.50981
G3 X159.768 Y138.140 I-9.016 J-0.558 E48.75999
G1 X158.754 Y139.522 E48.85974
G3 X152.070 Y142.549 I-6.778 J-6.075 E49.29897
G1 X67.93 Y142.549 E54.19549
G3 X63.363 Y141.270 I0.092 J-9.121 E54.47448
G1 X61.976 Y140.253 E54.57457
G3 X58.951 Y133.570 I6.070 J-6.774 E55.01368
G1 X58.955 Y86.328 E57.76293
G3 X60.230 Y81.863 I9.096 J0.183 E58.03600
G1 X61.246 Y80.477 E58.13601
G1 X61.971 Y79.766 E58.1951
G1 X62.321 Y80.123 F7200
G1 F3000
G1 X62.444 Y80.003 E58.2051
G3 X67.939 Y77.951 I5.576 J6.548 E58.55317
G1 X152.162 Y77.955 E63.45452
G1 X153.449 Y78.075 E63.52974
G3 X155.283 Y78.609 I-1.514 J8.617 E63.64106
G1 X156.543 Y79.26 E63.72359
G1 X157.693 Y80.122 E63.80723
G3 X160.529 Y85.988 I-5.706 J6.377 E64.19604
G1 X160.528 Y134.026 E66.99161
G3 X159.333 Y137.893 I-8.497 J-0.508 E67.22927
G1 X158.389 Y139.18 E67.32215
G3 X152.061 Y142.049 I-6.409 J-5.724 E67.73813
G1 X67.939 Y142.049 E72.6336
G3 X63.609 Y140.834 I0.084 J-8.622 E72.89818
G1 X62.318 Y139.888 E72.99132
G3 X59.451 Y133.561 I5.729 J-6.409 E73.40716
G1 X59.454 Y86.359 E76.15408
G3 X60.666 Y82.109 I8.586 J0.151 E76.41401
G1 X61.611 Y80.82 E76.50702
G1 X62.278 Y80.165 E76.56142
G1 X62.628 Y80.52 F7200
G1 F3000
G1 X62.756 Y80.394 E76.57187
G3 X67.949 Y78.450 I5.265 J6.156 E76.90094
G1 X152.151 Y78.455 E81.80107
G3 X155.099 Y79.074 I-0.159 J8.088 E81.97729
G1 X156.294 Y79.694 E82.05564
G1 X157.347 Y80.484 E82.13225
G3 X160.031 Y86.026 I-5.357 J6.015 E82.49979
G1 X160.03 Y133.985 E85.29076
G3 X158.898 Y137.646 I-8.006 J-0.470 E85.51579
G1 X158.024 Y138.838 E85.60181
G3 X152.051 Y141.550 I-6.050 J-5.392 E85.99457
G1 X67.949 Y141.55 E90.88888
G3 X63.855 Y140.398 I0.075 J-8.117 E91.13911
G1 X62.66 Y139.523 E91.2253
G3 X59.950 Y133.551 I5.392 J-6.048 E91.61795
G1 X59.953 Y86.39 E94.36248
G3 X61.101 Y82.355 I8.090 J0.121 E94.60927
G1 X61.976 Y81.162 E94.69537
G1 X62.585 Y80.562 E94.74512
G1 X62.936 Y80.919 F7200
G1 F3000
G1 X63.094 Y80.762 E94.75808
G3 X67.959 Y78.950 I4.929 J5.798 E95.06614
G1 X152.14 Y78.955 E99.96505
G3 X154.915 Y79.539 I-0.140 J7.549 E100.13096
G1 X156.012 Y80.107 E100.20285
G1 X157.003 Y80.847 E100.27483
G3 X159.532 Y86.064 I-5.018 J5.654 E100.62094
G1 X159.532 Y133.944 E103.40731
G3 X158.463 Y137.399 I-7.505 J-0.429 E103.61972
G1 X157.659 Y138.496 E103.69887
G3 X152.041 Y141.050 I-5.683 J-5.046 E104.06846
G1 X67.959 Y141.05 E108.96161
G3 X64.101 Y139.963 I0.064 J-7.618 E109.19746
G1 X63.003 Y139.159 E109.27666
G3 X60.450 Y133.541 I5.051 J-5.684 E109.64619
G1 X60.452 Y86.419 E112.38845
G3 X61.537 Y82.601 I7.589 J0.093 E112.62198
G1 X62.341 Y81.504 E112.70113
G1 X62.893 Y80.961 E112.74619
G1 X63.243 Y81.315 F7200
G1 F3000
G1 X63.407 Y81.153 E112.75961
G3 X67.968 Y79.450 I4.618 J5.408 E113.04856
G1 X152.128 Y79.454 E117.94625
G3 X159.034 Y86.102 I-0.142 J7.059 E118.55940
G1 X159.033 Y133.904 E121.34123
G3 X158.028 Y137.151 I-6.989 J-0.384 E121.54091
G1 X157.293 Y138.155 E121.61332
G3 X152.032 Y140.550 I-5.316 J-4.701 E121.95956
G1 X67.968 Y140.55 E126.85166
G3 X64.349 Y139.528 I0.052 J-7.104 E127.07297
G1 X63.344 Y138.793 E127.14543
G3 X60.950 Y133.532 I4.705 J-5.316 E127.49163
G1 X60.951 Y86.449 E130.23162
G3 X61.972 Y82.849 I7.100 J0.069 E130.45184
G1 X62.707 Y81.845 E130.52425
G1 X63.2 Y81.357 E130.56462
G1 X63.552 Y81.713 F7200
G1 F3000
G1 X63.745 Y81.521 E130.58046
G3 X67.978 Y79.950 I4.275 J5.030 E130.84839
G1 X152.118 Y79.954 E135.74491
G3 X158.535 Y86.138 I-0.114 J6.540 E136.31506
G1 X158.535 Y133.865 E139.09253
G3 X152.022 Y140.050 I-6.533 J-0.358 E139.66805
G1 X67.978 Y140.05 E144.55899
G3 X61.450 Y133.522 I0.038 J-6.566 E145.15448
G1 X61.45 Y86.478 E147.8922
G3 X63.509 Y81.755 I6.496 J0.022 E148.20038
G1 X63.86 Y82.108 F7200
G1 F3000
G3 X67.988 Y80.450 I4.142 J4.344 E148.46548
G1 X152.107 Y80.454 E153.36078
G3 X158.036 Y86.174 I-0.102 J6.039 E153.88799
G1 X158.036 Y133.827 E156.66115
G3 X152.012 Y139.550 I-6.036 J-0.321 E157.19381
G1 X67.988 Y139.55 E162.08358
G3 X61.950 Y133.512 I0.015 J-6.053 E162.63458
G1 X61.95 Y86.488 E165.37114
G3 X63.818 Y82.150 I5.998 J0.012 E165.65355
G1 X64.17 Y82.505 F7200
G1 F3000
G3 X67.997 Y80.950 I3.828 J3.935 E165.89994
G1 X152.097 Y80.954 E170.79413
G3 X157.537 Y86.210 I-0.091 J5.537 E171.27832
G1 X157.537 Y133.791 E174.04729
G3 X152.003 Y139.050 I-5.537 J-0.285 E174.53687
G1 X67.997 Y139.05 E179.42559
G3 X62.450 Y133.503 I0.006 J-5.553 E179.93195
G1 X62.45 Y86.497 E182.66746
G3 X64.128 Y82.547 I5.493 J0.002 E182.92396
G1 E181.52396 F4800
;WIPE_START
G1 F5760
G3 X64.703 Y82.056 I1.921 J1.667 E180.92396
;WIPE_END
G92 E0
G1 X65.295 Y137.524 F7200
G1 E2 F4800
;TYPE:External perimeter
G1 F3000
G3 X63.140 Y133.489 I2.698 J-4.034 E2.27713
G1 X63.14 Y86.511 E5.01101
G3 X68.011 Y81.640 I4.862 J-0.009 E5.45595
G1 X152.082 Y81.644 E10.34846
G3 X156.849 Y86.257 I-0.076 J4.848 E10.77321
G1 X156.849 Y133.743 E13.53665
G3 X151.989 Y138.360 I-4.848 J-0.237 E13.96682
G1 X68.011 Y138.36 E18.85391
G3 X65.344 Y137.559 I-0.012 J-4.800 E19.01821
G1 X65.322 Y137.125 F7200
G1 E17.61821 F4800
;WIPE_START
G1 F5760
G1 X64.835 Y137.187 E17.11911
G1 X64.745 Y137.097 E17.01821
;WIPE_END
G92 E0
G1 X155.66 Y135.379 F7200
G1 E2 F4800
;TYPE:Perimeter
G1 F3000
G1 X155.66 Y84.601 E4.95502
G1 X155.895 Y84.549 E4.96903
G3 X156.349 Y86.280 I-3.986 J1.971 E5.07391
G1 X156.349 Y133.72 E7.83468
G3 X155.889 Y135.435 I-3.969 J-0.145 E7.93884
G1 X155.718 Y135.394 E7.94907
G1 E6.54907 F4800
;WIPE_START
G1 F5760
G1 X155.717 Y134.636 E5.94907
;WIPE_END
G92 E0
G1 X65.59 Y137.12 F7200
G1 E2 F4800
G1 F3000
G3 X63.640 Y133.470 I2.404 J-3.630 E2.25086
G1 X63.64 Y86.53 E4.98253
G3 X68.030 Y82.140 I4.366 J-0.024 E5.38393
G1 X152.062 Y82.144 E10.27417
G3 X153.924 Y82.606 I-0.007 J4.011 E10.38682
G1 X153.869 Y82.835 E10.40053
G1 X83.498 Y82.835 E14.49577
G1 X83.498 Y137.165 E17.6575
G1 X153.869 Y137.165 E21.75274
G1 X153.924 Y137.394 E21.76645
G3 X151.970 Y137.860 I-1.886 J-3.580 E21.88447
G1 X68.03 Y137.86 E26.76935
G3 X65.639 Y137.156 I-0.024 J-4.331 E26.91632
G1 E25.51632 F4800
;WIPE_START
G1 F5760
G3 X65.044 Y136.689 I1.209 J-2.153 E24.91632
;WIPE_END
G92 E0
G1 X68.211 Y102.111 F7200
G1 E2 F4800
;TYPE:External perimeter
G1 F3000
G3 X69.740 Y104.486 I-1.092 J2.383 E2.17334
G1 X69.74 Y115.514 E2.81511
G3 X64.460 Y115.514 I-2.640 J-0.013 E3.29540
G1 X64.46 Y104.486 E3.93717
G3 X68.158 Y102.082 I2.640 J0.015 E4.24057
G1 X68.468 Y101.917 F7200
G1 X68.375 Y101.631
;TYPE:Perimeter
G1 F3000
G3 X70.240 Y104.460 I-1.259 J2.859 E4.44865
G1 X70.24 Y115.54 E5.09345
G3 X63.960 Y115.540 I-3.140 J-0.036 E5.66245
G1 X63.96 Y104.46 E6.30725
G3 X68.320 Y101.607 I3.135 J0.033 E6.66458
G1 E5.26458 F4800
;WIPE_START
G1 F5760
G3 X68.968 Y101.995 I-0.796 J2.065 E4.66458
;WIPE_END
G92 E0
G1 X82.998 Y83.335 F7200
G1 E2 F4800
G1 F3000
G1 X82.998 Y137.36 E5.14398
G1 X68.049 Y137.36 E6.01394
G3 X64.140 Y133.451 I-0.040 J-3.869 E6.37179
G1 X64.14 Y117.62 E7.29307
G2 X70.740 Y115.565 I2.961 J-2.116 E7.82293
G1 X70.74 Y104.435 E8.47064
G2 X64.140 Y102.380 I-3.643 J0.075 E9.00048
G1 X64.14 Y86.549 E9.92176
G3 X68.049 Y82.640 I3.869 J-0.040 E10.27957
G1 X82.998 Y82.641 E11.14953
G1 X82.998 Y83.275 E11.18643
G1 E9.78643 F4800
;WIPE_START
G1 F5760
G1 X82.998 Y84.033 E9.18643
;WIPE_END
G92 E0
G1 X80.17 Y99.29 F7200
G1 E2 F4800
;TYPE:External perimeter
G1 F3000
G1 X65.61 Y99.29 E2.84732
G1 X65.61 Y86.73 E3.57825
G1 X80.17 Y86.73 E4.42557
G1 X80.17 Y88.29 E4.51635
G1 X67.17 Y88.29 E5.27288
G1 X67.17 Y97.73 E5.82224
G1 X80.17 Y97.73 E6.57877
G1 X80.17 Y99.23 E6.66606
G1 X80.356 Y99.644 F7200
G1 X80.67 Y99.79
;TYPE:Perimeter
G1 F3000
G1 X65.11 Y99.79 E7.57157
G1 X65.11 Y86.23 E8.36069
G1 X80.67 Y86.23 E9.2662
G1 X80.67 Y88.79 E9.41518
G1 X67.67 Y88.79 E10.17171
G1 X67.67 Y97.23 E10.66288
G1 X80.67 Y97.23 E11.41941
G1 X80.67 Y99.73 E11.5649
G1 X81.17 Y100.29 F7200
G1 F3000
G1 X64.61 Y100.29 E12.52861
G1 X64.61 Y85.73 E13.37593
G1 X81.17 Y85.73 E14.33964
G1 X81.17 Y89.29 E14.54681
G1 X68.17 Y89.29 E15.30334
G1 X68.17 Y96.73 E15.73631
G1 X81.17 Y96.73 E16.49284
G1 X81.17 Y100.23 E16.69652
G1 E15.29652 F4800
;WIPE_START
G1 F5760
G1 X80.412 Y100.233 E14.69652
;WIPE_END
G92 E0
G1 X80.17 Y131.71 F7200
G1 E2 F4800
;TYPE:External perimeter
G1 F3000
G1 X80.17 Y133.27 E2.09078
G1 X65.61 Y133.27 E2.9381
G1 X65.61 Y120.71 E3.66903
G1 X80.17 Y120.71 E4.51635
G1 X80.17 Y122.27 E4.60713
G1 X67.17 Y122.27 E5.36366
G1 X67.17 Y131.71 E5.91302
G1 X80.11 Y131.71 E6.66606
G1 X80.561 Y131.793 F7200
G1 X80.67 Y131.21
;TYPE:Perimeter
G1 F3000
G1 X80.67 Y133.77 E6.81504
G1 X65.11 Y133.77 E7.72055
G1 X65.11 Y120.21 E8.50967
G1 X80.67 Y120.21 E9.41518
G1 X80.67 Y122.77 E9.56416
G1 X67.67 Y122.77 E10.32069
G1 X67.67 Y131.21 E10.81186
G1 X80.61 Y131.21 E11.5649
G1 X81.17 Y130.71 F7200
G1 F3000
G1 X81.17 Y134.27 E11.77207
G1 X64.61 Y134.27 E12.73578
G1 X64.61 Y119.71 E13.5831
G1 X81.17 Y119.71 E14.54681
G1 X81.17 Y123.27 E14.75398
G1 X68.17 Y123.27 E15.51051
G1 X68.17 Y130.71 E15.94348
G1 X81.11 Y130.71 E16.69652
G1 E15.29652 F4800
;WIPE_START
G1 F5760
G1 X81.123 Y131.468 E14.69652
;WIPE_END
G92 E0
G1 X83.998 Y83.335 F7200
G1 E2 F4800
;TYPE:External perimeter
G1 F3000
G1 X153.881 Y83.335 E6.06684
G3 X155.160 Y84.529 I-1.495 J2.883 E6.16977
G1 X155.16 Y135.455 E9.13341
G3 X153.882 Y136.665 I-2.737 J-1.610 E9.23713
G1 X83.998 Y136.665 E13.30402
G1 X83.998 Y83.395 E16.40406
G1 X83.877 Y82.954 F7200
G1 X83.248 Y82.488
;TYPE:Gap fill
;WIDTH:0.251247
G1 F3000
G1 X152.048 Y82.49 E17.93506
G1 X152.608 Y82.512 E17.94753
;WIDTH:0.166386
G1 X152.978 Y82.555 E17.95214
G1 X154.136 Y82.795 F7200
;WIDTH:0.704583
G1 F3000
G3 X155.719 Y84.332 I-2.284 J3.936 E18.11917
G1 X155.94 Y85.465 F7200
;WIDTH:0.169447
G1 F3000
G1 X155.962 Y85.677 E18.12188
;WIDTH:0.249454
G1 X156.004 Y86.296 E18.13556
G1 X156.004 Y133.704 E19.18063
G1 X155.986 Y134.101 E19.18939
;WIDTH:0.169871
G1 X155.939 Y134.503 E19.19456
G1 X155.384 Y135.569 F7200
;WIDTH:0.684934
G1 F3000
G1 X155.53 Y135.927 E19.22268
G3 X154.136 Y137.205 I-3.449 J-2.363 E19.36133
G1 X152.981 Y137.445 F7200
;WIDTH:0.166202
G1 F3000
G1 X152.611 Y137.487 E19.36593
;WIDTH:0.230229
G1 X151.957 Y137.513 E19.37889
G1 X83.248 Y137.513 E20.73975
G1 E19.33975 F4800
;WIPE_START
G1 F5760
