; HEADER_BLOCK_START
; generated by AnycubicSlicerNext 1.3.9.3 on 2026-03-15 at 07:35:21
; total layer number: 52
; filament_density: 1.24
; filament_diameter: 1.75
; max_z_height: 9.44
; exclude_object: 0
; model_instances: 2
; source_info: {"models":[{"file_source":0,"mo_file_id":-1,"name":"AAA_Dispenser_inserts_v2.stl_2_id_0_copy_0"},{"file_source":0,"mo_file_id":-1,"name":"AAA_Dispenser_inserts_v2.stl_2_id_1_copy_0"}],"models_from":0,"plate_index":1,"slice_paras_process":1,"software_version":"AnycubicSlicerNext 1.3.9.3 20260131153104"}
; paint_info = [{"material_type":"PLA","paint_color":[105,164,255],"paint_index":0}]
; project_info = {"flush_multiplier":1.0,"flush_volumes_chan_multipliers":[1.0,1.0,1.0,1.0],"flush_volumes_matrix":[0.0],"flush_volumes_vector":[140.0,140.0]}
; flush_multiplier_calculate_by_acnext: 1
; test_mode: 0
; HEADER_BLOCK_END

; THUMBNAIL_BLOCK_START
; THUMBNAIL_BLOCK_END

; external perimeters extrusion width = 0.42mm
; perimeters extrusion width = 0.45mm
; infill extrusion width = 0.45mm
; solid infill extrusion width = 0.42mm
; top infill extrusion width = 0.42mm
; support material extrusion width = 0.40mm
; first layer extrusion width = 0.50mm

; external perimeters extrusion width = 0.42mm
; perimeters extrusion width = 0.45mm
; infill extrusion width = 0.45mm
; solid infill extrusion width = 0.42mm
; top infill extrusion width = 0.42mm
; support material extrusion width = 0.40mm
; first layer extrusion width = 0.50mm

; EXECUTABLE_BLOCK_START
M201 X2000 Y2000 Z800 E2000
M203 X300 Y300 Z8 E100
M204 P2000 R2000 T2000
M205 X10.00 Y10.00 Z2.00 E5.00
;TYPE:Custom
G90 ; use absolute coordinates
M83 ; extruder relative mode
M104 S220 ; set extruder temp
M140 S60 ; set bed temp
M190 S60 ; wait for bed temp
M109 S220 ; wait for extruder temp
G28                                        ; move X/Y/Z to min endstops
G1 Z0.28                                   ; lift nozzle a bit 
G92 E0 
G1 Y3 F1800                                    ; zero the extruded length 
G1 X60  E25 F500                       ; Extrude 25mm of filament in a 5cm line. 
G92 E0                                     ; zero the extruded length again 
G1 E-2 F500                                ; Retract a little 
G1 X70 F4000                              ; Quickly wipe away from the filament line
M117
G90
G21
M83 ; use relative distances for extrusion
; EXECUTABLE_BLOCK_HEAD
; filament start gcode
M75 ; The first extruder is ready.
M106 S0
;LAYER_CHANGE
;Z:0.24
;HEIGHT:0.24
; BEFORE_LAYER_CHANGE 0 @ 0.24mm
G92 E0
; AFTER_LAYER_CHANGE 0 @ 0.24mm
M204 S500
G1 E-.8 F3600
G1 X60.634 Y62.61 F18000
G1 Z.24
G1 E.8 F3600
;TYPE:Skirt
;WIDTH:0.5
G1 F3000
G1 X61.503 Y62.046 E.04543
G1 X62.24 Y61.927 E.03273
G1 X98.233 Y61.188 E1.57882
G1 X152.758 Y61.685 E2.39137
G1 X154.149 Y62.09 E.06353
G1 X155.35 Y63.811 E.09203
G1 X157.327 Y73.273 E.42395
G1 X157.939 Y77.609 E.19205
G1 X160.304 Y145.049 E2.95944
G1 X159.961 Y146.456 E.06353
G1 X158.472 Y147.68 E.08453
G1 X125.243 Y158.665 E1.53485
G1 X124.335 Y158.831 E.04051
G1 X70.497 Y158.857 E2.3611
G1 X68.994 Y158.711 E.06625
G1 X67.755 Y158.407 E.05592
G1 X66.893 Y158.087 E.04031
G1 X65.757 Y157.51 E.05592
G1 X64.432 Y156.559 E.07151
G1 X63.52 Y155.667 E.05592
G1 X62.736 Y154.662 E.05592
G1 X62.257 Y153.878 E.04031
G1 X61.722 Y152.72 E.05592
G1 X61.345 Y151.502 E.05592
G1 X61.125 Y150.176 E.05895
G1 X58.789 Y130.963 E.84883
G1 X57.675 Y89.182 E1.833
G1 X57.674 Y75.783 E.5876
G1 X59.662 Y64.14 E.518
G1 X60.288 Y62.834 E.06353
G1 X60.601 Y62.632 E.01634
G1 X60.767 Y63.017 F18000
G1 F3000
G1 X62.249 Y62.375 E.07082
G1 X98.242 Y61.636 E1.57882
G1 X152.754 Y62.133 E2.39079
G1 X154.01 Y62.536 E.05784
G1 X154.911 Y63.902 E.07179
G1 X156.888 Y73.365 E.42395
G1 X157.491 Y77.625 E.1887
G1 X159.856 Y145.064 E2.95944
G1 X159.51 Y146.337 E.05784
G1 X158.332 Y147.254 E.06548
G1 X125.103 Y158.239 E1.53485
G1 X124.322 Y158.382 E.0348
G1 X70.497 Y158.409 E2.36055
G1 X69.092 Y158.273 E.0619
G1 X68.196 Y158.071 E.04031
G1 X67.05 Y157.667 E.0533
G1 X65.715 Y156.957 E.06628
G1 X64.739 Y156.233 E.0533
G1 X63.869 Y155.385 E.0533
G1 X63.29 Y154.671 E.04031
G1 X62.64 Y153.644 E.0533
G1 X62.132 Y152.54 E.0533
G1 X61.776 Y151.378 E.0533
G1 X59.237 Y130.951 E.90274
G1 X58.123 Y89.17 E1.833
G1 X58.122 Y75.783 E.58708
G1 X60.104 Y64.217 E.51463
G1 X60.705 Y63.044 E.05784
G1 X60.731 Y63.033 E.00122
; printing object "AAA Dispenser inserts v2.stl_2" id:0 copy 0
G1 E-.8 F3600
G1 X116.458 Y120.059 F18000
G1 E.8 F3600
;TYPE:Support
G1 F2400
G1 X116.723 Y120.322 E.01635
G1 X153.095 Y120.203 E1.59517
G1 X153.358 Y119.938 E.01635
G1 X153.351 Y117.813 E.09322
G1 X155.268 Y117.813 E.08406
G1 X155.268 Y130.583 E.56005
G1 X153.391 Y130.583 E.0823
G1 X153.384 Y128.373 E.09693
G1 X153.12 Y128.11 E.01635
G1 X116.747 Y128.219 E1.59517
G1 X116.485 Y128.484 E.01635
G1 X116.493 Y131.14 E.1165
G1 X114.644 Y131.14 E.08109
G1 X114.644 Y117.813 E.58448
G1 X116.451 Y117.813 E.07926
G1 X116.458 Y119.992 E.09555
G1 E-.8 F3600
G1 X154.626 Y130.381 F18000
G1 E.8 F3600
G1 F2400
G1 X154.626 Y118.216 E.5335
G1 X154.127 Y118.216 E.02185
G1 X154.127 Y130.179 E.52464
G1 X153.794 Y130.179 E.01463
G1 X153.787 Y128.204 E.08662
G1 X153.629 Y128.047 E.0098
G1 X153.629 Y120.238 E.34245
G1 X153.264 Y120.606 E.02273
G1 X153.131 Y120.606 E.00583
G1 X153.131 Y127.706 E.31137
G1 X152.632 Y127.708 E.02185
G1 X152.632 Y120.608 E.31137
G1 X152.134 Y120.61 E.02185
G1 X152.134 Y127.709 E.31136
G1 X151.636 Y127.711 E.02185
G1 X151.636 Y120.611 E.31136
G1 X151.137 Y120.613 E.02185
G1 X151.137 Y127.712 E.31135
G1 X150.639 Y127.714 E.02185
G1 X150.639 Y120.614 E.31135
G1 X150.141 Y120.616 E.02185
G1 X150.141 Y127.715 E.31134
G1 X149.642 Y127.717 E.02185
G1 X149.642 Y120.618 E.31133
G1 X149.144 Y120.619 E.02185
G1 X149.144 Y127.718 E.31133
G1 X148.646 Y127.72 E.02185
G1 X148.646 Y120.621 E.31132
G1 X148.147 Y120.623 E.02185
G1 X148.147 Y127.721 E.31132
G1 X147.649 Y127.723 E.02185
G1 X147.649 Y120.624 E.31131
G1 X147.151 Y120.626 E.02185
G1 X147.151 Y127.724 E.31131
G1 X146.652 Y127.726 E.02185
G1 X146.652 Y120.627 E.3113
G1 X146.154 Y120.629 E.02185
G1 X146.154 Y127.727 E.31129
G1 X145.656 Y127.729 E.02185
G1 X145.656 Y120.631 E.31129
G1 X145.157 Y120.632 E.02185
G1 X145.157 Y127.73 E.31128
G1 X144.659 Y127.732 E.02185
G1 X144.659 Y120.634 E.31128
G1 X144.161 Y120.636 E.02185
G1 X144.161 Y127.733 E.31127
G1 X143.662 Y127.735 E.02185
G1 X143.662 Y120.637 E.31127
G1 X143.164 Y120.639 E.02185
G1 X143.164 Y127.736 E.31126
G1 X142.666 Y127.738 E.02185
G1 X142.666 Y120.64 E.31125
G1 X142.167 Y120.642 E.02185
G1 X142.167 Y127.739 E.31125
G1 X141.669 Y127.741 E.02185
G1 X141.669 Y120.644 E.31124
G1 X141.171 Y120.645 E.02185
G1 X141.171 Y127.742 E.31124
G1 X140.672 Y127.744 E.02185
G1 X140.672 Y120.647 E.31123
G1 X140.174 Y120.649 E.02185
G1 X140.174 Y127.745 E.31123
G1 X139.676 Y127.747 E.02185
G1 X139.676 Y120.65 E.31122
G1 X139.177 Y120.652 E.02185
G1 X139.177 Y127.748 E.31122
G1 X138.679 Y127.75 E.02185
G1 X138.679 Y120.654 E.31121
G1 X138.181 Y120.655 E.02185
G1 X138.181 Y127.751 E.3112
G1 X137.683 Y127.753 E.02185
G1 X137.683 Y120.657 E.3112
G1 X137.184 Y120.658 E.02185
G1 X137.184 Y127.754 E.31119
G1 X136.686 Y127.756 E.02185
G1 X136.686 Y120.66 E.31119
G1 X136.188 Y120.662 E.02185
G1 X136.188 Y127.757 E.31118
G1 X135.689 Y127.759 E.02185
G1 X135.689 Y120.663 E.31118
G1 X135.191 Y120.665 E.02185
G1 X135.191 Y127.76 E.31117
G1 X134.693 Y127.762 E.02185
G1 X134.693 Y120.667 E.31116
G1 X134.194 Y120.668 E.02185
G1 X134.194 Y127.763 E.31116
G1 X133.696 Y127.765 E.02185
G1 X133.696 Y120.67 E.31115
G1 X133.198 Y120.671 E.02185
G1 X133.198 Y127.766 E.31115
G1 X132.699 Y127.768 E.02185
G1 X132.699 Y120.673 E.31114
G1 X132.201 Y120.675 E.02185
G1 X132.201 Y127.769 E.31114
G1 X131.703 Y127.771 E.02185
G1 X131.703 Y120.676 E.31113
G1 X131.204 Y120.678 E.02185
G1 X131.204 Y127.772 E.31112
G1 X130.706 Y127.774 E.02185
G1 X130.706 Y120.68 E.31112
G1 X130.208 Y120.681 E.02185
G1 X130.208 Y127.775 E.31111
G1 X129.709 Y127.777 E.02185
G1 X129.709 Y120.683 E.31111
G1 X129.211 Y120.684 E.02185
G1 X129.211 Y127.778 E.3111
G1 X128.713 Y127.78 E.02185
G1 X128.713 Y120.686 E.3111
G1 X128.214 Y120.688 E.02185
G1 X128.214 Y127.781 E.31109
G1 X127.716 Y127.783 E.02185
G1 X127.716 Y120.689 E.31108
G1 X127.218 Y120.691 E.02185
G1 X127.218 Y127.784 E.31108
G1 X126.719 Y127.786 E.02185
G1 X126.719 Y120.693 E.31107
G1 X126.221 Y120.694 E.02185
G1 X126.221 Y127.787 E.31107
G1 X125.723 Y127.789 E.02185
G1 X125.723 Y120.696 E.31106
G1 X125.224 Y120.697 E.02185
G1 X125.224 Y127.79 E.31106
G1 X124.726 Y127.792 E.02185
G1 X124.726 Y120.699 E.31105
G1 X124.228 Y120.701 E.02185
G1 X124.228 Y127.793 E.31104
G1 X123.729 Y127.795 E.02185
G1 X123.729 Y120.702 E.31104
G1 X123.231 Y120.704 E.02185
G1 X123.231 Y127.796 E.31103
G1 X122.733 Y127.798 E.02185
G1 X122.733 Y120.706 E.31103
G1 X122.234 Y120.707 E.02185
G1 X122.234 Y127.799 E.31102
G1 X121.736 Y127.801 E.02185
G1 X121.736 Y120.709 E.31102
G1 X121.238 Y120.71 E.02185
G1 X121.238 Y127.802 E.31101
G1 X120.739 Y127.804 E.02185
G1 X120.739 Y120.712 E.311
G1 X120.241 Y120.714 E.02185
G1 X120.241 Y127.805 E.311
G1 X119.743 Y127.807 E.02185
G1 X119.743 Y120.715 E.31099
G1 X119.244 Y120.717 E.02185
G1 X119.244 Y127.808 E.31099
G1 X118.746 Y127.81 E.02185
G1 X118.746 Y120.719 E.31098
G1 X118.248 Y120.72 E.02185
G1 X118.248 Y127.811 E.31098
G1 X117.749 Y127.813 E.02185
G1 X117.749 Y120.722 E.31097
G1 X117.251 Y120.723 E.02185
G1 X117.251 Y127.814 E.31096
G1 X116.753 Y127.816 E.02185
G1 X116.753 Y120.725 E.31096
G1 X116.557 Y120.726 E.0086
G1 X116.254 Y120.425 E.01869
G1 X116.254 Y128.143 E.33844
G1 X116.08 Y128.318 E.01083
G1 X116.088 Y130.736 E.10607
G1 X115.756 Y130.736 E.01455
G1 X115.756 Y118.216 E.54908
G1 X115.258 Y118.216 E.02185
G1 X115.258 Y130.938 E.55793
G1 E-.8 F3600
G1 X154.711 Y77.703 F18000
G1 E.8 F3600
G1 F2400
G1 X155.268 Y77.703 E.02443
G1 X155.268 Y88.802 E.48675
G1 X153.26 Y88.802 E.08805
G1 X153.253 Y86.373 E.10653
G1 X152.988 Y86.11 E.01635
G1 X116.616 Y86.219 E1.59517
G1 X116.353 Y86.484 E.01635
G1 X116.36 Y88.802 E.10166
G1 X114.644 Y88.802 E.07527
G1 X114.644 Y75.475 E.58448
G1 X116.318 Y75.475 E.07344
G1 X116.326 Y78.059 E.11334
G1 X116.591 Y78.322 E.01635
G1 X152.963 Y78.203 E1.59517
G1 X153.226 Y77.939 E.01635
G1 X153.218 Y75.322 E.11474
G1 X154.711 Y73.82 E.09289
G1 X154.711 Y77.636 E.16735
G1 X154.626 Y88.6 F18000
G1 F2400
G1 X154.626 Y78.107 E.4602
G1 X154.307 Y78.107 E.01397
G1 X154.307 Y74.799 E.14507
G1 X154.127 Y74.98 E.01119
G1 X154.127 Y88.398 E.58848
G1 X153.663 Y88.398 E.02038
G1 X153.656 Y86.204 E.09621
G1 X153.629 Y86.178 E.00165
G1 X153.629 Y75.195 E.48167
G1 X153.131 Y85.967 F18000
G1 F2400
G1 X153.131 Y78.606 E.32283
G1 X152.632 Y78.608 E.02185
G1 X152.632 Y85.708 E.31137
G1 X152.134 Y85.709 E.02185
G1 X152.134 Y78.609 E.31136
G1 X151.636 Y78.611 E.02185
G1 X151.636 Y85.711 E.31136
G1 X151.137 Y85.712 E.02185
G1 X151.137 Y78.613 E.31135
G1 X150.639 Y78.614 E.02185
G1 X150.639 Y85.714 E.31135
G1 X150.141 Y85.715 E.02185
G1 X150.141 Y78.616 E.31134
G1 X149.642 Y78.617 E.02185
G1 X149.642 Y85.717 E.31134
G1 X149.144 Y85.718 E.02185
G1 X149.144 Y78.619 E.31133
G1 X148.646 Y78.621 E.02185
G1 X148.646 Y85.72 E.31132
G1 X148.147 Y85.721 E.02185
G1 X148.147 Y78.622 E.31132
G1 X147.649 Y78.624 E.02185
G1 X147.649 Y85.723 E.31131
G1 X147.151 Y85.724 E.02185
G1 X147.151 Y78.626 E.31131
G1 X146.652 Y78.627 E.02185
G1 X146.652 Y85.726 E.3113
G1 X146.154 Y85.727 E.02185
G1 X146.154 Y78.629 E.3113
G1 X145.656 Y78.63 E.02185
G1 X145.656 Y85.728 E.31129
G1 X145.157 Y85.73 E.02185
G1 X145.157 Y78.632 E.31128
G1 X144.659 Y78.634 E.02185
G1 X144.659 Y85.731 E.31128
G1 X144.161 Y85.733 E.02185
G1 X144.161 Y78.635 E.31127
G1 X143.662 Y78.637 E.02185
G1 X143.662 Y85.734 E.31127
G1 X143.164 Y85.736 E.02185
G1 X143.164 Y78.639 E.31126
G1 X142.666 Y78.64 E.02185
G1 X142.666 Y85.737 E.31126
G1 X142.167 Y85.739 E.02185
G1 X142.167 Y78.642 E.31125
G1 X141.669 Y78.644 E.02185
G1 X141.669 Y85.74 E.31124
G1 X141.171 Y85.742 E.02185
G1 X141.171 Y78.645 E.31124
G1 X140.672 Y78.647 E.02185
G1 X140.672 Y85.743 E.31123
G1 X140.174 Y85.745 E.02185
G1 X140.174 Y78.648 E.31123
G1 X139.676 Y78.65 E.02185
G1 X139.676 Y85.746 E.31122
G1 X139.177 Y85.748 E.02185
G1 X139.177 Y78.652 E.31122
G1 X138.679 Y78.653 E.02185
G1 X138.679 Y85.749 E.31121
G1 X138.181 Y85.751 E.02185
G1 X138.181 Y78.655 E.31121
G1 X137.683 Y78.657 E.02185
G1 X137.683 Y85.752 E.3112
G1 X137.184 Y85.754 E.02185
G1 X137.184 Y78.658 E.31119
G1 X136.686 Y78.66 E.02185
G1 X136.686 Y85.755 E.31119
G1 X136.188 Y85.757 E.02185
G1 X136.188 Y78.661 E.31118
G1 X135.689 Y78.663 E.02185
G1 X135.689 Y85.758 E.31118
G1 X135.191 Y85.76 E.02185
G1 X135.191 Y78.665 E.31117
G1 X134.693 Y78.666 E.02185
G1 X134.693 Y85.761 E.31117
G1 X134.194 Y85.763 E.02185
G1 X134.194 Y78.668 E.31116
G1 X133.696 Y78.67 E.02185
G1 X133.696 Y85.764 E.31115
G1 X133.198 Y85.766 E.02185
G1 X133.198 Y78.671 E.31115
G1 X132.699 Y78.673 E.02185
G1 X132.699 Y85.767 E.31114
G1 X132.201 Y85.769 E.02185
G1 X132.201 Y78.674 E.31114
G1 X131.703 Y78.676 E.02185
G1 X131.703 Y85.77 E.31113
G1 X131.204 Y85.772 E.02185
G1 X131.204 Y78.678 E.31113
G1 X130.706 Y78.679 E.02185
G1 X130.706 Y85.773 E.31112
G1 X130.208 Y85.775 E.02185
G1 X130.208 Y78.681 E.31111
G1 X129.709 Y78.683 E.02185
G1 X129.709 Y85.776 E.31111
G1 X129.211 Y85.778 E.02185
G1 X129.211 Y78.684 E.3111
G1 X128.713 Y78.686 E.02185
G1 X128.713 Y85.779 E.3111
G1 X128.214 Y85.781 E.02185
G1 X128.214 Y78.687 E.31109
G1 X127.716 Y78.689 E.02185
G1 X127.716 Y85.782 E.31109
G1 X127.218 Y85.784 E.02185
G1 X127.218 Y78.691 E.31108
G1 X126.719 Y78.692 E.02185
G1 X126.719 Y85.785 E.31107
G1 X126.221 Y85.787 E.02185
G1 X126.221 Y78.694 E.31107
G1 X125.723 Y78.696 E.02185
G1 X125.723 Y85.788 E.31106
G1 X125.224 Y85.79 E.02185
G1 X125.224 Y78.697 E.31106
G1 X124.726 Y78.699 E.02185
G1 X124.726 Y85.791 E.31105
G1 X124.228 Y85.793 E.02185
G1 X124.228 Y78.7 E.31105
G1 X123.729 Y78.702 E.02185
G1 X123.729 Y85.794 E.31104
G1 X123.231 Y85.796 E.02185
G1 X123.231 Y78.704 E.31103
G1 X122.733 Y78.705 E.02185
G1 X122.733 Y85.797 E.31103
G1 X122.234 Y85.799 E.02185
G1 X122.234 Y78.707 E.31102
G1 X121.736 Y78.709 E.02185
G1 X121.736 Y85.8 E.31102
G1 X121.238 Y85.802 E.02185
G1 X121.238 Y78.71 E.31101
G1 X120.739 Y78.712 E.02185
G1 X120.739 Y85.803 E.31101
G1 X120.241 Y85.805 E.02185
G1 X120.241 Y78.713 E.311
G1 X119.743 Y78.715 E.02185
G1 X119.743 Y85.806 E.31099
G1 X119.244 Y85.808 E.02185
G1 X119.244 Y78.717 E.31099
G1 X118.746 Y78.718 E.02185
G1 X118.746 Y85.809 E.31098
G1 X118.248 Y85.811 E.02185
G1 X118.248 Y78.72 E.31098
G1 X117.749 Y78.722 E.02185
G1 X117.749 Y85.812 E.31097
G1 X117.251 Y85.814 E.02185
G1 X117.251 Y78.723 E.31097
G1 X116.753 Y78.725 E.02185
G1 X116.753 Y85.815 E.31096
G1 X116.447 Y85.816 E.0134
G1 X116.254 Y86.01 E.01199
G1 X116.254 Y78.556 E.32689
G1 X115.923 Y78.227 E.02047
G1 X115.916 Y75.878 E.10302
G1 X115.756 Y75.878 E.00701
G1 X115.756 Y88.398 E.54908
G1 X115.258 Y88.398 E.02185
G1 X115.258 Y75.677 E.55793
G1 E-.8 F3600
G1 X152.45 Y77.43 F18000
G1 E.8 F3600
;TYPE:Outer wall
G1 F2400
G1 X117.1 Y77.545 E1.55031
G1 X117.06 Y64.794 E.55921
G1 X152.41 Y64.683 E1.55031
G1 X152.41 Y64.778 E.00415
G1 X152.45 Y77.41 E.55399
G1 X152 Y76.983 F18000
;TYPE:Inner wall
G1 F2400
G1 X117.547 Y77.095 E1.51097
G1 X117.51 Y65.241 E.51987
G1 X151.963 Y65.133 E1.51097
G1 X152 Y76.963 E.5188
G1 E-.8 F3600
G1 X150.919 Y65.271 F18000
G1 E.8 F3600
;TYPE:Bottom surface
;WIDTH:0.502571
G1 F3000
G1 X151.629 Y65.981 E.04427
G1 X151.631 Y66.62 E.02823
G1 X150.484 Y65.474 E.07151
G1 X149.849 Y65.476 E.02805
G1 X151.633 Y67.26 E.1113
G1 X151.635 Y67.9 E.02823
G1 X149.213 Y65.478 E.15109
G1 X148.577 Y65.48 E.02805
G1 X151.637 Y68.54 E.19088
G1 X151.639 Y69.18 E.02823
G1 X147.941 Y65.482 E.23067
G1 X147.305 Y65.484 E.02805
G1 X151.641 Y69.82 E.27047
G1 X151.643 Y70.46 E.02823
G1 X146.669 Y65.486 E.31026
G1 X146.033 Y65.488 E.02805
G1 X151.645 Y71.1 E.35005
G1 X151.647 Y71.74 E.02823
