; HEADER_BLOCK_START
; generated by AnycubicSlicerNext 1.3.9.3 on 2026-03-08 at 14:18:32
; total layer number: 51
; filament_density: 1.24
; filament_diameter: 1.75
; max_z_height: 10.24
; exclude_object: 0
; model_instances: 1
; source_info: {"models":[{"file_source":0,"mo_file_id":-1,"name":"CasefinityBaseV3.stl_id_0_copy_0"}],"models_from":0,"plate_index":1,"slice_paras_process":1,"software_version":"AnycubicSlicerNext 1.3.9.3 20260131153104"}
; paint_info = [{"material_type":"PLA","paint_color":[105,164,255],"paint_index":0}]
; project_info = {"flush_multiplier":1.0,"flush_volumes_chan_multipliers":[1.0,1.0,1.0,1.0],"flush_volumes_matrix":[0.0],"flush_volumes_vector":[140.0,140.0]}
; flush_multiplier_calculate_by_acnext: 1
; test_mode: 0
; HEADER_BLOCK_END

; THUMBNAIL_BLOCK_START
; THUMBNAIL_BLOCK_END

; external perimeters extrusion width = 0.42mm
; perimeters extrusion width = 0.45mm
; infill extrusion width = 0.45mm
; solid infill extrusion width = 0.42mm
; top infill extrusion width = 0.42mm
; support material extrusion width = 0.40mm
; first layer extrusion width = 0.50mm

; EXECUTABLE_BLOCK_START
M201 X2000 Y2000 Z800 E2000
M203 X300 Y300 Z8 E100
M204 P2000 R2000 T2000
M205 X10.00 Y10.00 Z2.00 E5.00
;TYPE:Custom
G90 ; use absolute coordinates
M83 ; extruder relative mode
M104 S220 ; set extruder temp
M140 S60 ; set bed temp
M190 S60 ; wait for bed temp
M109 S220 ; wait for extruder temp
G28                                        ; move X/Y/Z to min endstops
G1 Z0.28                                   ; lift nozzle a bit 
G92 E0 
G1 Y3 F1800                                    ; zero the extruded length 
G1 X60  E25 F500                       ; Extrude 25mm of filament in a 5cm line. 
G92 E0                                     ; zero the extruded length again 
G1 E-2 F500                                ; Retract a little 
G1 X70 F4000                              ; Quickly wipe away from the filament line
M117
G90
G21
M83 ; use relative distances for extrusion
; EXECUTABLE_BLOCK_HEAD
; filament start gcode
M75 ; The first extruder is ready.
M106 S0
;LAYER_CHANGE
;Z:0.24
;HEIGHT:0.24
; BEFORE_LAYER_CHANGE 0 @ 0.24mm
G92 E0
; AFTER_LAYER_CHANGE 0 @ 0.24mm
M204 S500
G1 E-.8 F3600
G1 X46.126 Y70.14 F18000
G1 Z.24
G1 E.8 F3600
;TYPE:Skirt
;WIDTH:0.5
G1 F3000
G1 X183.349 Y70.141 E6.01809
G1 X184.749 Y70.277 E.0617
G1 X186.209 Y70.706 E.06671
G1 X187.556 Y71.412 E.06671
G1 X188.74 Y72.367 E.06671
G1 X189.715 Y73.535 E.06671
G1 X190.443 Y74.87 E.06671
G1 X190.897 Y76.322 E.06671
G1 X191.053 Y77.585 E.05581
G1 X191.047 Y142.546 E2.84895
G1 X190.897 Y143.678 E.05007
G1 X190.628 Y144.652 E.04433
G1 X190.286 Y145.477 E.03914
G1 X189.788 Y146.356 E.04433
G1 X189.093 Y147.262 E.05007
G1 X188.425 Y147.925 E.04129
G1 X187.556 Y148.588 E.04791
G1 X186.677 Y149.086 E.04433
G1 X185.122 Y149.642 E.07243
G1 X184.126 Y149.815 E.04433
G1 X183.3 Y149.86 E.03627
G1 X36.634 Y149.859 E6.43217
G1 X35.497 Y149.765 E.05007
G1 X34.385 Y149.506 E.05007
G1 X33.442 Y149.142 E.04433
G1 X32.444 Y148.588 E.05007
G1 X31.727 Y148.056 E.03914
G1 X30.907 Y147.262 E.05006
G1 X30.212 Y146.356 E.05007
G1 X29.714 Y145.477 E.04433
G1 X29.158 Y143.922 E.07243
G1 X28.985 Y142.926 E.04433
G1 X28.94 Y142.1 E.03627
G1 X28.947 Y77.585 E2.82939
G1 X29.035 Y76.697 E.03914
G1 X29.294 Y75.585 E.05007
G1 X29.658 Y74.642 E.04432
G1 X30.212 Y73.644 E.05007
G1 X30.744 Y72.927 E.03914
G1 X31.538 Y72.107 E.05007
G1 X32.335 Y71.485 E.04433
G1 X33.323 Y70.914 E.05007
G1 X34.878 Y70.358 E.07243
G1 X35.874 Y70.185 E.04433
G1 X36.7 Y70.14 E.03627
G1 X46.086 Y70.14 E.41161
G1 X46.086 Y70.589 F18000
G1 F3000
G1 X183.349 Y70.59 E6.01984
G1 X184.673 Y70.719 E.05832
G1 X186.047 Y71.125 E.06285
G1 X187.316 Y71.791 E.06285
G1 X188.431 Y72.692 E.06286
G1 X189.348 Y73.793 E.06285
G1 X190.033 Y75.052 E.06285
G1 X190.46 Y76.42 E.06285
G1 X190.605 Y77.596 E.05195
G1 X190.599 Y142.513 E2.84702
G1 X190.46 Y143.58 E.04717
G1 X190.202 Y144.512 E.0424
G1 X189.773 Y145.498 E.04717
G1 X189.348 Y146.207 E.03625
G1 X188.754 Y146.969 E.0424
G1 X188.132 Y147.586 E.0384
G1 X187.316 Y148.209 E.04502
G1 X186.475 Y148.685 E.0424
G1 X185.023 Y149.205 E.06762
G1 X184.071 Y149.37 E.0424
G1 X183.3 Y149.411 E.03386
G1 X36.645 Y149.411 E6.43169
G1 X35.573 Y149.324 E.04717
G1 X34.526 Y149.08 E.04717
G1 X33.525 Y148.685 E.04717
G1 X32.684 Y148.209 E.0424
G1 X32.02 Y147.717 E.03625
G1 X31.246 Y146.969 E.04717
G1 X30.591 Y146.116 E.04717
G1 X30.114 Y145.275 E.0424
G1 X29.595 Y143.823 E.06761
G1 X29.43 Y142.871 E.0424
G1 X29.389 Y142.1 E.03386
G1 X29.395 Y77.596 E2.8289
G1 X29.476 Y76.773 E.03624
G1 X29.72 Y75.726 E.04718
G1 X30.068 Y74.824 E.04239
G1 X30.591 Y73.884 E.04717
G1 X31.083 Y73.22 E.03625
G1 X31.831 Y72.446 E.04717
G1 X32.593 Y71.852 E.0424
G1 X33.525 Y71.315 E.04718
G1 X34.977 Y70.795 E.06762
G1 X35.929 Y70.63 E.0424
G1 X36.7 Y70.589 E.03385
G1 X46.046 Y70.589 E.40986
; printing object "CasefinityBaseV3.stl" id:0 copy 0
G1 E-.8 F3600
G1 X131.025 Y127.983 F18000
G1 E.8 F3600
;TYPE:Outer wall
G1 F2400
G1 X131.025 Y92.017 E1.57737
G1 X31.937 Y92.017 E4.3456
G1 X31.938 Y77.904 E.61892
G1 X31.99 Y77.198 E.03104
G1 X32.143 Y76.518 E.03059
G1 X32.3 Y76.079 E.02046
G1 X32.524 Y75.614 E.02262
G1 X32.74 Y75.255 E.01839
G1 X33.019 Y74.879 E.02051
G1 X33.333 Y74.533 E.02049
G1 X33.679 Y74.219 E.02049
G1 X34.057 Y73.939 E.02063
G1 X34.453 Y73.702 E.02023
G1 X34.881 Y73.499 E.02077
G1 X35.543 Y73.281 E.03059
G1 X36.004 Y73.189 E.02063
G1 X36.707 Y73.138 E.0309
G1 X183.342 Y73.139 E6.43082
G1 X183.766 Y73.161 E.01865
G1 X184.229 Y73.23 E.02051
G1 X184.901 Y73.415 E.03059
G1 X185.339 Y73.597 E.02076
G1 X185.948 Y73.942 E.03073
G1 X186.134 Y74.073 E.00998
G1 X186.667 Y74.533 E.03086
G1 X186.826 Y74.7 E.01012
G1 X187.258 Y75.252 E.03073
G1 X187.5 Y75.655 E.02063
G1 X187.699 Y76.078 E.02049
G1 X187.857 Y76.518 E.02049
G1 X187.97 Y76.971 E.02049
G1 X188.039 Y77.433 E.02049
G1 X188.062 Y77.907 E.0208
G1 X188.056 Y142.337 E2.82563
G1 X187.97 Y143.029 E.03059
G1 X187.857 Y143.482 E.02049
G1 X187.699 Y143.922 E.02049
G1 X187.386 Y144.546 E.03059
G1 X187.123 Y144.939 E.02076
G1 X186.667 Y145.467 E.03058
G1 X186.321 Y145.781 E.02051
G1 X185.751 Y146.183 E.03059
G1 X185.333 Y146.406 E.02076
G1 X184.679 Y146.658 E.03073
G1 X184.46 Y146.719 E.00998
G1 X183.77 Y146.839 E.03073
G1 X183.293 Y146.862 E.02094
G1 X36.707 Y146.862 E6.42868
G1 X36.23 Y146.839 E.02094
G1 X35.543 Y146.719 E.03059
G1 X35.096 Y146.583 E.02049
G1 X34.661 Y146.403 E.02063
G1 X34.052 Y146.058 E.03073
G1 X33.681 Y145.783 E.02023
G1 X33.333 Y145.467 E.02063
G1 X33.018 Y145.12 E.02057
G1 X32.614 Y144.546 E.03077
G1 X32.301 Y143.922 E.03061
G1 X32.143 Y143.482 E.02049
G1 X32.029 Y143.026 E.02063
G1 X31.944 Y142.334 E.0306
G1 X31.938 Y127.983 E.62934
G1 X131.005 Y127.983 E4.3447
G1 E-.8 F3600
G1 X174.568 Y146.414 F18000
G1 E.8 F3600
;TYPE:Inner wall
G1 F2400
G1 X174.567 Y73.586 E3.19395
G1 X183.33 Y73.588 E.3843
G1 X183.722 Y73.608 E.0172
G1 X184.141 Y73.67 E.0186
G1 X184.745 Y73.836 E.02745
G1 X185.326 Y74.092 E.02783
G1 X185.703 Y74.318 E.01931
G1 X186.203 Y74.71 E.02783
G1 X186.49 Y74.997 E.01781
G1 X186.77 Y75.337 E.01931
G1 X187.104 Y75.867 E.02746
G1 X187.285 Y76.25 E.01856
G1 X187.427 Y76.648 E.01856
G1 X187.53 Y77.059 E.01856
G1 X187.592 Y77.477 E.01856
G1 X187.614 Y77.918 E.01935
G1 X187.608 Y142.32 E2.82442
G1 X187.593 Y142.514 E.00853
G1 X187.53 Y142.941 E.01894
G1 X187.427 Y143.352 E.01856
G1 X187.285 Y143.75 E.01856
G1 X187.004 Y144.31 E.02745
G1 X186.64 Y144.83 E.02783
G1 X186.35 Y145.149 E.01892
G1 X186.036 Y145.434 E.01857
G1 X185.689 Y145.691 E.01894
G1 X185.136 Y146.003 E.02783
G1 X184.544 Y146.23 E.02783
G1 X183.924 Y146.368 E.02783
G1 X183.282 Y146.414 E.02824
G1 X174.588 Y146.414 E.38129
G1 X174.119 Y146.419 F18000
;TYPE:Outer wall
G1 F2400
G1 X174.119 Y73.581 E3.19439
G1 X152.483 Y73.581 E.94886
G1 X152.477 Y74.397 E.03578
G1 X152.481 Y146.419 E3.15861
G1 X174.099 Y146.419 E.94811
G1 E-.8 F3600
G1 X152.032 Y146.414 F18000
G1 E.8 F3600
;TYPE:Inner wall
G1 F2400
G1 X36.718 Y146.414 E5.05722
G1 X36.269 Y146.392 E.01973
G1 X35.652 Y146.284 E.02745
G1 X35.247 Y146.161 E.01856
G1 X34.674 Y145.908 E.02745
G1 X34.131 Y145.565 E.0282
G1 X33.65 Y145.15 E.02783
G1 X33.362 Y144.832 E.0188
G1 X32.996 Y144.311 E.02793
G1 X32.716 Y143.75 E.0275
G1 X32.573 Y143.352 E.01856
G1 X32.435 Y142.741 E.02746
G1 X32.392 Y142.311 E.01894
G1 X32.386 Y128.432 E.6087
G1 X131.474 Y128.432 E4.34557
G1 X131.474 Y91.568 E1.61671
G1 X32.386 Y91.568 E4.3456
G1 X32.386 Y77.91 E.59901
G1 X32.435 Y77.259 E.02862
G1 X32.573 Y76.648 E.02746
G1 X32.715 Y76.252 E.01846
G1 X32.919 Y75.827 E.02066
G1 X33.113 Y75.505 E.01652
G1 X33.366 Y75.164 E.0186
G1 X33.65 Y74.85 E.01856
G1 X33.964 Y74.566 E.01856
G1 X34.482 Y74.2 E.02783
G1 X35.057 Y73.912 E.02821
G1 X35.652 Y73.716 E.02745
G1 X36.269 Y73.608 E.02745
G1 X36.718 Y73.586 E.01973
G1 X152.034 Y73.581 E5.05732
G1 X152.029 Y74.395 E.03571
G1 X152.032 Y146.394 E3.15756
G1 E-.8 F3600
G1 X151.894 Y74.62 F18000
G1 E.8 F3600
;TYPE:Bottom surface
;WIDTH:0.501319
G1 F3000
G1 X151.192 Y73.918 E.0437
G1 X150.555 Y73.918 E.02798
G1 X151.692 Y75.055 E.07071
G1 X151.692 Y75.691 E.02798
G1 X149.919 Y73.918 E.11028
G1 X149.283 Y73.918 E.02798
G1 X151.692 Y76.327 E.14985
G1 X151.692 Y76.963 E.02798
G1 X148.647 Y73.918 E.18943
G1 X148.011 Y73.918 E.02798
G1 X151.692 Y77.599 E.229
G1 X151.692 Y78.235 E.02798
G1 X147.375 Y73.918 E.26857
G1 X146.739 Y73.918 E.02798
G1 X151.692 Y78.872 E.30814
G1 X151.692 Y79.508 E.02798
G1 X146.103 Y73.918 E.34771
G1 X145.467 Y73.918 E.02798
G1 X151.692 Y80.144 E.38728
G1 X151.693 Y80.78 E.02798
G1 X144.83 Y73.918 E.42685
G1 X144.194 Y73.918 E.02798
G1 X151.693 Y81.416 E.46642
G1 X151.693 Y82.052 E.02798
G1 X143.558 Y73.918 E.50599
G1 X142.922 Y73.918 E.02798
G1 X151.693 Y82.689 E.54556
G1 X151.693 Y83.325 E.02798
G1 X142.286 Y73.918 E.58513
G1 X141.65 Y73.918 E.02798
G1 X151.693 Y83.961 E.6247
G1 X151.693 Y84.597 E.02798
G1 X141.014 Y73.918 E.66427
G1 X140.378 Y73.918 E.02798
G1 X151.693 Y85.233 E.70384
G1 X151.693 Y85.869 E.02798
G1 X139.742 Y73.918 E.74341
G1 X139.106 Y73.918 E.02798
G1 X151.693 Y86.506 E.78298
G1 X151.693 Y87.142 E.02798
G1 X138.469 Y73.918 E.82255
G1 X137.833 Y73.918 E.02798
G1 X151.693 Y87.778 E.86212
G1 X151.693 Y88.414 E.02798
G1 X137.197 Y73.918 E.9017
G1 X136.561 Y73.918 E.02798
G1 X151.693 Y89.05 E.94127
G1 X151.693 Y89.686 E.02798
G1 X135.925 Y73.918 E.98084
G1 X135.289 Y73.918 E.02798
G1 X151.693 Y90.323 E1.02041
G1 X151.693 Y90.959 E.02798
G1 X134.653 Y73.918 E1.05998
G1 X134.017 Y73.918 E.02798
G1 X151.693 Y91.595 E1.09955
G1 X151.693 Y92.231 E.02798
G1 X133.381 Y73.918 E1.13912
G1 X132.744 Y73.919 E.02798
G1 X151.693 Y92.867 E1.17869
G1 X151.693 Y93.503 E.02798
G1 X132.108 Y73.919 E1.21826
G1 X131.472 Y73.919 E.02798
G1 X151.693 Y94.14 E1.25783
G1 X151.693 Y94.776 E.02798
G1 X130.836 Y73.919 E1.2974
G1 X130.2 Y73.919 E.02798
G1 X151.693 Y95.412 E1.33697
G1 X151.693 Y96.048 E.02798
G1 X129.564 Y73.919 E1.37654
G1 X128.928 Y73.919 E.02798
G1 X151.693 Y96.684 E1.41611
G1 X151.693 Y97.32 E.02798
G1 X128.292 Y73.919 E1.45568
G1 X127.656 Y73.919 E.02798
G1 X151.693 Y97.957 E1.49525
G1 X151.693 Y98.593 E.02798
G1 X127.019 Y73.919 E1.53482
G1 X126.383 Y73.919 E.02798
G1 X151.693 Y99.229 E1.57439
G1 X151.693 Y99.865 E.02798
G1 X125.747 Y73.919 E1.61397
G1 X125.111 Y73.919 E.02798
G1 X151.694 Y100.501 E1.65354
G1 X151.694 Y101.137 E.02798
G1 X124.475 Y73.919 E1.69311
G1 X123.839 Y73.919 E.02798
G1 X151.694 Y101.774 E1.73268
G1 X151.694 Y102.41 E.02798
G1 X123.203 Y73.919 E1.77225
G1 X122.567 Y73.919 E.02798
G1 X151.694 Y103.046 E1.81182
G1 X151.694 Y103.682 E.02798
G1 X121.931 Y73.919 E1.85139
G1 X121.295 Y73.919 E.02798
G1 X151.694 Y104.318 E1.89096
G1 X151.694 Y104.954 E.02798
G1 X120.658 Y73.919 E1.93053
G1 X120.022 Y73.919 E.02798
G1 X151.694 Y105.591 E1.9701
G1 X151.694 Y106.227 E.02798
G1 X119.386 Y73.919 E2.00967
G1 X118.75 Y73.919 E.02798
G1 X151.694 Y106.863 E2.04924
G1 X151.694 Y107.499 E.02798
G1 X118.114 Y73.919 E2.08881
G1 X117.478 Y73.919 E.02798
G1 X151.694 Y108.135 E2.12838
G1 X151.694 Y108.771 E.02798
G1 X116.842 Y73.919 E2.16795
G1 X116.206 Y73.919 E.02798
G1 X151.694 Y109.408 E2.20752
G1 X151.694 Y110.044 E.02798
G1 X115.57 Y73.919 E2.24709
G1 X114.933 Y73.919 E.02798
G1 X151.694 Y110.68 E2.28666
G1 X151.694 Y111.316 E.02798
G1 X114.297 Y73.919 E2.32624
G1 X113.661 Y73.919 E.02798
G1 X130.974 Y91.232 E1.0769
G1 X130.337 Y91.232 E.02798
G1 X113.025 Y73.919 E1.0769
G1 X112.389 Y73.919 E.02798
G1 X129.701 Y91.232 E1.0769
G1 X129.065 Y91.232 E.02798
G1 X111.753 Y73.919 E1.07689
G1 X111.117 Y73.919 E.02798
G1 X128.429 Y91.232 E1.07689
G1 X127.793 Y91.232 E.02798
G1 X110.481 Y73.919 E1.07689
G1 X109.845 Y73.92 E.02798
G1 X127.157 Y91.232 E1.07689
G1 X126.521 Y91.232 E.02798
G1 X109.208 Y73.92 E1.07689
G1 X108.572 Y73.92 E.02798
G1 X125.884 Y91.232 E1.07689
G1 X125.248 Y91.232 E.02798
G1 X107.936 Y73.92 E1.07688
G1 X107.3 Y73.92 E.02798
G1 X124.612 Y91.232 E1.07688
G1 X123.976 Y91.232 E.02798
G1 X106.664 Y73.92 E1.07688
G1 X106.028 Y73.92 E.02798
G1 X123.34 Y91.232 E1.07688
G1 X122.704 Y91.232 E.02798
G1 X105.392 Y73.92 E1.07688
G1 X104.756 Y73.92 E.02798
G1 X122.068 Y91.232 E1.07688
G1 X121.432 Y91.232 E.02798
G1 X104.12 Y73.92 E1.07687
G1 X103.484 Y73.92 E.02798
G1 X120.795 Y91.232 E1.07687
G1 X120.159 Y91.232 E.02798
G1 X102.847 Y73.92 E1.07687
G1 X102.211 Y73.92 E.02798
G1 X119.523 Y91.232 E1.07687
G1 X118.887 Y91.232 E.02798
G1 X101.575 Y73.92 E1.07687
G1 X100.939 Y73.92 E.02798
G1 X118.251 Y91.232 E1.07687
G1 X117.615 Y91.232 E.02798
G1 X100.303 Y73.92 E1.07686
G1 X99.667 Y73.92 E.02798
G1 X116.979 Y91.232 E1.07686
G1 X116.342 Y91.232 E.02798
G1 X99.031 Y73.92 E1.07686
G1 X98.395 Y73.92 E.02798
G1 X115.706 Y91.232 E1.07686
G1 X115.07 Y91.232 E.02798
G1 X97.759 Y73.92 E1.07686
G1 X97.122 Y73.92 E.02798
G1 X114.434 Y91.232 E1.07685
G1 X113.798 Y91.232 E.02798
G1 X96.486 Y73.92 E1.07685
G1 X95.85 Y73.92 E.02798
G1 X113.162 Y91.232 E1.07685
G1 X112.526 Y91.232 E.02798
G1 X95.214 Y73.92 E1.07685
G1 X94.578 Y73.92 E.02798
G1 X111.89 Y91.232 E1.07685
G1 X111.253 Y91.232 E.02798
G1 X93.942 Y73.92 E1.07685
G1 X93.306 Y73.92 E.02798
G1 X110.617 Y91.232 E1.07684
G1 X109.981 Y91.232 E.02798
G1 X92.67 Y73.92 E1.07684
G1 X92.034 Y73.92 E.02798
G1 X109.345 Y91.232 E1.07684
G1 X108.709 Y91.232 E.02798
G1 X91.397 Y73.92 E1.07684
G1 X90.761 Y73.92 E.02798
G1 X108.073 Y91.232 E1.07684
G1 X107.437 Y91.232 E.02798
G1 X90.125 Y73.92 E1.07684
G1 X89.489 Y73.92 E.02798
G1 X106.8 Y91.232 E1.07683
G1 X106.164 Y91.232 E.02798
G1 X88.853 Y73.92 E1.07683
G1 X88.217 Y73.92 E.02798
G1 X105.528 Y91.232 E1.07683
G1 X104.892 Y91.232 E.02798
G1 X87.581 Y73.92 E1.07683
G1 X86.945 Y73.921 E.02798
G1 X104.256 Y91.232 E1.07683
G1 X103.62 Y91.232 E.02798
G1 X86.309 Y73.921 E1.07683
G1 X85.673 Y73.921 E.02798
G1 X102.984 Y91.232 E1.07682
G1 X102.347 Y91.232 E.02798
G1 X85.036 Y73.921 E1.07682
G1 X84.4 Y73.921 E.02798
G1 X101.711 Y91.232 E1.07682
G1 X101.075 Y91.232 E.02798
G1 X83.764 Y73.921 E1.07682
G1 X83.128 Y73.921 E.02798
G1 X100.439 Y91.232 E1.07682
G1 X99.803 Y91.232 E.02798
G1 X82.492 Y73.921 E1.07682
G1 X81.856 Y73.921 E.02798
G1 X99.167 Y91.232 E1.07681
G1 X98.531 Y91.232 E.02798
G1 X81.22 Y73.921 E1.07681
G1 X80.584 Y73.921 E.02798
G1 X97.895 Y91.232 E1.07681
G1 X97.258 Y91.232 E.02798
G1 X79.948 Y73.921 E1.07681
G1 X79.311 Y73.921 E.02798
G1 X96.622 Y91.232 E1.07681
G1 X95.986 Y91.232 E.02798
G1 X78.675 Y73.921 E1.0768
G1 X78.039 Y73.921 E.02798
G1 X95.35 Y91.232 E1.0768
G1 X94.714 Y91.232 E.02798
G1 X77.403 Y73.921 E1.0768
G1 X76.767 Y73.921 E.02798
G1 X94.078 Y91.232 E1.0768
G1 X93.442 Y91.232 E.02798
G1 X76.131 Y73.921 E1.0768
G1 X75.495 Y73.921 E.02798
G1 X92.805 Y91.232 E1.0768
G1 X92.169 Y91.232 E.02798
G1 X74.859 Y73.921 E1.07679
G1 X74.223 Y73.921 E.02798
G1 X91.533 Y91.232 E1.07679
G1 X90.897 Y91.232 E.02798
G1 X73.587 Y73.921 E1.07679
G1 X72.95 Y73.921 E.02798
G1 X90.261 Y91.232 E1.07679
G1 X89.625 Y91.232 E.02798
G1 X72.314 Y73.921 E1.07679
G1 X71.678 Y73.921 E.02798
