; HEADER_BLOCK_START
; generated by AnycubicSlicerNext 1.3.9.3 on 2026-03-11 at 12:01:07
; total layer number: 76
; filament_density: 1.24
; filament_diameter: 1.75
; max_z_height: 10.24
; exclude_object: 0
; model_instances: 1
; source_info: {"models":[{"file_source":0,"mo_file_id":-1,"name":"CasefinityBaseV4.stl_id_0_copy_0"}],"models_from":0,"plate_index":1,"slice_paras_process":1,"software_version":"AnycubicSlicerNext 1.3.9.3 20260131153104"}
; paint_info = [{"material_type":"PLA","paint_color":[105,164,255],"paint_index":0}]
; project_info = {"flush_multiplier":1.0,"flush_volumes_chan_multipliers":[1.0,1.0,1.0,1.0],"flush_volumes_matrix":[0.0],"flush_volumes_vector":[140.0,140.0]}
; flush_multiplier_calculate_by_acnext: 1
; test_mode: 0
; HEADER_BLOCK_END

; THUMBNAIL_BLOCK_START
; THUMBNAIL_BLOCK_END

; external perimeters extrusion width = 0.42mm
; perimeters extrusion width = 0.45mm
; infill extrusion width = 0.45mm
; solid infill extrusion width = 0.42mm
; top infill extrusion width = 0.42mm
; support material extrusion width = 0.40mm
; first layer extrusion width = 0.50mm

; EXECUTABLE_BLOCK_START
M201 X2000 Y2000 Z800 E2000
M203 X300 Y300 Z8 E100
M204 P2000 R2000 T2000
M205 X10.00 Y10.00 Z2.00 E5.00
;TYPE:Custom
G90 ; use absolute coordinates
M83 ; extruder relative mode
M104 S220 ; set extruder temp
M140 S60 ; set bed temp
M190 S60 ; wait for bed temp
M109 S220 ; wait for extruder temp
G28                                        ; move X/Y/Z to min endstops
G1 Z0.28                                   ; lift nozzle a bit 
G92 E0 
G1 Y3 F1800                                    ; zero the extruded length 
G1 X60  E25 F500                       ; Extrude 25mm of filament in a 5cm line. 
G92 E0                                     ; zero the extruded length again 
G1 E-2 F500                                ; Retract a little 
G1 X70 F4000                              ; Quickly wipe away from the filament line
M117
G90
G21
M83 ; use relative distances for extrusion
; EXECUTABLE_BLOCK_HEAD
; filament start gcode
M75 ; The first extruder is ready.
M106 S0
;LAYER_CHANGE
;Z:0.24
;HEIGHT:0.24
; BEFORE_LAYER_CHANGE 0 @ 0.24mm
G92 E0
; AFTER_LAYER_CHANGE 0 @ 0.24mm
M204 S500
G1 E-.8 F3600
G1 X70.637 Y47.269 F18000
G1 Z.24
G1 E.8 F3600
;TYPE:Skirt
;WIDTH:0.5
G1 F3000
G1 X70.637 Y36.7 E.46353
G1 X70.769 Y35.348 E.05956
G1 X71.17 Y33.983 E.0624
G1 X71.615 Y33.071 E.04451
G1 X72.248 Y32.146 E.04915
G1 X73.036 Y31.315 E.05024
G1 X73.793 Y30.716 E.04232
G1 X74.808 Y30.134 E.05133
G1 X75.707 Y29.782 E.04232
G1 X76.548 Y29.569 E.03808
G1 X77.588 Y29.447 E.04588
G1 X142.166 Y29.438 E2.83214
G1 X143.58 Y29.594 E.06242
G1 X144.938 Y30.02 E.0624
G1 X146.056 Y30.616 E.05558
G1 X147.167 Y31.504 E.0624
G1 X148.084 Y32.593 E.06239
G1 X148.77 Y33.839 E.06239
G1 X149.206 Y35.22 E.06349
G1 X149.359 Y36.513 E.05711
G1 X149.363 Y183.3 E6.4375
G1 X149.231 Y184.652 E.05955
G1 X148.839 Y185.993 E.06131
G1 X148.47 Y186.779 E.03808
G1 X147.921 Y187.633 E.0445
G1 X143.562 Y193.233 E.31123
G1 X142.396 Y194.092 E.06353
G1 X141.454 Y194.263 E.042
G1 X78.546 Y194.263 E2.75887
G1 X77.152 Y193.871 E.06353
G1 X76.438 Y193.233 E.042
G1 X71.816 Y187.257 E.33135
G1 X71.334 Y186.392 E.04341
G1 X70.982 Y185.493 E.04232
G1 X70.739 Y184.482 E.04561
G1 X70.641 Y183.487 E.04385
G1 X70.637 Y47.309 E5.97222
G1 X71.086 Y47.309 F18000
G1 F3000
G1 X71.085 Y36.7 E.46528
G1 X71.211 Y35.425 E.05618
G1 X71.588 Y34.145 E.05855
G1 X72.005 Y33.292 E.04162
G1 X72.602 Y32.422 E.04626
G1 X73.342 Y31.642 E.04716
G1 X74.055 Y31.081 E.03979
G1 X75.006 Y30.537 E.04807
G1 X75.851 Y30.206 E.0398
G1 X76.625 Y30.011 E.035
G1 X77.62 Y29.894 E.04391
G1 X142.155 Y29.886 E2.83025
G1 X143.482 Y30.032 E.05857
G1 X144.756 Y30.43 E.05854
G1 X145.82 Y30.997 E.05287
G1 X146.861 Y31.832 E.05854
G1 X147.719 Y32.855 E.05854
G1 X148.362 Y34.025 E.05854
G1 X148.768 Y35.318 E.05945
G1 X148.911 Y36.524 E.05326
G1 X148.915 Y183.3 E6.43702
G1 X148.789 Y184.575 E.05618
G1 X148.419 Y185.836 E.05764
G1 X148.08 Y186.558 E.035
G1 X147.557 Y187.371 E.04239
G1 X143.208 Y192.957 E.31047
G1 X142.126 Y193.711 E.05784
G1 X141.454 Y193.815 E.02984
G1 X78.546 Y193.815 E2.75887
G1 X77.287 Y193.424 E.05784
G1 X76.792 Y192.957 E.02984
G1 X72.197 Y187.02 E.32926
G1 X71.737 Y186.194 E.04148
G1 X71.406 Y185.349 E.0398
G1 X71.181 Y184.405 E.04253
G1 X71.089 Y183.476 E.04095
G1 X71.086 Y47.349 E5.96998
; printing object "CasefinityBaseV4.stl" id:0 copy 0
G1 E-.8 F3600
G1 X138.67 Y188.078 F18000
G1 E.8 F3600
;TYPE:Support
G1 F2400
G1 X138.934 Y188.341 E.01635
G1 X141.454 Y188.34 E.11052
G1 X141.454 Y191.591 E.14254
G1 X78.546 Y191.591 E2.75887
G1 X78.546 Y188.34 E.14254
G1 X81.066 Y188.341 E.11051
G1 X81.33 Y188.078 E.01635
G1 X81.33 Y185.506 E.11281
G1 X138.67 Y185.506 E2.51471
G1 X138.67 Y188.01 E.10986
G1 X140.896 Y191.389 F18000
G1 F2400
G1 X140.896 Y188.744 E.11598
G1 X140.398 Y188.744 E.02185
G1 X140.398 Y191.187 E.10712
G1 X139.9 Y191.187 E.02185
G1 X139.9 Y188.745 E.10712
G1 X139.401 Y188.745 E.02185
G1 X139.401 Y191.187 E.10711
G1 X138.903 Y191.187 E.02185
G1 X138.903 Y188.745 E.1071
G1 X138.767 Y188.745 E.00598
G1 X138.405 Y188.383 E.02244
G1 X138.405 Y191.187 E.12297
G1 X137.906 Y191.187 E.02185
G1 X137.906 Y185.909 E.23147
G1 X137.408 Y185.909 E.02185
G1 X137.408 Y191.187 E.23147
G1 X136.91 Y191.187 E.02185
G1 X136.91 Y185.909 E.23147
G1 X136.411 Y185.909 E.02185
G1 X136.411 Y191.187 E.23147
G1 X135.913 Y191.187 E.02185
G1 X135.913 Y185.909 E.23147
G1 X135.415 Y185.909 E.02185
G1 X135.415 Y191.187 E.23147
G1 X134.916 Y191.187 E.02185
G1 X134.916 Y185.909 E.23147
G1 X134.418 Y185.909 E.02185
G1 X134.418 Y191.187 E.23147
G1 X133.92 Y191.187 E.02185
G1 X133.92 Y185.909 E.23147
G1 X133.421 Y185.909 E.02185
G1 X133.421 Y191.187 E.23147
G1 X132.923 Y191.187 E.02185
G1 X132.923 Y185.909 E.23147
G1 X132.425 Y185.909 E.02185
G1 X132.425 Y191.187 E.23147
G1 X131.926 Y191.187 E.02185
G1 X131.926 Y185.909 E.23147
G1 X131.428 Y185.909 E.02185
G1 X131.428 Y191.187 E.23147
G1 X130.93 Y191.187 E.02185
G1 X130.93 Y185.909 E.23147
G1 X130.431 Y185.909 E.02185
G1 X130.431 Y191.187 E.23147
G1 X129.933 Y191.187 E.02185
G1 X129.933 Y185.909 E.23147
G1 X129.435 Y185.909 E.02185
G1 X129.435 Y191.187 E.23147
G1 X128.936 Y191.187 E.02185
G1 X128.936 Y185.909 E.23147
G1 X128.438 Y185.909 E.02185
G1 X128.438 Y191.187 E.23147
G1 X127.94 Y191.187 E.02185
G1 X127.94 Y185.909 E.23147
G1 X127.441 Y185.909 E.02185
G1 X127.441 Y191.187 E.23147
G1 X126.943 Y191.187 E.02185
G1 X126.943 Y185.909 E.23147
G1 X126.445 Y185.909 E.02185
G1 X126.445 Y191.187 E.23147
G1 X125.946 Y191.187 E.02185
G1 X125.946 Y185.909 E.23147
G1 X125.448 Y185.909 E.02185
G1 X125.448 Y191.187 E.23147
G1 X124.95 Y191.187 E.02185
G1 X124.95 Y185.909 E.23147
G1 X124.452 Y185.909 E.02185
G1 X124.452 Y191.187 E.23147
G1 X123.953 Y191.187 E.02185
G1 X123.953 Y185.909 E.23147
G1 X123.455 Y185.909 E.02185
G1 X123.455 Y191.187 E.23147
G1 X122.957 Y191.187 E.02185
G1 X122.957 Y185.909 E.23147
G1 X122.458 Y185.909 E.02185
G1 X122.458 Y191.187 E.23147
G1 X121.96 Y191.187 E.02185
G1 X121.96 Y185.909 E.23147
G1 X121.462 Y185.909 E.02185
G1 X121.462 Y191.187 E.23147
G1 X120.963 Y191.187 E.02185
G1 X120.963 Y185.909 E.23147
G1 X120.465 Y185.909 E.02185
G1 X120.465 Y191.187 E.23147
G1 X119.967 Y191.187 E.02185
G1 X119.967 Y185.909 E.23147
G1 X119.468 Y185.909 E.02185
G1 X119.468 Y191.187 E.23147
G1 X118.97 Y191.187 E.02185
G1 X118.97 Y185.909 E.23147
G1 X118.472 Y185.909 E.02185
G1 X118.472 Y191.187 E.23147
G1 X117.973 Y191.187 E.02185
G1 X117.973 Y185.909 E.23147
G1 X117.475 Y185.909 E.02185
G1 X117.475 Y191.187 E.23147
G1 X116.977 Y191.187 E.02185
G1 X116.977 Y185.909 E.23147
G1 X116.478 Y185.909 E.02185
G1 X116.478 Y191.187 E.23147
G1 X115.98 Y191.187 E.02185
G1 X115.98 Y185.909 E.23147
G1 X115.482 Y185.909 E.02185
G1 X115.482 Y191.187 E.23147
G1 X114.983 Y191.187 E.02185
G1 X114.983 Y185.909 E.23147
G1 X114.485 Y185.909 E.02185
G1 X114.485 Y191.187 E.23147
G1 X113.987 Y191.187 E.02185
G1 X113.987 Y185.909 E.23147
G1 X113.488 Y185.909 E.02185
G1 X113.488 Y191.187 E.23147
G1 X112.99 Y191.187 E.02185
G1 X112.99 Y185.909 E.23147
G1 X112.492 Y185.909 E.02185
G1 X112.492 Y191.187 E.23147
G1 X111.993 Y191.187 E.02185
G1 X111.993 Y185.909 E.23147
G1 X111.495 Y185.909 E.02185
G1 X111.495 Y191.187 E.23147
G1 X110.997 Y191.187 E.02185
G1 X110.997 Y185.909 E.23147
G1 X110.498 Y185.909 E.02185
G1 X110.498 Y191.187 E.23147
G1 X110 Y191.187 E.02185
G1 X110 Y185.909 E.23147
G1 X109.502 Y185.909 E.02185
G1 X109.502 Y191.187 E.23147
G1 X109.003 Y191.187 E.02185
G1 X109.003 Y185.909 E.23147
G1 X108.505 Y185.909 E.02185
G1 X108.505 Y191.187 E.23147
G1 X108.007 Y191.187 E.02185
G1 X108.007 Y185.909 E.23147
G1 X107.508 Y185.909 E.02185
G1 X107.508 Y191.187 E.23147
G1 X107.01 Y191.187 E.02185
G1 X107.01 Y185.909 E.23147
G1 X106.512 Y185.909 E.02185
G1 X106.512 Y191.187 E.23147
G1 X106.013 Y191.187 E.02185
G1 X106.013 Y185.909 E.23147
G1 X105.515 Y185.909 E.02185
G1 X105.515 Y191.187 E.23147
G1 X105.017 Y191.187 E.02185
G1 X105.017 Y185.909 E.23147
G1 X104.518 Y185.909 E.02185
G1 X104.518 Y191.187 E.23147
G1 X104.02 Y191.187 E.02185
G1 X104.02 Y185.909 E.23147
G1 X103.522 Y185.909 E.02185
G1 X103.522 Y191.187 E.23147
G1 X103.023 Y191.187 E.02185
G1 X103.023 Y185.909 E.23147
G1 X102.525 Y185.909 E.02185
G1 X102.525 Y191.187 E.23147
G1 X102.027 Y191.187 E.02185
G1 X102.027 Y185.909 E.23147
G1 X101.528 Y185.909 E.02185
G1 X101.528 Y191.187 E.23147
G1 X101.03 Y191.187 E.02185
G1 X101.03 Y185.909 E.23147
G1 X100.532 Y185.909 E.02185
G1 X100.532 Y191.187 E.23147
G1 X100.033 Y191.187 E.02185
G1 X100.033 Y185.909 E.23147
G1 X99.535 Y185.909 E.02185
G1 X99.535 Y191.187 E.23147
G1 X99.037 Y191.187 E.02185
G1 X99.037 Y185.909 E.23147
G1 X98.538 Y185.909 E.02185
G1 X98.538 Y191.187 E.23147
G1 X98.04 Y191.187 E.02185
G1 X98.04 Y185.909 E.23147
G1 X97.542 Y185.909 E.02185
G1 X97.542 Y191.187 E.23147
G1 X97.043 Y191.187 E.02185
G1 X97.043 Y185.909 E.23147
G1 X96.545 Y185.909 E.02185
G1 X96.545 Y191.187 E.23147
G1 X96.047 Y191.187 E.02185
G1 X96.047 Y185.909 E.23147
G1 X95.548 Y185.909 E.02185
G1 X95.548 Y191.187 E.23147
G1 X95.05 Y191.187 E.02185
G1 X95.05 Y185.909 E.23147
G1 X94.552 Y185.909 E.02185
G1 X94.552 Y191.187 E.23147
G1 X94.053 Y191.187 E.02185
G1 X94.053 Y185.909 E.23147
G1 X93.555 Y185.909 E.02185
G1 X93.555 Y191.187 E.23147
G1 X93.057 Y191.187 E.02185
G1 X93.057 Y185.909 E.23147
G1 X92.559 Y185.909 E.02185
G1 X92.559 Y191.187 E.23147
G1 X92.06 Y191.187 E.02185
G1 X92.06 Y185.909 E.23147
G1 X91.562 Y185.909 E.02185
G1 X91.562 Y191.187 E.23147
G1 X91.064 Y191.187 E.02185
G1 X91.064 Y185.909 E.23147
G1 X90.565 Y185.909 E.02185
G1 X90.565 Y191.187 E.23147
G1 X90.067 Y191.187 E.02185
G1 X90.067 Y185.909 E.23147
G1 X89.569 Y185.909 E.02185
G1 X89.569 Y191.187 E.23147
G1 X89.07 Y191.187 E.02185
G1 X89.07 Y185.909 E.23147
G1 X88.572 Y185.909 E.02185
G1 X88.572 Y191.187 E.23147
G1 X88.074 Y191.187 E.02185
G1 X88.074 Y185.909 E.23147
G1 X87.575 Y185.909 E.02185
G1 X87.575 Y191.187 E.23147
G1 X87.077 Y191.187 E.02185
G1 X87.077 Y185.909 E.23147
G1 X86.579 Y185.909 E.02185
G1 X86.579 Y191.187 E.23147
G1 X86.08 Y191.187 E.02185
G1 X86.08 Y185.909 E.23147
G1 X85.582 Y185.909 E.02185
G1 X85.582 Y191.187 E.23147
G1 X85.084 Y191.187 E.02185
G1 X85.084 Y185.909 E.23147
G1 X84.585 Y185.909 E.02185
G1 X84.585 Y191.187 E.23147
G1 X84.087 Y191.187 E.02185
G1 X84.087 Y185.909 E.23147
G1 X83.589 Y185.909 E.02185
G1 X83.589 Y191.187 E.23147
G1 X83.09 Y191.187 E.02185
G1 X83.09 Y185.909 E.23147
G1 X82.592 Y185.909 E.02185
G1 X82.592 Y191.187 E.23147
G1 X82.094 Y191.187 E.02185
G1 X82.094 Y185.909 E.23147
G1 X81.734 Y185.909 E.01579
G1 X81.734 Y188.245 E.10244
G1 X81.595 Y188.383 E.00858
G1 X81.595 Y191.187 E.12297
G1 X81.097 Y191.187 E.02185
G1 X81.097 Y188.745 E.1071
G1 X80.599 Y188.745 E.02185
G1 X80.599 Y191.187 E.10711
G1 X80.1 Y191.187 E.02185
G1 X80.1 Y188.745 E.10712
G1 X79.602 Y188.744 E.02185
G1 X79.602 Y191.187 E.10712
G1 X79.104 Y191.187 E.02185
G1 X79.104 Y188.543 E.11598
G1 E-.8 F3600
G1 X139.445 Y88.975 F18000
G1 E.8 F3600
;TYPE:Outer wall
G1 F2400
G1 X80.555 Y88.975 E2.58268
G1 X80.555 Y187.566 E4.32382
G1 X77.908 Y187.565 E.11607
G1 X77.484 Y187.54 E.01865
G1 X77.067 Y187.478 E.01847
G1 X76.822 Y187.421 E.01107
G1 X76.27 Y187.236 E.02553
G1 X75.749 Y186.976 E.02553
G1 X75.534 Y186.843 E.01107
G1 X75.197 Y186.593 E.01841
G1 X74.886 Y186.312 E.01841
G1 X74.714 Y186.127 E.01107
G1 X74.356 Y185.665 E.02564
G1 X74.142 Y185.307 E.01829
G1 X74.03 Y185.081 E.01107
G1 X73.823 Y184.537 E.02553
G1 X73.693 Y183.969 E.02553
G1 X73.635 Y183.292 E.02983
G1 X73.635 Y36.71 E6.42848
G1 X73.675 Y36.182 E.02325
G1 X73.721 Y35.869 E.01387
G1 X73.823 Y35.463 E.01834
G1 X73.963 Y35.072 E.01821
G1 X74.224 Y34.549 E.02565
G1 X74.356 Y34.334 E.01105
G1 X74.607 Y33.997 E.01842
G1 X74.889 Y33.686 E.01842
G1 X75.073 Y33.514 E.01105
G1 X75.535 Y33.156 E.02564
G1 X75.893 Y32.942 E.01829
G1 X76.119 Y32.83 E.01107
G1 X76.663 Y32.623 E.02553
G1 X77.227 Y32.494 E.02535
G1 X77.795 Y32.438 E.02503
G1 X142.203 Y32.438 E2.82469
G1 X142.935 Y32.522 E.03233
G1 X143.337 Y32.623 E.01818
G1 X143.731 Y32.764 E.01834
G1 X144.109 Y32.943 E.01834
G1 X144.467 Y33.157 E.01832
G1 X144.803 Y33.407 E.01834
G1 X145.113 Y33.687 E.01834
G1 X145.393 Y33.997 E.01834
G1 X145.643 Y34.333 E.01834
G1 X145.857 Y34.692 E.01834
G1 X146.036 Y35.07 E.01835
G1 X146.177 Y35.463 E.01832
G1 X146.279 Y35.869 E.01834
G1 X146.34 Y36.285 E.01847
G1 X146.362 Y36.591 E.01344
G1 X146.365 Y183.29 E6.43362
G1 X146.325 Y183.818 E.02325
G1 X146.279 Y184.131 E.01386
G1 X146.177 Y184.537 E.01835
G1 X146.036 Y184.93 E.01834
G1 X145.857 Y185.308 E.01834
G1 X145.642 Y185.667 E.01834
G1 X145.393 Y186.003 E.01834
G1 X145.112 Y186.313 E.01835
G1 X144.803 Y186.593 E.01832
G1 X144.467 Y186.843 E.01834
G1 X144.108 Y187.057 E.01834
G1 X143.733 Y187.235 E.01821
G1 X143.178 Y187.421 E.02565
G1 X142.933 Y187.478 E.01107
G1 X142.516 Y187.54 E.01847
G1 X142.092 Y187.565 E.01865
G1 X139.445 Y187.566 E.11607
G1 X139.445 Y88.995 E4.32294
G1 X139.893 Y88.527 F18000
;TYPE:Inner wall
G1 F2400
G1 X80.107 Y88.527 E2.62202
G1 X80.107 Y187.118 E4.32381
G1 X77.922 Y187.117 E.09582
G1 X77.53 Y187.094 E.0172
G1 X76.944 Y186.989 E.0261
G1 X76.442 Y186.821 E.02324
G1 X75.967 Y186.584 E.02324
G1 X75.482 Y186.246 E.02593
G1 X75.056 Y185.836 E.02594
G1 X74.727 Y185.411 E.02356
G1 X74.442 Y184.901 E.02562
G1 X74.253 Y184.406 E.02324
G1 X74.135 Y183.89 E.02324
G1 X74.083 Y183.278 E.0269
G1 X74.083 Y36.727 E6.42715
G1 X74.121 Y36.232 E.02181
G1 X74.162 Y35.956 E.0122
G1 X74.253 Y35.594 E.0164
G1 X74.376 Y35.248 E.01608
G1 X74.616 Y34.767 E.02357
G1 X74.954 Y34.282 E.02594
G1 X75.364 Y33.856 E.02594
G1 X75.789 Y33.527 E.02356
G1 X76.299 Y33.242 E.02562
G1 X76.794 Y33.053 E.02324
G1 X77.299 Y32.938 E.02274
G1 X77.817 Y32.886 E.02281
G1 X142.177 Y32.886 E2.82258
G1 X142.854 Y32.964 E.02991
G1 X143.207 Y33.053 E.01592
G1 X143.559 Y33.179 E.0164
G1 X143.897 Y33.339 E.0164
G1 X144.218 Y33.531 E.01639
G1 X144.518 Y33.754 E.0164
G1 X144.795 Y34.005 E.0164
G1 X145.046 Y34.282 E.0164
G1 X145.269 Y34.582 E.0164
G1 X145.461 Y34.903 E.0164
G1 X145.621 Y35.242 E.01642
G1 X145.747 Y35.594 E.01639
G1 X145.838 Y35.956 E.0164
G1 X145.894 Y36.334 E.01676
G1 X145.914 Y36.607 E.01199
G1 X145.917 Y183.273 E6.43217
G1 X145.879 Y183.768 E.02181
G1 X145.838 Y184.043 E.01219
G1 X145.747 Y184.406 E.01642
G1 X145.621 Y184.759 E.0164
G1 X145.461 Y185.097 E.01641
G1 X145.269 Y185.418 E.0164
G1 X145.046 Y185.718 E.0164
G1 X144.795 Y185.995 E.01642
G1 X144.518 Y186.246 E.01639
G1 X144.218 Y186.469 E.01641
G1 X143.897 Y186.661 E.0164
G1 X143.565 Y186.818 E.01608
G1 X143.056 Y186.989 E.02357
G1 X142.47 Y187.094 E.0261
G1 X142.078 Y187.117 E.0172
G1 X139.893 Y187.118 E.09582
G1 X139.893 Y88.547 E4.32294
G1 E-.8 F3600
G1 X143.425 Y68.025 F18000
G1 E.8 F3600
;TYPE:Outer wall
G1 F2400
G1 X143.425 Y45.875 E.97141
G1 X76.575 Y45.875 E2.93178
G1 X76.575 Y68.025 E.97141
G1 X143.405 Y68.025 E2.9309
G1 X143.873 Y68.473 F18000
;TYPE:Inner wall
G1 F2400
