; HEADER_BLOCK_START
; generated by AnycubicSlicerNext 1.3.9.3 on 2026-03-11 at 14:22:47
; total layer number: 21
; filament_density: 1.24
; filament_diameter: 1.75
; max_z_height: 4.24
; exclude_object: 0
; model_instances: 1
; source_info: {"models":[{"file_source":0,"mo_file_id":-1,"name":"ContainerAdapterV1.stl_id_0_copy_0"}],"models_from":0,"plate_index":1,"slice_paras_process":1,"software_version":"AnycubicSlicerNext 1.3.9.3 20260131153104"}
; paint_info = [{"material_type":"PLA","paint_color":[105,164,255],"paint_index":0}]
; project_info = {"flush_multiplier":1.0,"flush_volumes_chan_multipliers":[1.0,1.0,1.0,1.0],"flush_volumes_matrix":[0.0],"flush_volumes_vector":[140.0,140.0]}
; flush_multiplier_calculate_by_acnext: 1
; test_mode: 0
; HEADER_BLOCK_END

; THUMBNAIL_BLOCK_START
; THUMBNAIL_BLOCK_END

; external perimeters extrusion width = 0.42mm
; perimeters extrusion width = 0.45mm
; infill extrusion width = 0.45mm
; solid infill extrusion width = 0.42mm
; top infill extrusion width = 0.42mm
; support material extrusion width = 0.40mm
; first layer extrusion width = 0.50mm

; EXECUTABLE_BLOCK_START
M201 X2000 Y2000 Z800 E2000
M203 X300 Y300 Z8 E100
M204 P2000 R2000 T2000
M205 X10.00 Y10.00 Z2.00 E5.00
;TYPE:Custom
G90 ; use absolute coordinates
M83 ; extruder relative mode
M104 S220 ; set extruder temp
M140 S60 ; set bed temp
M190 S60 ; wait for bed temp
M109 S220 ; wait for extruder temp
G28                                        ; move X/Y/Z to min endstops
G1 Z0.28                                   ; lift nozzle a bit 
G92 E0 
G1 Y3 F1800                                    ; zero the extruded length 
G1 X60  E25 F500                       ; Extrude 25mm of filament in a 5cm line. 
G92 E0                                     ; zero the extruded length again 
G1 E-2 F500                                ; Retract a little 
G1 X70 F4000                              ; Quickly wipe away from the filament line
M117
G90
G21
M83 ; use relative distances for extrusion
; EXECUTABLE_BLOCK_HEAD
; filament start gcode
M75 ; The first extruder is ready.
M106 S0
;LAYER_CHANGE
;Z:0.24
;HEIGHT:0.24
; BEFORE_LAYER_CHANGE 0 @ 0.24mm
G92 E0
; AFTER_LAYER_CHANGE 0 @ 0.24mm
M204 S500
G1 E-.8 F3600
G1 X68.576 Y79.957 F18000
G1 Z.24
G1 E.8 F3600
;TYPE:Skirt
;WIDTH:0.5
G1 F3000
G1 X156.428 Y79.957 E3.85287
G1 X158.318 Y80.74 E.08971
G1 X159.51 Y81.932 E.07391
G1 X160.293 Y83.822 E.08971
G1 X160.293 Y136.178 E2.29616
G1 X159.51 Y138.068 E.08971
G1 X158.318 Y139.26 E.07391
G1 X156.428 Y140.043 E.08971
G1 X63.572 Y140.043 E4.07233
G1 X61.682 Y139.26 E.08971
G1 X60.49 Y138.068 E.07391
G1 X59.707 Y136.178 E.08971
G1 X59.707 Y83.822 E2.29616
G1 X60.49 Y81.932 E.08971
G1 X61.682 Y80.74 E.07391
G1 X63.572 Y79.957 E.08971
G1 X68.536 Y79.957 E.21771
G1 X68.536 Y80.406 F18000
G1 F3000
G1 X156.428 Y80.406 E3.85462
G1 X158.001 Y81.057 E.07466
G1 X159.193 Y82.249 E.07391
G1 X159.844 Y83.822 E.07466
G1 X159.844 Y136.178 E2.29616
G1 X159.193 Y137.751 E.07466
G1 X158.001 Y138.943 E.07391
G1 X156.428 Y139.594 E.07466
G1 X63.572 Y139.594 E4.07233
G1 X61.999 Y138.943 E.07466
G1 X60.807 Y137.751 E.07391
G1 X60.156 Y136.178 E.07466
G1 X60.156 Y83.822 E2.29616
G1 X60.807 Y82.249 E.07466
G1 X61.999 Y81.057 E.07391
G1 X63.572 Y80.406 E.07466
G1 X68.496 Y80.406 E.21596
; printing object "ContainerAdapterV1.stl" id:0 copy 0
G1 E-.8 F3600
G1 X62.705 Y136.044 F18000
G1 E.8 F3600
;TYPE:Outer wall
G1 F2400
G1 X62.705 Y83.956 E2.28435
G1 X63.706 Y82.955 E.0621
G1 X156.294 Y82.955 E4.06052
G1 X156.542 Y83.204 E.01542
G1 X157.295 Y83.956 E.04667
G1 X157.295 Y136.044 E2.28435
G1 X156.294 Y137.045 E.0621
G1 X63.706 Y137.045 E4.06052
G1 X62.719 Y136.058 E.06122
G1 X63.153 Y135.858 F18000
;TYPE:Inner wall
G1 F2400
G1 X63.153 Y84.142 E2.26806
G1 X63.892 Y83.403 E.0458
G1 X156.108 Y83.403 E4.04423
G1 X156.225 Y83.521 E.00728
G1 X156.847 Y84.142 E.03853
G1 X156.847 Y135.858 E2.26806
G1 X156.108 Y136.597 E.0458
G1 X63.892 Y136.597 E4.04423
G1 X63.168 Y135.872 E.04493
G1 E-.8 F3600
G1 X155.766 Y83.538 F18000
G1 E.8 F3600
;TYPE:Bottom surface
;WIDTH:0.501484
G1 F3000
G1 X156.51 Y84.282 E.04632
G1 X156.51 Y84.919 E.028
G1 X155.331 Y83.74 E.07336
G1 X154.695 Y83.74 E.028
G1 X156.51 Y85.555 E.11296
G1 X156.51 Y86.192 E.028
G1 X154.058 Y83.74 E.15256
G1 X153.422 Y83.74 E.028
G1 X156.51 Y86.828 E.19216
G1 X156.51 Y87.464 E.028
G1 X152.786 Y83.74 E.23176
G1 X152.149 Y83.74 E.028
G1 X156.51 Y88.101 E.27136
G1 X156.51 Y88.737 E.028
G1 X151.513 Y83.74 E.31096
G1 X150.877 Y83.74 E.028
G1 X156.51 Y89.373 E.35056
G1 X156.51 Y90.01 E.028
G1 X150.24 Y83.74 E.39016
G1 X149.604 Y83.74 E.028
G1 X156.51 Y90.646 E.42976
G1 X156.51 Y91.283 E.028
G1 X148.967 Y83.74 E.46936
G1 X148.331 Y83.74 E.028
G1 X156.51 Y91.919 E.50896
G1 X156.51 Y92.555 E.028
G1 X147.695 Y83.74 E.54856
G1 X147.058 Y83.74 E.028
G1 X156.51 Y93.192 E.58815
G1 X156.51 Y93.828 E.028
G1 X146.422 Y83.74 E.62775
G1 X145.786 Y83.74 E.028
G1 X156.51 Y94.464 E.66735
G1 X156.51 Y95.101 E.028
G1 X145.149 Y83.74 E.70695
G1 X144.513 Y83.74 E.028
G1 X156.51 Y95.737 E.74655
G1 X156.51 Y96.373 E.028
G1 X143.877 Y83.74 E.78615
G1 X143.24 Y83.74 E.028
G1 X156.51 Y97.01 E.82575
G1 X156.51 Y97.646 E.028
G1 X142.604 Y83.74 E.86535
G1 X141.967 Y83.74 E.028
G1 X156.51 Y98.283 E.90495
G1 X156.51 Y98.919 E.028
G1 X141.331 Y83.74 E.94455
G1 X140.695 Y83.74 E.028
G1 X156.51 Y99.555 E.98415
G1 X156.51 Y100.192 E.028
G1 X140.058 Y83.74 E1.02375
G1 X139.422 Y83.74 E.028
G1 X156.51 Y100.828 E1.06335
G1 X156.51 Y101.464 E.028
G1 X138.786 Y83.74 E1.10295
G1 X138.149 Y83.74 E.028
G1 X156.51 Y102.101 E1.14255
G1 X156.51 Y102.737 E.028
G1 X137.513 Y83.74 E1.18214
G1 X136.877 Y83.74 E.028
G1 X156.51 Y103.373 E1.22174
G1 X156.51 Y104.01 E.028
G1 X136.24 Y83.74 E1.26134
G1 X135.604 Y83.74 E.028
G1 X156.51 Y104.646 E1.30094
G1 X156.51 Y105.283 E.028
G1 X134.967 Y83.74 E1.34054
G1 X134.331 Y83.74 E.028
G1 X156.51 Y105.919 E1.38014
G1 X156.51 Y106.555 E.028
G1 X133.695 Y83.74 E1.41974
G1 X133.058 Y83.74 E.028
G1 X156.51 Y107.192 E1.45934
G1 X156.51 Y107.828 E.028
G1 X132.422 Y83.74 E1.49894
G1 X131.786 Y83.74 E.028
G1 X156.51 Y108.464 E1.53854
G1 X156.51 Y109.101 E.028
G1 X131.149 Y83.74 E1.57814
G1 X130.513 Y83.74 E.028
G1 X156.51 Y109.737 E1.61774
G1 X156.51 Y110.374 E.028
G1 X129.876 Y83.74 E1.65734
G1 X129.24 Y83.74 E.028
G1 X156.51 Y111.01 E1.69694
G1 X156.51 Y111.646 E.028
G1 X128.604 Y83.74 E1.73653
G1 X127.967 Y83.74 E.028
G1 X156.51 Y112.283 E1.77613
G1 X156.51 Y112.919 E.028
G1 X127.331 Y83.74 E1.81573
G1 X126.695 Y83.74 E.028
G1 X156.51 Y113.555 E1.85533
G1 X156.51 Y114.192 E.028
G1 X126.058 Y83.74 E1.89493
G1 X125.422 Y83.74 E.028
G1 X156.51 Y114.828 E1.93453
G1 X156.51 Y115.464 E.028
G1 X124.786 Y83.74 E1.97413
G1 X124.149 Y83.74 E.028
G1 X156.51 Y116.101 E2.01373
G1 X156.51 Y116.737 E.028
G1 X123.513 Y83.74 E2.05333
G1 X122.876 Y83.74 E.028
G1 X156.51 Y117.374 E2.09293
G1 X156.51 Y118.01 E.028
G1 X122.24 Y83.74 E2.13253
G1 X121.604 Y83.74 E.028
G1 X156.51 Y118.646 E2.17213
G1 X156.51 Y119.283 E.028
G1 X120.967 Y83.74 E2.21173
G1 X120.331 Y83.74 E.028
G1 X156.51 Y119.919 E2.25133
G1 X156.51 Y120.555 E.028
G1 X119.695 Y83.74 E2.29093
G1 X119.058 Y83.74 E.028
G1 X156.51 Y121.192 E2.33052
G1 X156.51 Y121.828 E.028
G1 X118.422 Y83.74 E2.37012
G1 X117.785 Y83.74 E.028
G1 X156.51 Y122.465 E2.40972
G1 X156.51 Y123.101 E.028
G1 X117.149 Y83.74 E2.44932
G1 X116.513 Y83.74 E.028
G1 X156.51 Y123.737 E2.48892
G1 X156.51 Y124.374 E.028
G1 X115.876 Y83.74 E2.52852
G1 X115.24 Y83.74 E.028
G1 X156.51 Y125.01 E2.56812
G1 X156.51 Y125.646 E.028
G1 X114.604 Y83.74 E2.60772
G1 X113.967 Y83.74 E.028
G1 X156.51 Y126.283 E2.64732
G1 X156.51 Y126.919 E.028
G1 X113.331 Y83.74 E2.68692
G1 X112.695 Y83.74 E.028
G1 X156.51 Y127.555 E2.72652
G1 X156.51 Y128.192 E.028
G1 X112.058 Y83.74 E2.76612
G1 X111.422 Y83.74 E.028
G1 X156.51 Y128.828 E2.80572
G1 X156.51 Y129.465 E.028
G1 X110.785 Y83.74 E2.84532
G1 X110.149 Y83.74 E.028
G1 X156.51 Y130.101 E2.88492
G1 X156.51 Y130.737 E.028
G1 X109.513 Y83.74 E2.92451
G1 X108.876 Y83.74 E.028
G1 X156.51 Y131.374 E2.96411
G1 X156.51 Y132.01 E.028
G1 X108.24 Y83.74 E3.00371
G1 X107.604 Y83.74 E.028
G1 X156.51 Y132.646 E3.04331
G1 X156.51 Y133.283 E.028
G1 X106.967 Y83.74 E3.08291
G1 X106.331 Y83.74 E.028
G1 X156.51 Y133.919 E3.12251
G1 X156.51 Y134.556 E.028
G1 X105.694 Y83.74 E3.16211
G1 X105.058 Y83.74 E.028
G1 X156.51 Y135.192 E3.20171
G1 X156.51 Y135.719 E.02318
G1 X156.455 Y135.773 E.00341
G1 X104.422 Y83.74 E3.2379
G1 X103.785 Y83.74 E.028
G1 X156.137 Y136.092 E3.2577
G1 X155.969 Y136.26 E.01048
G1 X155.669 Y136.26 E.01317
G1 X103.149 Y83.74 E3.26818
G1 X102.513 Y83.74 E.028
G1 X155.033 Y136.26 E3.26818
G1 X154.397 Y136.26 E.028
G1 X101.876 Y83.74 E3.26818
G1 X101.24 Y83.74 E.028
G1 X153.76 Y136.26 E3.26818
G1 X153.124 Y136.26 E.028
G1 X100.604 Y83.74 E3.26818
G1 X99.967 Y83.74 E.028
G1 X152.487 Y136.26 E3.26818
G1 X151.851 Y136.26 E.028
G1 X99.331 Y83.74 E3.26818
G1 X98.694 Y83.74 E.028
G1 X151.215 Y136.26 E3.26818
G1 X150.578 Y136.26 E.028
G1 X98.058 Y83.74 E3.26818
G1 X97.422 Y83.74 E.028
G1 X149.942 Y136.26 E3.26818
G1 X149.306 Y136.26 E.028
G1 X96.785 Y83.74 E3.26818
G1 X96.149 Y83.74 E.028
G1 X148.669 Y136.26 E3.26818
G1 X148.033 Y136.26 E.028
G1 X95.513 Y83.74 E3.26818
G1 X94.876 Y83.74 E.028
G1 X147.397 Y136.26 E3.26818
G1 X146.76 Y136.26 E.028
G1 X94.24 Y83.74 E3.26818
G1 X93.603 Y83.74 E.028
G1 X146.124 Y136.26 E3.26818
G1 X145.487 Y136.26 E.028
G1 X92.967 Y83.74 E3.26818
G1 X92.331 Y83.74 E.028
G1 X144.851 Y136.26 E3.26818
G1 X144.215 Y136.26 E.028
G1 X91.694 Y83.74 E3.26818
G1 X91.058 Y83.74 E.028
G1 X143.578 Y136.26 E3.26818
G1 X142.942 Y136.26 E.028
G1 X90.422 Y83.74 E3.26818
G1 X89.785 Y83.74 E.028
G1 X142.306 Y136.26 E3.26818
G1 X141.669 Y136.26 E.028
G1 X89.149 Y83.74 E3.26818
G1 X88.513 Y83.74 E.028
G1 X141.033 Y136.26 E3.26818
G1 X140.396 Y136.26 E.028
G1 X87.876 Y83.74 E3.26818
G1 X87.24 Y83.74 E.028
G1 X139.76 Y136.26 E3.26818
G1 X139.124 Y136.26 E.028
G1 X86.603 Y83.74 E3.26818
G1 X85.967 Y83.74 E.028
G1 X138.487 Y136.26 E3.26818
G1 X137.851 Y136.26 E.028
G1 X85.331 Y83.74 E3.26818
G1 X84.694 Y83.74 E.028
G1 X137.215 Y136.26 E3.26818
G1 X136.578 Y136.26 E.028
G1 X84.058 Y83.74 E3.26818
G1 X83.422 Y83.74 E.028
G1 X135.942 Y136.26 E3.26818
G1 X135.306 Y136.26 E.028
G1 X82.785 Y83.74 E3.26818
G1 X82.149 Y83.74 E.028
G1 X134.669 Y136.26 E3.26818
G1 X134.033 Y136.26 E.028
G1 X81.513 Y83.74 E3.26818
G1 X80.876 Y83.74 E.028
G1 X133.396 Y136.26 E3.26818
G1 X132.76 Y136.26 E.028
G1 X80.24 Y83.74 E3.26818
G1 X79.603 Y83.74 E.028
G1 X132.124 Y136.26 E3.26818
G1 X131.487 Y136.26 E.028
G1 X78.967 Y83.74 E3.26818
G1 X78.331 Y83.74 E.028
G1 X130.851 Y136.26 E3.26818
G1 X130.215 Y136.26 E.028
G1 X77.694 Y83.74 E3.26818
G1 X77.058 Y83.74 E.028
G1 X129.578 Y136.26 E3.26818
G1 X128.942 Y136.26 E.028
G1 X76.422 Y83.74 E3.26818
G1 X75.785 Y83.74 E.028
G1 X128.305 Y136.26 E3.26818
G1 X127.669 Y136.26 E.028
G1 X75.149 Y83.74 E3.26818
G1 X74.512 Y83.74 E.028
G1 X127.033 Y136.26 E3.26818
G1 X126.396 Y136.26 E.028
G1 X73.876 Y83.74 E3.26818
G1 X73.24 Y83.74 E.028
G1 X125.76 Y136.26 E3.26818
G1 X125.124 Y136.26 E.028
G1 X72.603 Y83.74 E3.26818
G1 X71.967 Y83.74 E.028
G1 X124.487 Y136.26 E3.26818
G1 X123.851 Y136.26 E.028
G1 X71.331 Y83.74 E3.26818
G1 X70.694 Y83.74 E.028
G1 X123.215 Y136.26 E3.26818
G1 X122.578 Y136.26 E.028
G1 X70.058 Y83.74 E3.26818
G1 X69.422 Y83.74 E.028
G1 X121.942 Y136.26 E3.26818
G1 X121.305 Y136.26 E.028
G1 X68.785 Y83.74 E3.26818
G1 X68.149 Y83.74 E.028
G1 X120.669 Y136.26 E3.26818
G1 X120.033 Y136.26 E.028
G1 X67.512 Y83.74 E3.26818
G1 X66.876 Y83.74 E.028
G1 X119.396 Y136.26 E3.26818
G1 X118.76 Y136.26 E.028
G1 X66.24 Y83.74 E3.26818
G1 X65.603 Y83.74 E.028
G1 X118.124 Y136.26 E3.26818
G1 X117.487 Y136.26 E.028
G1 X64.967 Y83.74 E3.26818
G1 X64.331 Y83.74 E.028
G1 X116.851 Y136.26 E3.26818
G1 X116.214 Y136.26 E.028
G1 X63.863 Y83.908 E3.25769
G1 X63.545 Y84.227 E.0198
G1 X115.578 Y136.26 E3.23789
G1 X114.942 Y136.26 E.028
G1 X63.49 Y84.808 E3.2017
G1 X63.49 Y85.445 E.028
G1 X114.305 Y136.26 E3.1621
G1 X113.669 Y136.26 E.028
G1 X63.49 Y86.081 E3.1225
G1 X63.49 Y86.717 E.028
G1 X113.033 Y136.26 E3.0829
G1 X112.396 Y136.26 E.028
G1 X63.49 Y87.354 E3.0433
G1 X63.49 Y87.99 E.028
G1 X111.76 Y136.26 E3.0037
G1 X111.124 Y136.26 E.028
G1 X63.49 Y88.626 E2.9641
G1 X63.49 Y89.263 E.028
G1 X110.487 Y136.26 E2.92451
G1 X109.851 Y136.26 E.028
G1 X63.49 Y89.899 E2.88491
G1 X63.49 Y90.536 E.028
G1 X109.214 Y136.26 E2.84531
G1 X108.578 Y136.26 E.028
G1 X63.49 Y91.172 E2.80571
G1 X63.49 Y91.808 E.028
G1 X107.942 Y136.26 E2.76611
G1 X107.305 Y136.26 E.028
G1 X63.49 Y92.445 E2.72651
G1 X63.49 Y93.081 E.028
G1 X106.669 Y136.26 E2.68691
G1 X106.033 Y136.26 E.028
G1 X63.49 Y93.717 E2.64731
G1 X63.49 Y94.354 E.028
G1 X105.396 Y136.26 E2.60771
G1 X104.76 Y136.26 E.028
G1 X63.49 Y94.99 E2.56811
G1 X63.49 Y95.627 E.028
G1 X104.123 Y136.26 E2.52851
G1 X103.487 Y136.26 E.028
G1 X63.49 Y96.263 E2.48891
G1 X63.49 Y96.899 E.028
G1 X102.851 Y136.26 E2.44931
G1 X102.214 Y136.26 E.028
G1 X63.49 Y97.536 E2.40971
G1 X63.49 Y98.172 E.028
G1 X101.578 Y136.26 E2.37012
G1 X100.942 Y136.26 E.028
G1 X63.49 Y98.808 E2.33052
G1 X63.49 Y99.445 E.028
G1 X100.305 Y136.26 E2.29092
G1 X99.669 Y136.26 E.028
G1 X63.49 Y100.081 E2.25132
G1 X63.49 Y100.717 E.028
G1 X99.033 Y136.26 E2.21172
G1 X98.396 Y136.26 E.028
G1 X63.49 Y101.354 E2.17212
G1 X63.49 Y101.99 E.028
G1 X97.76 Y136.26 E2.13252
G1 X97.123 Y136.26 E.028
G1 X63.49 Y102.627 E2.09292
G1 X63.49 Y103.263 E.028
G1 X96.487 Y136.26 E2.05332
G1 X95.851 Y136.26 E.028
G1 X63.49 Y103.899 E2.01372
G1 X63.49 Y104.536 E.028
G1 X95.214 Y136.26 E1.97412
G1 X94.578 Y136.26 E.028
G1 X63.49 Y105.172 E1.93452
G1 X63.49 Y105.808 E.028
G1 X93.942 Y136.26 E1.89492
G1 X93.305 Y136.26 E.028
G1 X63.49 Y106.445 E1.85532
G1 X63.49 Y107.081 E.028
G1 X92.669 Y136.26 E1.81572
G1 X92.033 Y136.26 E.028
G1 X63.49 Y107.717 E1.77613
G1 X63.49 Y108.354 E.028
G1 X91.396 Y136.26 E1.73653
G1 X90.76 Y136.26 E.028
G1 X63.49 Y108.99 E1.69693
G1 X63.49 Y109.627 E.028
G1 X90.123 Y136.26 E1.65733
G1 X89.487 Y136.26 E.028
G1 X63.49 Y110.263 E1.61773
G1 X63.49 Y110.899 E.028
G1 X88.851 Y136.26 E1.57813
G1 X88.214 Y136.26 E.028
G1 X63.49 Y111.536 E1.53853
G1 X63.49 Y112.172 E.028
G1 X87.578 Y136.26 E1.49893
G1 X86.942 Y136.26 E.028
G1 X63.49 Y112.808 E1.45933
G1 X63.49 Y113.445 E.028
G1 X86.305 Y136.26 E1.41973
G1 X85.669 Y136.26 E.028
G1 X63.49 Y114.081 E1.38013
G1 X63.49 Y114.718 E.028
G1 X85.032 Y136.26 E1.34053
G1 X84.396 Y136.26 E.028
G1 X63.49 Y115.354 E1.30093
G1 X63.49 Y115.99 E.028
G1 X83.76 Y136.26 E1.26133
G1 X83.123 Y136.26 E.028
G1 X63.49 Y116.627 E1.22173
G1 X63.49 Y117.263 E.028
G1 X82.487 Y136.26 E1.18214
G1 X81.851 Y136.26 E.028
G1 X63.49 Y117.899 E1.14254
G1 X63.49 Y118.536 E.028
G1 X81.214 Y136.26 E1.10294
G1 X80.578 Y136.26 E.028
G1 X63.49 Y119.172 E1.06334
G1 X63.49 Y119.808 E.028
G1 X79.942 Y136.26 E1.02374
G1 X79.305 Y136.26 E.028
G1 X63.49 Y120.445 E.98414
G1 X63.49 Y121.081 E.028
G1 X78.669 Y136.26 E.94454
G1 X78.032 Y136.26 E.028
G1 X63.49 Y121.718 E.90494
G1 X63.49 Y122.354 E.028
G1 X77.396 Y136.26 E.86534
G1 X76.76 Y136.26 E.028
G1 X63.49 Y122.99 E.82574
G1 X63.49 Y123.627 E.028
G1 X76.123 Y136.26 E.78614
G1 X75.487 Y136.26 E.028
G1 X63.49 Y124.263 E.74654
G1 X63.49 Y124.899 E.028
G1 X74.851 Y136.26 E.70694
G1 X74.214 Y136.26 E.028
G1 X63.49 Y125.536 E.66734
G1 X63.49 Y126.172 E.028
G1 X73.578 Y136.26 E.62775
G1 X72.941 Y136.26 E.028
G1 X63.49 Y126.809 E.58815
G1 X63.49 Y127.445 E.028
G1 X72.305 Y136.26 E.54855
G1 X71.669 Y136.26 E.028
G1 X63.49 Y128.081 E.50895
G1 X63.49 Y128.718 E.028
G1 X71.032 Y136.26 E.46935
G1 X70.396 Y136.26 E.028
G1 X63.49 Y129.354 E.42975
G1 X63.49 Y129.99 E.028
G1 X69.76 Y136.26 E.39015
G1 X69.123 Y136.26 E.028
G1 X63.49 Y130.627 E.35055
G1 X63.49 Y131.263 E.028
G1 X68.487 Y136.26 E.31095
G1 X67.851 Y136.26 E.028
G1 X63.49 Y131.899 E.27135
G1 X63.49 Y132.536 E.028
G1 X67.214 Y136.26 E.23175
G1 X66.578 Y136.26 E.028
G1 X63.49 Y133.172 E.19215
G1 X63.49 Y133.809 E.028
