; HEADER_BLOCK_START
; generated by AnycubicSlicerNext 1.3.9.3 on 2026-03-11 at 18:19:52
; total layer number: 22
; filament_density: 1.24
; filament_diameter: 1.75
; max_z_height: 4.44
; exclude_object: 0
; model_instances: 1
; source_info: {"models":[{"file_source":0,"mo_file_id":-1,"name":"ContainerAdapterV2.stl_id_0_copy_0"}],"models_from":0,"plate_index":1,"slice_paras_process":1,"software_version":"AnycubicSlicerNext 1.3.9.3 20260131153104"}
; paint_info = [{"material_type":"PLA","paint_color":[105,164,255],"paint_index":0}]
; project_info = {"flush_multiplier":1.0,"flush_volumes_chan_multipliers":[1.0,1.0,1.0,1.0],"flush_volumes_matrix":[0.0],"flush_volumes_vector":[140.0,140.0]}
; flush_multiplier_calculate_by_acnext: 1
; test_mode: 0
; HEADER_BLOCK_END

; THUMBNAIL_BLOCK_START
; THUMBNAIL_BLOCK_END

; external perimeters extrusion width = 0.42mm
; perimeters extrusion width = 0.45mm
; infill extrusion width = 0.45mm
; solid infill extrusion width = 0.42mm
; top infill extrusion width = 0.42mm
; support material extrusion width = 0.40mm
; first layer extrusion width = 0.50mm

; EXECUTABLE_BLOCK_START
M201 X2000 Y2000 Z800 E2000
M203 X300 Y300 Z8 E100
M204 P2000 R2000 T2000
M205 X10.00 Y10.00 Z2.00 E5.00
;TYPE:Custom
G90 ; use absolute coordinates
M83 ; extruder relative mode
M104 S220 ; set extruder temp
M140 S60 ; set bed temp
M190 S60 ; wait for bed temp
M109 S220 ; wait for extruder temp
G28                                        ; move X/Y/Z to min endstops
G1 Z0.28                                   ; lift nozzle a bit 
G92 E0 
G1 Y3 F1800                                    ; zero the extruded length 
G1 X60  E25 F500                       ; Extrude 25mm of filament in a 5cm line. 
G92 E0                                     ; zero the extruded length again 
G1 E-2 F500                                ; Retract a little 
G1 X70 F4000                              ; Quickly wipe away from the filament line
M117
G90
G21
M83 ; use relative distances for extrusion
; EXECUTABLE_BLOCK_HEAD
; filament start gcode
M75 ; The first extruder is ready.
M106 S0
;LAYER_CHANGE
;Z:0.24
;HEIGHT:0.24
; BEFORE_LAYER_CHANGE 0 @ 0.24mm
G92 E0
; AFTER_LAYER_CHANGE 0 @ 0.24mm
M204 S500
G1 E-.8 F3600
G1 X78.229 Y69.537 F18000
G1 Z.24
G1 E.8 F3600
;TYPE:Skirt
;WIDTH:0.5
G1 F3000
G1 X78.229 Y63.812 E.25107
G1 X78.622 Y62.418 E.06353
G1 X79.684 Y61.433 E.06353
G1 X80.902 Y61.139 E.05495
G1 X139.05 Y61.139 E2.55014
G1 X140.444 Y61.532 E.06353
G1 X141.429 Y62.594 E.06353
G1 X141.723 Y63.812 E.05495
G1 X141.723 Y159.811 E4.21015
G1 X141.33 Y161.206 E.06353
G1 X140.508 Y162.052 E.05175
G1 X138.997 Y162.521 E.06939
G1 X81.004 Y162.521 E2.54334
G1 X79.495 Y162.054 E.06928
G1 X78.464 Y160.873 E.06874
G1 X78.229 Y159.778 E.0491
G1 X78.229 Y69.577 E3.95588
G1 X78.678 Y69.577 F18000
G1 F3000
G1 X78.678 Y63.812 E.25283
G1 X79.069 Y62.553 E.05784
G1 X80.104 Y61.736 E.05784
G1 X80.902 Y61.588 E.03558
G1 X139.05 Y61.588 E2.55014
G1 X140.31 Y61.979 E.05784
G1 X141.126 Y63.014 E.05784
G1 X141.274 Y63.812 E.03558
G1 X141.274 Y159.811 E4.21015
G1 X140.883 Y161.071 E.05784
G1 X140.255 Y161.682 E.03846
G1 X138.997 Y162.072 E.05775
G1 X81.004 Y162.072 E2.54334
G1 X79.748 Y161.684 E.05765
G1 X78.827 Y160.58 E.06302
G1 X78.678 Y159.778 E.03577
G1 X78.678 Y69.617 E3.95412
; printing object "ContainerAdapterV2.stl" id:0 copy 0
G1 E-.8 F3600
G1 X138.725 Y64.137 F18000
G1 E.8 F3600
;TYPE:Outer wall
G1 F2400
G1 X138.725 Y159.522 E4.1832
G1 X81.227 Y159.523 E2.52163
G1 X81.227 Y64.137 E4.18325
G1 X138.705 Y64.137 E2.52076
G1 X138.277 Y64.586 F18000
;TYPE:Inner wall
G1 F2400
G1 X138.277 Y159.073 E4.14386
G1 X81.675 Y159.074 E2.4823
G1 X81.675 Y64.586 E4.14391
G1 X138.257 Y64.586 E2.48142
G1 E-.8 F3600
G1 X138.142 Y65.629 F18000
G1 E.8 F3600
;TYPE:Bottom surface
;WIDTH:0.500953
G1 F3000
G1 X137.435 Y64.922 E.04393
G1 X136.8 Y64.922 E.02793
G1 X137.94 Y66.063 E.07089
G1 X137.94 Y66.698 E.02793
G1 X136.164 Y64.922 E.1104
G1 X135.528 Y64.922 E.02793
G1 X137.94 Y67.334 E.14991
G1 X137.94 Y67.969 E.02793
G1 X134.893 Y64.922 E.18941
G1 X134.257 Y64.922 E.02793
G1 X137.94 Y68.605 E.22892
G1 X137.94 Y69.241 E.02793
G1 X133.621 Y64.922 E.26842
G1 X132.986 Y64.922 E.02793
G1 X137.94 Y69.876 E.30793
G1 X137.94 Y70.512 E.02793
G1 X132.35 Y64.922 E.34744
G1 X131.715 Y64.922 E.02793
G1 X137.94 Y71.148 E.38694
G1 X137.94 Y71.783 E.02793
G1 X131.079 Y64.922 E.42645
G1 X130.443 Y64.922 E.02793
G1 X137.94 Y72.419 E.46595
G1 X137.94 Y73.054 E.02793
G1 X129.808 Y64.922 E.50546
G1 X129.172 Y64.922 E.02793
G1 X137.94 Y73.69 E.54496
G1 X137.94 Y74.326 E.02793
G1 X128.536 Y64.922 E.58447
G1 X127.901 Y64.922 E.02793
G1 X137.94 Y74.961 E.62398
G1 X137.94 Y75.597 E.02793
G1 X127.265 Y64.922 E.66348
G1 X126.63 Y64.922 E.02793
G1 X137.94 Y76.232 E.70299
G1 X137.94 Y76.868 E.02793
G1 X125.994 Y64.922 E.74249
G1 X125.358 Y64.922 E.02793
G1 X137.94 Y77.504 E.782
G1 X137.94 Y78.139 E.02793
G1 X124.723 Y64.922 E.82151
G1 X124.087 Y64.922 E.02793
G1 X137.94 Y78.775 E.86101
G1 X137.94 Y79.411 E.02793
G1 X123.452 Y64.922 E.90052
G1 X122.816 Y64.922 E.02793
G1 X137.94 Y80.046 E.94002
G1 X137.94 Y80.682 E.02793
G1 X122.18 Y64.922 E.97953
G1 X121.545 Y64.922 E.02793
G1 X137.94 Y81.317 E1.01904
G1 X137.94 Y81.953 E.02793
G1 X120.909 Y64.922 E1.05854
G1 X120.273 Y64.922 E.02793
G1 X137.94 Y82.589 E1.09805
G1 X137.94 Y83.224 E.02793
G1 X119.638 Y64.922 E1.13755
G1 X119.002 Y64.922 E.02793
G1 X137.94 Y83.86 E1.17706
G1 X137.94 Y84.495 E.02793
G1 X118.367 Y64.922 E1.21657
G1 X117.731 Y64.922 E.02793
G1 X137.94 Y85.131 E1.25607
G1 X137.94 Y85.767 E.02793
G1 X117.095 Y64.922 E1.29558
G1 X116.46 Y64.922 E.02793
G1 X137.94 Y86.402 E1.33508
G1 X137.94 Y87.038 E.02793
G1 X115.824 Y64.922 E1.37459
G1 X115.189 Y64.922 E.02793
G1 X137.94 Y87.674 E1.41409
G1 X137.94 Y88.309 E.02793
G1 X114.553 Y64.922 E1.4536
G1 X113.917 Y64.922 E.02793
G1 X137.94 Y88.945 E1.49311
G1 X137.94 Y89.58 E.02793
G1 X113.282 Y64.922 E1.53261
G1 X112.646 Y64.922 E.02793
G1 X137.94 Y90.216 E1.57212
G1 X137.94 Y90.852 E.02793
G1 X112.01 Y64.922 E1.61162
G1 X111.375 Y64.922 E.02793
G1 X137.94 Y91.487 E1.65113
G1 X137.94 Y92.123 E.02793
G1 X110.739 Y64.922 E1.69064
G1 X110.104 Y64.922 E.02793
G1 X137.94 Y92.759 E1.73014
G1 X137.94 Y93.394 E.02793
G1 X109.468 Y64.922 E1.76965
G1 X108.832 Y64.922 E.02793
G1 X137.94 Y94.03 E1.80915
G1 X137.94 Y94.665 E.02793
G1 X108.197 Y64.922 E1.84866
G1 X107.561 Y64.922 E.02793
G1 X137.94 Y95.301 E1.88817
G1 X137.94 Y95.937 E.02793
G1 X106.926 Y64.922 E1.92767
G1 X106.29 Y64.922 E.02793
G1 X137.94 Y96.572 E1.96718
G1 X137.94 Y97.208 E.02793
G1 X105.654 Y64.922 E2.00668
G1 X105.019 Y64.922 E.02793
G1 X137.94 Y97.843 E2.04619
G1 X137.94 Y98.479 E.02793
G1 X104.383 Y64.922 E2.0857
G1 X103.747 Y64.922 E.02793
G1 X137.94 Y99.115 E2.1252
G1 X137.94 Y99.75 E.02793
G1 X103.112 Y64.922 E2.16471
G1 X102.476 Y64.922 E.02793
G1 X137.94 Y100.386 E2.20421
G1 X137.94 Y101.022 E.02793
G1 X101.841 Y64.922 E2.24372
G1 X101.205 Y64.922 E.02793
G1 X137.94 Y101.657 E2.28322
G1 X137.94 Y102.293 E.02793
G1 X100.569 Y64.922 E2.32273
G1 X99.934 Y64.922 E.02793
G1 X137.94 Y102.928 E2.36224
G1 X137.94 Y103.564 E.02793
G1 X99.298 Y64.922 E2.40174
G1 X98.663 Y64.922 E.02793
G1 X137.94 Y104.2 E2.44125
G1 X137.94 Y104.835 E.02793
G1 X98.027 Y64.922 E2.48075
G1 X97.391 Y64.922 E.02793
G1 X137.94 Y105.471 E2.52026
G1 X137.94 Y106.106 E.02793
G1 X96.756 Y64.922 E2.55977
G1 X96.12 Y64.922 E.02793
G1 X137.94 Y106.742 E2.59927
G1 X137.94 Y107.378 E.02793
G1 X95.484 Y64.922 E2.63878
G1 X94.849 Y64.922 E.02793
G1 X137.94 Y108.013 E2.67828
G1 X137.94 Y108.649 E.02793
G1 X94.213 Y64.922 E2.71779
G1 X93.578 Y64.922 E.02793
G1 X137.94 Y109.285 E2.7573
G1 X137.94 Y109.92 E.02793
G1 X92.942 Y64.922 E2.7968
G1 X92.306 Y64.922 E.02793
G1 X137.94 Y110.556 E2.83631
G1 X137.94 Y111.191 E.02793
G1 X91.671 Y64.922 E2.87581
G1 X91.035 Y64.922 E.02793
G1 X137.94 Y111.827 E2.91532
G1 X137.94 Y112.463 E.02793
G1 X90.399 Y64.922 E2.95483
G1 X89.764 Y64.922 E.02793
G1 X137.94 Y113.098 E2.99433
G1 X137.94 Y113.734 E.02793
G1 X89.128 Y64.922 E3.03384
G1 X88.493 Y64.922 E.02793
G1 X137.94 Y114.369 E3.07334
G1 X137.94 Y115.005 E.02793
G1 X87.857 Y64.922 E3.11285
G1 X87.221 Y64.922 E.02793
G1 X137.94 Y115.641 E3.15236
G1 X137.94 Y116.276 E.02793
G1 X86.586 Y64.922 E3.19186
G1 X85.95 Y64.922 E.02793
G1 X137.94 Y116.912 E3.23137
G1 X137.94 Y117.548 E.02793
G1 X85.315 Y64.922 E3.27087
G1 X84.679 Y64.922 E.02793
G1 X137.94 Y118.183 E3.31038
G1 X137.94 Y118.819 E.02793
G1 X84.043 Y64.922 E3.34988
G1 X83.408 Y64.922 E.02793
G1 X137.94 Y119.454 E3.38939
G1 X137.94 Y120.09 E.02793
G1 X82.772 Y64.922 E3.4289
G1 X82.136 Y64.922 E.02793
G1 X137.94 Y120.726 E3.4684
G1 X137.94 Y121.361 E.02793
G1 X82.012 Y65.433 E3.47615
G1 X82.012 Y66.069 E.02793
G1 X137.94 Y121.997 E3.47615
G1 X137.94 Y122.633 E.02793
G1 X82.012 Y66.704 E3.47615
G1 X82.012 Y67.34 E.02793
G1 X137.94 Y123.268 E3.47615
G1 X137.94 Y123.904 E.02793
G1 X82.012 Y67.975 E3.47615
G1 X82.012 Y68.611 E.02793
G1 X137.94 Y124.539 E3.47615
G1 X137.94 Y125.175 E.02793
G1 X82.012 Y69.247 E3.47615
G1 X82.012 Y69.882 E.02793
G1 X137.94 Y125.811 E3.47615
G1 X137.94 Y126.446 E.02793
G1 X82.012 Y70.518 E3.47615
G1 X82.012 Y71.154 E.02793
G1 X137.94 Y127.082 E3.47615
G1 X137.94 Y127.717 E.02793
G1 X82.012 Y71.789 E3.47615
G1 X82.012 Y72.425 E.02793
G1 X137.94 Y128.353 E3.47615
G1 X137.94 Y128.989 E.02793
G1 X82.012 Y73.06 E3.47615
G1 X82.012 Y73.696 E.02793
G1 X137.94 Y129.624 E3.47615
G1 X137.94 Y130.26 E.02793
G1 X82.012 Y74.332 E3.47615
G1 X82.012 Y74.967 E.02793
G1 X137.94 Y130.896 E3.47615
G1 X137.94 Y131.531 E.02793
G1 X82.012 Y75.603 E3.47615
G1 X82.012 Y76.238 E.02793
G1 X137.94 Y132.167 E3.47615
G1 X137.94 Y132.802 E.02793
G1 X82.012 Y76.874 E3.47615
G1 X82.012 Y77.51 E.02793
G1 X137.94 Y133.438 E3.47615
G1 X137.94 Y134.074 E.02793
G1 X82.012 Y78.145 E3.47615
G1 X82.012 Y78.781 E.02793
G1 X137.94 Y134.709 E3.47615
G1 X137.94 Y135.345 E.02793
G1 X82.012 Y79.417 E3.47615
G1 X82.012 Y80.052 E.02793
G1 X137.94 Y135.98 E3.47615
G1 X137.94 Y136.616 E.02793
G1 X82.012 Y80.688 E3.47615
G1 X82.012 Y81.323 E.02793
G1 X137.94 Y137.252 E3.47615
G1 X137.94 Y137.887 E.02793
G1 X82.012 Y81.959 E3.47615
G1 X82.012 Y82.595 E.02793
G1 X137.94 Y138.523 E3.47615
G1 X137.94 Y139.159 E.02793
G1 X82.012 Y83.23 E3.47615
G1 X82.012 Y83.866 E.02793
G1 X137.94 Y139.794 E3.47615
G1 X137.94 Y140.43 E.02793
G1 X82.012 Y84.501 E3.47615
G1 X82.012 Y85.137 E.02793
G1 X137.94 Y141.065 E3.47615
G1 X137.94 Y141.701 E.02793
G1 X82.012 Y85.773 E3.47615
G1 X82.012 Y86.408 E.02793
G1 X137.94 Y142.337 E3.47615
G1 X137.94 Y142.972 E.02793
G1 X82.012 Y87.044 E3.47615
G1 X82.012 Y87.68 E.02793
G1 X137.94 Y143.608 E3.47615
G1 X137.94 Y144.243 E.02793
G1 X82.012 Y88.315 E3.47615
G1 X82.012 Y88.951 E.02793
G1 X137.94 Y144.879 E3.47615
G1 X137.94 Y145.515 E.02793
G1 X82.012 Y89.586 E3.47615
G1 X82.012 Y90.222 E.02793
G1 X137.94 Y146.15 E3.47615
G1 X137.94 Y146.786 E.02793
G1 X82.012 Y90.858 E3.47615
G1 X82.012 Y91.493 E.02793
G1 X137.94 Y147.422 E3.47615
G1 X137.94 Y148.057 E.02793
G1 X82.012 Y92.129 E3.47615
G1 X82.012 Y92.765 E.02793
G1 X137.94 Y148.693 E3.47615
G1 X137.94 Y149.328 E.02793
G1 X82.012 Y93.4 E3.47615
G1 X82.012 Y94.036 E.02793
G1 X137.94 Y149.964 E3.47615
G1 X137.94 Y150.6 E.02793
G1 X82.012 Y94.671 E3.47615
G1 X82.012 Y95.307 E.02793
G1 X137.94 Y151.235 E3.47615
G1 X137.94 Y151.871 E.02793
G1 X82.012 Y95.943 E3.47615
G1 X82.012 Y96.578 E.02793
G1 X137.94 Y152.506 E3.47615
G1 X137.94 Y153.142 E.02793
G1 X82.012 Y97.214 E3.47615
G1 X82.012 Y97.849 E.02793
G1 X137.94 Y153.778 E3.47615
G1 X137.94 Y154.413 E.02793
G1 X82.012 Y98.485 E3.47615
G1 X82.012 Y99.121 E.02793
G1 X137.94 Y155.049 E3.47615
G1 X137.94 Y155.685 E.02793
G1 X82.012 Y99.756 E3.47615
G1 X82.012 Y100.392 E.02793
G1 X137.94 Y156.32 E3.47615
G1 X137.94 Y156.956 E.02793
G1 X82.012 Y101.028 E3.47615
G1 X82.012 Y101.663 E.02793
G1 X137.94 Y157.591 E3.47615
G1 X137.94 Y158.227 E.02793
G1 X82.012 Y102.299 E3.47615
G1 X82.012 Y102.934 E.02793
G1 X137.815 Y158.737 E3.46834
G1 X137.179 Y158.737 E.02793
G1 X82.012 Y103.57 E3.42884
G1 X82.012 Y104.206 E.02793
G1 X136.543 Y158.737 E3.38933
G1 X135.908 Y158.737 E.02793
G1 X82.012 Y104.841 E3.34983
G1 X82.012 Y105.477 E.02793
G1 X135.272 Y158.737 E3.31032
G1 X134.637 Y158.737 E.02793
G1 X82.012 Y106.112 E3.27082
G1 X82.012 Y106.748 E.02793
G1 X134.001 Y158.737 E3.23131
G1 X133.365 Y158.737 E.02793
G1 X82.012 Y107.384 E3.19181
G1 X82.012 Y108.019 E.02793
G1 X132.73 Y158.737 E3.1523
G1 X132.094 Y158.737 E.02793
G1 X82.012 Y108.655 E3.1128
G1 X82.012 Y109.291 E.02793
G1 X131.459 Y158.737 E3.07329
G1 X130.823 Y158.737 E.02793
G1 X82.012 Y109.926 E3.03379
G1 X82.012 Y110.562 E.02793
G1 X130.187 Y158.737 E2.99428
G1 X129.552 Y158.737 E.02793
G1 X82.012 Y111.197 E2.95478
G1 X82.012 Y111.833 E.02793
G1 X128.916 Y158.737 E2.91527
G1 X128.281 Y158.737 E.02793
G1 X82.012 Y112.469 E2.87577
G1 X82.012 Y113.104 E.02793
G1 X127.645 Y158.737 E2.83626
G1 X127.009 Y158.737 E.02793
G1 X82.012 Y113.74 E2.79676
G1 X82.012 Y114.375 E.02793
G1 X126.374 Y158.737 E2.75725
G1 X125.738 Y158.737 E.02793
G1 X82.012 Y115.011 E2.71774
G1 X82.012 Y115.647 E.02793
G1 X125.102 Y158.737 E2.67824
G1 X124.467 Y158.737 E.02793
G1 X82.012 Y116.282 E2.63873
G1 X82.012 Y116.918 E.02793
G1 X123.831 Y158.737 E2.59923
G1 X123.196 Y158.737 E.02793
G1 X82.012 Y117.554 E2.55972
G1 X82.012 Y118.189 E.02793
G1 X122.56 Y158.737 E2.52022
G1 X121.924 Y158.737 E.02793
G1 X82.012 Y118.825 E2.48071
G1 X82.012 Y119.46 E.02793
G1 X121.289 Y158.737 E2.44121
G1 X120.653 Y158.737 E.02793
G1 X82.012 Y120.096 E2.4017
G1 X82.012 Y120.732 E.02793
G1 X120.018 Y158.737 E2.3622
G1 X119.382 Y158.737 E.02793
G1 X82.012 Y121.367 E2.32269
G1 X82.012 Y122.003 E.02793
G1 X118.746 Y158.737 E2.28319
G1 X118.111 Y158.737 E.02793
G1 X82.012 Y122.639 E2.24368
G1 X82.012 Y123.274 E.02793
G1 X117.475 Y158.737 E2.20418
G1 X116.84 Y158.737 E.02793
G1 X82.012 Y123.91 E2.16467
G1 X82.012 Y124.545 E.02793
G1 X116.204 Y158.738 E2.12517
G1 X115.568 Y158.738 E.02793
G1 X82.012 Y125.181 E2.08566
G1 X82.012 Y125.817 E.02793
G1 X114.933 Y158.738 E2.04616
G1 X114.297 Y158.738 E.02793
G1 X82.012 Y126.452 E2.00665
G1 X82.012 Y127.088 E.02793
G1 X113.662 Y158.738 E1.96715
G1 X113.026 Y158.738 E.02793
G1 X82.012 Y127.723 E1.92764
G1 X82.012 Y128.359 E.02793
G1 X112.39 Y158.738 E1.88814
G1 X111.755 Y158.738 E.02793
G1 X82.012 Y128.995 E1.84863
G1 X82.012 Y129.63 E.02793
G1 X111.119 Y158.738 E1.80913
G1 X110.484 Y158.738 E.02793
G1 X82.012 Y130.266 E1.76962
G1 X82.012 Y130.902 E.02793
G1 X109.848 Y158.738 E1.73011
G1 X109.212 Y158.738 E.02793
G1 X82.012 Y131.537 E1.69061
G1 X82.012 Y132.173 E.02793
G1 X108.577 Y158.738 E1.6511
G1 X107.941 Y158.738 E.02793
G1 X82.012 Y132.808 E1.6116
G1 X82.012 Y133.444 E.02793
G1 X107.306 Y158.738 E1.57209
G1 X106.67 Y158.738 E.02793
G1 X82.012 Y134.08 E1.53259
G1 X82.012 Y134.715 E.02793
G1 X106.034 Y158.738 E1.49308
G1 X105.399 Y158.738 E.02793
G1 X82.012 Y135.351 E1.45358
G1 X82.012 Y135.986 E.02793
G1 X104.763 Y158.738 E1.41407
G1 X104.128 Y158.738 E.02793
G1 X82.012 Y136.622 E1.37457
G1 X82.012 Y137.258 E.02793
G1 X103.492 Y158.738 E1.33506
G1 X102.856 Y158.738 E.02793
G1 X82.012 Y137.893 E1.29556
G1 X82.012 Y138.529 E.02793
G1 X102.221 Y158.738 E1.25605
G1 X101.585 Y158.738 E.02793
G1 X82.012 Y139.165 E1.21655
G1 X82.012 Y139.8 E.02793
G1 X100.949 Y158.738 E1.17704
G1 X100.314 Y158.738 E.02793
G1 X82.012 Y140.436 E1.13754
G1 X82.012 Y141.071 E.02793
G1 X99.678 Y158.738 E1.09803
G1 X99.043 Y158.738 E.02793
G1 X82.012 Y141.707 E1.05853
G1 X82.012 Y142.343 E.02793
G1 X98.407 Y158.738 E1.01902
G1 X97.771 Y158.738 E.02793
G1 X82.012 Y142.978 E.97952
G1 X82.012 Y143.614 E.02793
G1 X97.136 Y158.738 E.94001
G1 X96.5 Y158.738 E.02793
G1 X82.012 Y144.249 E.90051
G1 X82.012 Y144.885 E.02793
G1 X95.865 Y158.738 E.861
G1 X95.229 Y158.738 E.02793
G1 X82.012 Y145.521 E.8215
G1 X82.012 Y146.156 E.02793
G1 X94.593 Y158.738 E.78199
G1 X93.958 Y158.738 E.02793
G1 X82.012 Y146.792 E.74248
