; Postprocessed by [ArcWelder](https://github.com/FormerLurker/ArcWelderLib)
; Copyright(C) 2021 - Brad Hochgesang
; Version: 1.2.0, Branch: master, BuildDate: 2021-11-21T20:04:00Z
; resolution=0.05mm
; path_tolerance=5.0%
; max_radius=9999.00mm
; default_xyz_precision=3
; default_e_precision=5
; extrusion_rate_variance=5.0%

; generated by AnycubicSlicer 1.4.4 on 2026-02-21 at 02:23:43 UTC




; 

; external perimeters extrusion width = 0.42mm
; perimeters extrusion width = 0.45mm
; infill extrusion width = 0.45mm
; solid infill extrusion width = 0.50mm
; top infill extrusion width = 0.42mm
; support material extrusion width = 0.42mm
; first layer extrusion width = 0.56mm

M201 X2500 Y2500 Z800 E2500 ; sets maximum accelerations, mm/sec^2
M203 X250 Y250 Z8 E80 ; sets maximum feedrates, mm / sec
M204 S2500 T2500 ; sets acceleration (S) and retract acceleration (R), mm/sec^2
M205 X10.00 Y10.00 Z2.00 E10.00 ; sets the jerk limits, mm/sec
M205 S0 T0 ; sets the minimum extruding and travel feed rate, mm/sec
;TYPE:Custom
G90 ; use absolute coordinates
M83 ; extruder relative mode
M104 S215 ; set extruder temp
M140 S60 ; set bed temp
M190 S60 ; wait for bed temp
M109 S215 ; wait for extruder temp
G28                                        ; move X/Y/Z to min endstops
G1 Z0.28                                   ; lift nozzle a bit 
G92 E0 
G1 Y3 F1800                                    ; zero the extruded length 
G1 X60  E25 F500                       ; Extrude 25mm of filament in a 5cm line. 
G92 E0                                     ; zero the extruded length again 
G1 E-2 F500                                ; Retract a little 
G1 X70 F4000                              ; Quickly wipe away from the filament line
M117
G21 ; set units to millimeters
G90 ; use absolute coordinates
M82 ; use absolute distances for extrusion
G92 E0
M107
;LAYER_CHANGE
;Z:0.28
;HEIGHT:0.28
; BEFORE_LAYER_CHANGE 0 @ 0.28mm
G1 E-2 F4800
G92 E0
G1 Z.28 F7200
; AFTER_LAYER_CHANGE 0 @ 0.28mm
G1 X102.043 Y94.158
G1 E2 F4800
;TYPE:Skirt/Brim
;WIDTH:0.56
G1 F3000
G1 X103.063 Y93.288 E2.07802
G1 X104.574 Y92.319 E2.18248
G1 X106.225 Y91.595 E2.28739
G1 X107.97 Y91.138 E2.39236
G1 X110.242 Y90.961 E2.52498
G1 X112.03 Y91.138 E2.62954
G1 X113.327 Y91.45 E2.70717
G1 X115.007 Y92.106 E2.81213
G1 X116.564 Y93.016 E2.91708
G1 X118.291 Y94.492 E3.04929
G1 X119.434 Y95.887 E3.15424
G1 X120.131 Y97.024 E3.23185
G1 X120.853 Y98.67 E3.33645
G1 X121.312 Y100.419 E3.44168
G1 X121.496 Y102.599 E3.569
G1 X120.501 Y122.614 E4.73521
G1 X120.288 Y124.448 E4.84266
G1 X119.751 Y126.214 E4.95008
G1 X119.182 Y127.395 E5.02637
G1 X118.136 Y128.916 E5.1338
G1 X116.836 Y130.227 E5.24124
G1 X115.322 Y131.284 E5.3487
G1 X113.132 Y132.219 E5.48728
G1 X111.855 Y132.511 E5.56351
G1 X110.013 Y132.642 E5.67098
G1 X107.654 Y132.322 E5.80952
G1 X105.913 Y131.706 E5.91699
G1 X104.76 Y131.085 E5.9932
G1 X102.898 Y129.601 E6.13176
G1 X101.72 Y128.179 E6.23922
G1 X100.814 Y126.57 E6.34668
G1 X100.211 Y124.825 E6.45412
G1 X99.936 Y123.208 E6.54957
G1 X98.509 Y102.215 E7.77408
G1 X98.688 Y100.419 E7.87912
G1 X99.002 Y99.116 E7.95712
G1 X99.655 Y97.444 E8.06158
G1 X100.842 Y95.506 E8.19384
G1 X102.003 Y94.203 E8.2954
G1 X102.367 Y94.538 F7200
G1 F3000
G1 X103.387 Y93.669 E8.37338
G1 X104.835 Y92.746 E8.47331
G1 X106.417 Y92.057 E8.57373
G1 X108.476 Y91.563 E8.69695
G1 X110.202 Y91.459 E8.79758
G1 X111.913 Y91.625 E8.89762
G1 X113.21 Y91.936 E8.97524
G1 X114.816 Y92.568 E9.07568
G1 X116.302 Y93.443 E9.17604
G1 X117.911 Y94.817 E9.29917
G1 X119.008 Y96.148 E9.39955
G1 X119.705 Y97.286 E9.47721
G1 X120.391 Y98.862 E9.57724
G1 X120.826 Y100.536 E9.67789
G1 X120.997 Y102.575 E9.79697
G1 X120.011 Y122.469 E10.95612
G1 X119.886 Y123.874 E11.03821
G1 X119.458 Y125.578 E11.14045
G1 X118.502 Y127.563 E11.26867
G1 X117.437 Y128.96 E11.3709
G1 X116.14 Y130.145 E11.47314
G1 X115.046 Y130.866 E11.54939
G1 X113.447 Y131.594 E11.65163
G1 X111.744 Y132.024 E11.75385
G1 X109.991 Y132.143 E11.8561
G1 X108.245 Y131.947 E11.95835
G1 X106.562 Y131.442 E12.06061
G1 X104.622 Y130.398 E12.18882
G1 X103.598 Y129.581 E12.26505
G1 X102.412 Y128.285 E12.36728
G1 X101.477 Y126.798 E12.4695
G1 X100.822 Y125.168 E12.57173
G1 X100.435 Y123.174 E12.68994
G1 X99.008 Y102.255 E13.91015
G1 X99.174 Y100.536 E14.01065
G1 X99.488 Y99.233 E14.08865
G1 X100.117 Y97.635 E14.18859
G1 X101.222 Y95.831 E14.3117
G1 X102.328 Y94.583 E14.40874
G1 E13.00874 F4800
;WIPE_START
G1 F5760
G1 X102.902 Y94.088 E12.40874
;WIPE_END
G92 E0
G1 X110.247 Y98.542 F7200
G1 E2 F4800
;TYPE:Support material
G1 F3000
G1 X110.967 Y98.575 E2.04194
G1 X112.243 Y98.866 E2.1181
G1 X113.448 Y99.38 E2.19434
G1 X114.541 Y100.102 E2.27057
G1 X115.488 Y101.006 E2.34676
G1 X116.258 Y102.066 E2.423
G1 X116.826 Y103.246 E2.49921
G1 X116.916 Y103.568 E2.51867
G1 X116.631 Y104.717 E2.58756
G3 X103.079 Y103.507 I-6.628 J-2.264 E3.67154
G1 X103.404 Y102.643 E3.72526
G1 X104.076 Y101.519 E3.80147
G1 X104.938 Y100.533 E3.87769
G1 X105.962 Y99.717 E3.95389
G1 X107.116 Y99.096 E4.03015
G1 X108.361 Y98.692 E4.10632
G1 X109.659 Y98.516 E4.18255
G1 X110.172 Y98.539 E4.21243
G1 X116.11 Y105.347 F7200
G1 F3000
G1 X116.11 Y102.795 E4.36094
G2 X115.555 Y101.864 I-2.866 J1.077 E4.42427
G1 X115.555 Y105.896 E4.65891
G3 X114.999 Y106.668 I-2.552 J-1.252 E4.71443
G1 X114.999 Y101.162 E5.03485
G1 X114.444 Y100.631 E5.07955
G1 X114.444 Y107.272 E5.46602
G1 X113.888 Y107.703 E5.50696
G1 X113.888 Y100.21 E5.94301
G1 X113.333 Y99.844 E5.9817
G1 X113.333 Y108.077 E6.46082
G1 X112.777 Y108.378 E6.49761
G1 X112.777 Y99.583 E7.00943
G1 X112.222 Y99.346 E7.04455
G1 X112.222 Y108.597 E7.58291
G1 X111.666 Y108.788 E7.61712
G1 X111.666 Y99.196 E8.17533
G1 X111.111 Y99.069 E8.20846
G1 X111.111 Y108.89 E8.77999
G1 X110.555 Y108.983 E8.8128
G1 X110.555 Y99.007 E9.39335
G1 X110 Y98.982 E9.42568
G1 X110 Y108.985 E10.0078
G1 X109.445 Y108.983 E10.0401
G1 X109.445 Y98.999 E10.62112
G1 X108.889 Y99.074 E10.65377
G1 X108.889 Y108.89 E11.22501
G3 X108.334 Y108.788 I0.048 J-1.820 E11.25788
G1 X108.334 Y99.174 E11.81737
G1 X107.778 Y99.354 E11.85138
G1 X107.778 Y108.597 E12.38928
G3 X107.223 Y108.377 I0.358 J-1.714 E12.42413
G1 X107.223 Y99.549 E12.93787
G1 X106.667 Y99.848 E12.97461
G1 X106.667 Y108.076 E13.45344
G3 X106.112 Y107.705 I0.834 J-1.849 E13.49242
G1 X106.112 Y100.173 E13.93074
G1 X105.556 Y100.615 E13.97207
G1 X105.556 Y107.271 E14.35942
G1 X105.001 Y106.668 E14.40711
G1 X105.001 Y101.145 E14.72852
G1 X104.445 Y101.78 E14.77764
G1 X104.445 Y105.896 E15.01717
G3 X103.890 Y104.787 I3.035 J-2.212 E15.08955
G1 X103.89 Y102.268 E15.23614
G1 E13.83614 F4800
;WIPE_START
G1 F5760
G1 X103.89 Y103.026 E13.23614
;WIPE_END
G92 E0
G1 X105.889 Y110.445 F7200
G1 E2 F4800
G1 F3000
G1 X107.236 Y111.005 E2.08489
G1 X108.619 Y111.334 E2.16762
G1 X110.02 Y111.441 E2.24939
G1 X111.401 Y111.33 E2.33002
G1 X112.755 Y111.008 E2.41101
G1 X114.058 Y110.473 E2.49298
G1 X115.036 Y109.877 E2.55963
G1 X115.437 Y110.261 E2.59194
G1 X116.207 Y111.32 E2.66814
G1 X116.775 Y112.501 E2.7444
G1 X117.124 Y113.763 E2.8206
G1 X117.241 Y115.068 E2.89685
G1 X117.124 Y116.373 E2.9731
G1 X116.775 Y117.636 E3.04935
G1 X116.379 Y118.459 E3.1025
G1 X116.479 Y118.598 E3.11246
G1 X117.048 Y119.778 E3.1887
G1 X117.396 Y121.041 E3.26494
G1 X117.514 Y122.345 E3.34114
G1 X117.396 Y123.65 E3.41739
G1 X117.048 Y124.913 E3.49363
G1 X116.479 Y126.093 E3.56987
G1 X115.709 Y127.153 E3.64611
G1 X114.762 Y128.058 E3.72234
G1 X113.669 Y128.78 E3.79857
G1 X112.465 Y129.295 E3.87478
G1 X111.187 Y129.586 E3.95106
G1 X109.879 Y129.645 E4.02726
G1 X108.581 Y129.469 E4.10349
G1 X107.335 Y129.065 E4.17972
G1 X106.181 Y128.444 E4.25598
G1 X105.157 Y127.627 E4.33221
G1 X104.295 Y126.64 E4.40847
G1 X103.623 Y125.516 E4.48468
G1 X103.163 Y124.289 E4.56094
G1 X102.929 Y123 E4.63718
G1 X102.929 Y121.69 E4.71342
G1 X103.163 Y120.401 E4.78966
G1 X103.623 Y119.175 E4.86586
G1 X103.767 Y118.935 E4.88215
G1 X103.351 Y118.239 E4.92934
G1 X102.89 Y117.012 E5.00562
G1 X102.656 Y115.723 E5.08186
G1 X102.656 Y114.413 E5.1581
G1 X102.89 Y113.124 E5.23434
G1 X103.351 Y111.898 E5.31056
G1 X104.023 Y110.773 E5.38682
G1 X104.86 Y109.814 E5.4609
G1 X105.825 Y110.405 E5.52675
G1 X116.665 Y125.188 F7200
G1 F3000
G1 X116.665 Y119.502 E5.85765
G1 X116.665 Y117.189 F7200
G1 F3000
G1 X116.665 Y113.793 E6.05528
G1 X116.353 Y112.659 E6.12373
G1 X116.11 Y112.156 E6.15624
G1 X116.11 Y125.823 E6.95159
G1 X115.555 Y126.601 E7.00721
G1 X115.555 Y111.188 E7.90417
G1 X115.097 Y110.558 E7.9495
G1 X114.999 Y110.464 E7.9574
G1 X114.999 Y127.21 E8.93193
G1 X114.444 Y127.73 E8.97619
G1 X114.444 Y110.767 E9.96335
G3 X113.888 Y111.030 I-1.252 J-1.928 E9.99922
G1 X113.888 Y128.096 E10.99237
G3 X113.333 Y128.435 I-1.242 J-1.410 E11.03031
G1 X113.333 Y111.259 E12.02987
G3 X112.777 Y111.465 I-1.074 J-2.045 E12.06444
G1 X112.777 Y128.672 E13.0658
G3 X112.222 Y128.889 I-0.892 J-1.464 E13.10055
G1 X112.222 Y111.599 E14.10674
G1 X111.666 Y111.732 E14.14001
G1 X111.666 Y129.016 E15.14585
G1 X111.111 Y129.139 E15.17893
G1 X111.111 Y111.805 E16.18768
G1 X110.555 Y111.849 E16.22014
G1 X110.555 Y129.164 E17.22779
G1 X110 Y129.189 E17.26012
G1 X110 Y111.891 E18.26678
G1 X109.445 Y111.85 E18.29917
G1 X109.445 Y129.132 E19.30489
G1 X108.889 Y129.057 E19.33754
G1 X108.889 Y111.806 E20.34146
G3 X108.334 Y111.731 I-0.001 J-2.080 E20.37412
G1 X108.334 Y128.916 E21.3742
G1 X107.778 Y128.736 E21.40821
G1 X107.778 Y111.598 E22.40555
G1 X107.223 Y111.465 E22.43876
G1 X107.223 Y128.493 E23.4297
G1 X106.667 Y128.194 E23.46644
G1 X106.667 Y111.259 E24.45197
G1 X106.112 Y111.028 E24.48695
G1 X106.112 Y127.813 E25.46375
G1 X105.556 Y127.37 E25.50512
G1 X105.556 Y110.769 E26.47121
G1 X105.001 Y110.428 E26.50912
G1 X105.001 Y126.765 E27.45985
G3 X104.445 Y126.015 I1.782 J-1.902 E27.51440
G1 X104.445 Y110.973 E28.38977
G1 X104.388 Y111.039 E28.39484
G1 X103.89 Y111.872 E28.45132
G1 X103.89 Y118.264 E28.8233
G1 X103.758 Y118.043 E28.83828
G1 X103.335 Y116.915 E28.90839
G1 X103.335 Y112.581 E29.16061
G1 X103.89 Y125.524 F7200
G1 F3000
G1 X103.89 Y119.167 E29.53056
G1 E28.13056 F4800
;WIPE_START
G1 F5760
G1 X103.89 Y119.925 E27.53056
;WIPE_END
G92 E0
G1 X109.107 Y110.6 F7200
G1 E2 F4800
;TYPE:External perimeter
G1 F3000
G1 X108.72 Y110.569 E2.02259
G1 X107.457 Y110.266 E2.09818
G1 X106.256 Y109.767 E2.17386
G1 X105.171 Y109.102 E2.24792
G1 X104.192 Y108.266 E2.32284
G1 X103.347 Y107.277 E2.39854
G1 X102.675 Y106.179 E2.47346
G1 X102.182 Y104.988 E2.54847
G1 X101.884 Y103.746 E2.6228
G1 X101.781 Y102.451 E2.6984
G1 X101.882 Y101.165 E2.77347
G1 X102.185 Y99.905 E2.84889
G1 X102.677 Y98.719 E2.92361
G1 X103.351 Y97.62 E2.99864
G1 X104.188 Y96.639 E3.07369
G1 X105.174 Y95.798 E3.14911
G1 X106.269 Y95.127 E3.22385
G1 X107.46 Y94.634 E3.29886
G1 X108.714 Y94.333 E3.37391
G1 X110.006 Y94.232 E3.44933
G1 X111.286 Y94.333 E3.52405
G1 X112.54 Y94.634 E3.5991
G1 X113.731 Y95.127 E3.67411
G1 X114.831 Y95.801 E3.74919
G1 X115.812 Y96.639 E3.82427
G1 X116.649 Y97.62 E3.89932
G1 X117.323 Y98.719 E3.97435
G1 X117.815 Y99.905 E4.04907
G1 X118.118 Y101.165 E4.12449
G1 X118.219 Y102.451 E4.19956
G1 X118.118 Y103.735 E4.27451
G1 X117.813 Y105 E4.35024
G1 X117.325 Y106.179 E4.4245
G1 X116.652 Y107.278 E4.4995
G1 X115.815 Y108.259 E4.57455
G1 X114.836 Y109.096 E4.64951
G1 X113.725 Y109.777 E4.72534
G1 X112.535 Y110.269 E4.80028
G1 X111.299 Y110.566 E4.87426
G1 X110 Y110.67 E4.9501
G1 X109.167 Y110.605 E4.99872
G1 X108.929 Y110.255 F7200
G1 X110.326 Y110.204
G1 F3000
G1 X109.352 Y110.205 E5.0554
G1 X108.087 Y109.993 E5.13004
G1 X106.875 Y109.577 E5.20461
G1 X105.737 Y108.959 E5.27997
G1 X104.734 Y108.179 E5.35391
G1 X103.864 Y107.235 E5.42862
G1 X103.161 Y106.161 E5.50332
G1 X102.64 Y104.975 E5.57871
G1 X102.325 Y103.73 E5.65345
G1 X102.219 Y102.451 E5.72814
G1 X102.325 Y101.17 E5.80294
G1 X102.641 Y99.924 E5.87775
G1 X103.157 Y98.747 E5.95254
G1 X103.86 Y97.672 E6.02729
G1 X104.73 Y96.726 E6.10208
G1 X105.744 Y95.937 E6.17685
G1 X106.88 Y95.323 E6.252
G1 X108.09 Y94.908 E6.32644
G1 X109.357 Y94.696 E6.4012
G1 X110.643 Y94.696 E6.47604
G1 X111.91 Y94.908 E6.5508
G1 X113.126 Y95.325 E6.62561
G1 X114.26 Y95.94 E6.70068
G1 X115.27 Y96.726 E6.77516
G1 X116.14 Y97.672 E6.84995
G1 X116.843 Y98.747 E6.9247
G1 X117.359 Y99.924 E6.99949
G1 X117.675 Y101.17 E7.0743
G1 X117.781 Y102.457 E7.14945
G1 X117.675 Y103.733 E7.22396
G1 X117.362 Y104.968 E7.2981
G1 X116.843 Y106.155 E7.37349
G1 X116.14 Y107.231 E7.44829
G1 X115.27 Y108.176 E7.52304
G1 X114.244 Y108.971 E7.59857
G1 X113.128 Y109.575 E7.67242
G1 X111.914 Y109.992 E7.74712
G1 X110.649 Y110.204 E7.82176
G1 X110.386 Y110.204 E7.83707
G1 X110.142 Y110.559 F7200
;LAYER_CHANGE
;Z:0.48
;HEIGHT:0.2
; BEFORE_LAYER_CHANGE 1 @ 0.48mm
G1 E6.43707 F4800
;WIPE_START
G1 F5760
G1 X109.628 Y110.205 E5.83707
;WIPE_END
G92 E0
G1 Z.48 F7200
; AFTER_LAYER_CHANGE 1 @ 0.48mm
M104 S195 ; set temperature
G1 X108.177 Y113.316
G1 E2 F4800
;TYPE:Support material
;WIDTH:0.42
G1 F1946
G3 X109.841 Y112.586 I1.740 J1.705 E2.05830
G1 X109.86 Y112.166 E2.07148
G3 X108.791 Y112.395 I0.063 J2.906 E2.60908
G3 X109.804 Y112.163 I1.140 J2.650 E2.64180
G1 X109.843 Y111.745 F7200
G1 F1946
G3 X108.626 Y112.007 I0.079 J3.326 E3.25752
G3 X109.787 Y111.742 I1.302 J3.030 E3.29501
G1 E1.89501 F4800
;WIPE_START
G1 F5760
G2 X109.042 Y111.871 I-0.018 J2.113 E1.29501
;WIPE_END
G92 E0
G1 X108.267 Y104.02 F7200
G1 E2 F4800
G1 F1946
G3 X109.956 Y103.336 I1.694 J1.756 E2.05847
G1 X109.975 Y102.916 E2.07165
G3 X108.385 Y103.388 I-0.003 J2.903 E2.59096
G3 X109.918 Y102.913 I1.572 J2.363 E2.64189
G1 X110.433 Y102.516 F7200
G1 F1946
G3 X109.244 Y102.570 I-0.446 J3.299 E3.25943
G3 X110.376 Y102.514 I0.735 J3.386 E3.29509
G1 E1.89509 F4800
;WIPE_START
G1 F5760
G2 X109.621 Y102.525 I-0.344 J2.301 E1.29509
;WIPE_END
G92 E0
G1 X108.449 Y120.594 F7200
G1 E2 F4800
G1 F1946
G3 X110.114 Y119.863 I1.741 J1.704 E2.05834
G1 X110.133 Y119.443 E2.07152
G3 X109.064 Y119.672 I0.063 J2.906 E2.60908
G3 X110.076 Y119.441 I1.144 J2.681 E2.64176
G1 X110.595 Y119.043 F7200
G1 F1946
G3 X109.466 Y119.099 I-0.402 J3.300 E3.26112
G3 X110.538 Y119.041 I0.695 J2.912 E3.29492
G1 E1.89492 F4800
;WIPE_START
G1 F5760
G2 X109.783 Y119.056 I-0.336 J2.083 E1.29492
;WIPE_END
G92 E0
G1 X109.038 Y110.665 F7200
G1 E2 F4800
;TYPE:External perimeter
G1 F1946
G1 X108.719 Y110.64 E2.01003
G1 X107.429 Y110.331 E2.05162
G1 X106.203 Y109.817 E2.0933
G1 X105.134 Y109.161 E2.13263
G1 X104.149 Y108.322 E2.1732
G1 X103.285 Y107.31 E2.21492
G1 X102.61 Y106.204 E2.25555
G1 X102.114 Y105.006 E2.2962
G1 X101.819 Y103.774 E2.33592
G1 X101.711 Y102.45 E2.37757
G1 X101.813 Y101.154 E2.41833
G1 X102.116 Y99.889 E2.45912
G1 X102.614 Y98.687 E2.49991
G1 X103.285 Y97.593 E2.54015
G1 X104.139 Y96.589 E2.58148
G1 X105.142 Y95.736 E2.62276
G1 X106.237 Y95.065 E2.66303
G1 X107.438 Y94.567 E2.7038
G1 X108.703 Y94.264 E2.74459
G1 X110.017 Y94.163 E2.78591
G1 X111.297 Y94.263 E2.82617
G1 X112.562 Y94.567 E2.86696
G1 X113.763 Y95.065 E2.90773
G1 X114.872 Y95.745 E2.94852
G1 X115.861 Y96.589 E2.98929
G1 X116.706 Y97.578 E3.03008
G1 X117.386 Y98.687 E3.07087
G1 X117.877 Y99.874 E3.11115
G1 X118.187 Y101.154 E3.15244
G1 X118.289 Y102.451 E3.19323
G1 X118.188 Y103.743 E3.23386
G1 X117.874 Y105.037 E3.27561
G1 X117.39 Y106.205 E3.31525
G1 X116.713 Y107.314 E3.35599
G1 X115.871 Y108.302 E3.39669
G1 X114.887 Y109.145 E3.43732
G1 X113.746 Y109.845 E3.47929
G1 X112.549 Y110.338 E3.51988
G1 X111.333 Y110.63 E3.55909
G1 X110 Y110.74 E3.60103
G1 X109.097 Y110.67 E3.62943
G1 X108.891 Y110.381 F7200
G1 X110.383 Y110.133
G1 F1946
G1 X109.349 Y110.134 E3.66185
G1 X108.101 Y109.924 E3.70153
G1 X106.904 Y109.513 E3.74121
G1 X105.762 Y108.891 E3.78198
G1 X104.789 Y108.133 E3.82065
G1 X103.928 Y107.201 E3.86043
G1 X103.23 Y106.14 E3.90025
G1 X102.705 Y104.949 E3.94106
G1 X102.394 Y103.717 E3.9809
G1 X102.289 Y102.451 E4.02073
G1 X102.394 Y101.182 E4.06065
G1 X102.707 Y99.947 E4.1006
G1 X103.219 Y98.781 E4.14053
G1 X103.915 Y97.715 E4.18045
G1 X104.79 Y96.768 E4.22088
G1 X105.783 Y95.996 E4.26032
G1 X106.903 Y95.389 E4.30026
