; Postprocessed by [ArcWelder](https://github.com/FormerLurker/ArcWelderLib)
; Copyright(C) 2021 - Brad Hochgesang
; Version: 1.2.0, Branch: master, BuildDate: 2021-11-21T20:04:00Z
; resolution=0.05mm
; path_tolerance=5.0%
; max_radius=9999.00mm
; default_xyz_precision=3
; default_e_precision=5
; extrusion_rate_variance=5.0%

; generated by AnycubicSlicer 1.4.4 on 2026-02-21 at 10:13:58 UTC




; 

; external perimeters extrusion width = 0.42mm
; perimeters extrusion width = 0.45mm
; infill extrusion width = 0.45mm
; solid infill extrusion width = 0.50mm
; top infill extrusion width = 0.42mm
; support material extrusion width = 0.42mm
; first layer extrusion width = 0.56mm

M201 X2500 Y2500 Z800 E2500 ; sets maximum accelerations, mm/sec^2
M203 X250 Y250 Z8 E80 ; sets maximum feedrates, mm / sec
M204 S2500 T2500 ; sets acceleration (S) and retract acceleration (R), mm/sec^2
M205 X10.00 Y10.00 Z2.00 E10.00 ; sets the jerk limits, mm/sec
M205 S0 T0 ; sets the minimum extruding and travel feed rate, mm/sec
;TYPE:Custom
G90 ; use absolute coordinates
M83 ; extruder relative mode
M104 S215 ; set extruder temp
M140 S60 ; set bed temp
M190 S60 ; wait for bed temp
M109 S215 ; wait for extruder temp
G28                                        ; move X/Y/Z to min endstops
G1 Z0.28                                   ; lift nozzle a bit 
G92 E0 
G1 Y3 F1800                                    ; zero the extruded length 
G1 X60  E25 F500                       ; Extrude 25mm of filament in a 5cm line. 
G92 E0                                     ; zero the extruded length again 
G1 E-2 F500                                ; Retract a little 
G1 X70 F4000                              ; Quickly wipe away from the filament line
M117
G21 ; set units to millimeters
G90 ; use absolute coordinates
M82 ; use absolute distances for extrusion
G92 E0
M107
;LAYER_CHANGE
;Z:0.28
;HEIGHT:0.28
; BEFORE_LAYER_CHANGE 0 @ 0.28mm
G1 E-2 F4800
G92 E0
G1 Z.28 F7200
; AFTER_LAYER_CHANGE 0 @ 0.28mm
G1 X100.142 Y79.66
G1 E2 F4800
;TYPE:Skirt/Brim
;WIDTH:0.56
G1 F3000
G1 X101.261 Y78.271 E2.1038
G1 X102.835 Y76.793 E2.22945
G1 X104.291 Y75.764 E2.33321
G1 X105.866 Y74.925 E2.43706
G1 X107.174 Y74.407 E2.51893
G1 X108.896 Y73.941 E2.62275
G1 X110.662 Y73.694 E2.72652
G1 X112.822 Y73.694 E2.85222
G1 X114.218 Y73.87 E2.9341
G1 X115.951 Y74.291 E3.03789
G1 X117.618 Y74.925 E3.14168
G1 X119.192 Y75.764 E3.24548
G1 X120.649 Y76.793 E3.34928
G1 X121.965 Y77.997 E3.45308
G1 X123.12 Y79.356 E3.55687
G1 X124.096 Y80.849 E3.66067
G1 X125.015 Y82.803 E3.78633
G1 X125.544 Y84.506 E3.89011
G1 X125.821 Y85.964 E3.97648
G1 X132.656 Y127.561 E6.42968
G1 X132.94 Y129.877 E6.56547
G1 X132.99 Y132.167 E6.69877
G1 X132.83 Y134.306 E6.8236
G1 X132.439 Y136.565 E6.95702
G1 X131.825 Y138.774 E7.09045
G1 X130.994 Y140.911 E7.22388
G1 X129.955 Y142.955 E7.35732
G1 X128.717 Y144.885 E7.49076
G1 X127.294 Y146.682 E7.62415
G1 X125.698 Y148.329 E7.75762
G1 X123.946 Y149.808 E7.89105
G1 X122.056 Y151.106 E8.02448
G1 X120.046 Y152.209 E8.15791
G1 X117.936 Y153.107 E8.29136
G1 X115.748 Y153.789 E8.42473
G1 X113.502 Y154.251 E8.55817
G1 X111.221 Y154.487 E8.69162
G1 X108.928 Y154.494 E8.82506
G1 X106.646 Y154.273 E8.95848
G1 X104.397 Y153.826 E9.09192
G1 X102.204 Y153.158 E9.22533
G1 X100.089 Y152.274 E9.35873
G1 X98.071 Y151.184 E9.4922
G1 X96.173 Y149.899 E9.62559
G1 X94.412 Y148.43 E9.75905
G1 X93.484 Y147.525 E9.83448
G1 X91.972 Y145.801 E9.96793
G1 X90.64 Y143.935 E10.10135
G1 X89.5 Y141.946 E10.23476
G1 X88.564 Y139.853 E10.36819
G1 X87.84 Y137.677 E10.50165
G1 X87.338 Y135.44 E10.63507
G1 X87.06 Y133.164 E10.76851
G1 X87.01 Y130.873 E10.90187
G1 X87.189 Y128.586 E11.03537
G1 X87.59 Y126.348 E11.16768
G1 X97.974 Y84.348 E13.68546
G1 X98.607 Y82.452 E13.80178
G1 X99.206 Y81.179 E13.88365
G1 X100.111 Y79.711 E13.98401
G1 X100.536 Y79.974 F7200
G1 F3000
G1 X101.646 Y78.59 E14.08726
G1 X102.887 Y77.397 E14.18744
G1 X104.532 Y76.202 E14.30576
G1 X106.05 Y75.39 E14.40594
G1 X107.358 Y74.872 E14.48781
G1 X109.02 Y74.425 E14.58797
G1 X111.038 Y74.17 E14.70634
G1 X112.759 Y74.19 E14.8065
G1 X114.155 Y74.366 E14.88838
G1 X115.827 Y74.775 E14.98855
G1 X117.434 Y75.39 E15.08868
G1 X118.952 Y76.202 E15.18886
G1 X120.355 Y77.197 E15.28896
G1 X121.623 Y78.361 E15.38913
G1 X122.735 Y79.674 E15.48926
G1 X123.825 Y81.392 E15.60766
G1 X124.54 Y82.957 E15.70779
G1 X125.053 Y84.6 E15.80796
G1 X125.328 Y86.045 E15.89356
G1 X132.163 Y127.642 E18.34676
G1 X132.441 Y129.902 E18.47927
G1 X132.491 Y132.142 E18.60966
G1 X132.332 Y134.256 E18.73303
G1 X131.949 Y136.466 E18.86356
G1 X131.347 Y138.627 E18.99411
G1 X130.534 Y140.717 E19.12462
G1 X129.516 Y142.716 E19.25517
G1 X128.304 Y144.603 E19.38568
G1 X126.911 Y146.361 E19.51621
G1 X125.349 Y147.971 E19.64675
G1 X123.635 Y149.417 E19.77725
G1 X121.785 Y150.686 E19.9078
G1 X119.818 Y151.764 E20.03833
G1 X117.754 Y152.641 E20.16884
G1 X115.612 Y153.308 E20.2994
G1 X113.415 Y153.759 E20.42992
G1 X111.184 Y153.988 E20.56044
G1 X108.941 Y153.995 E20.69097
G1 X106.708 Y153.777 E20.82154
G1 X104.509 Y153.339 E20.95202
G1 X102.363 Y152.684 E21.08259
G1 X100.294 Y151.818 E21.21312
G1 X98.321 Y150.751 E21.34365
G1 X96.465 Y149.493 E21.47413
G1 X94.742 Y148.056 E21.6047
G1 X93.85 Y147.185 E21.67725
G1 X92.371 Y145.5 E21.80772
G1 X91.066 Y143.675 E21.93828
G1 X89.95 Y141.729 E22.06883
G1 X89.033 Y139.682 E22.19936
G1 X88.325 Y137.554 E22.32987
G1 X87.832 Y135.366 E22.46039
G1 X87.559 Y133.139 E22.59096
G1 X87.509 Y130.898 E22.72141
G1 X87.683 Y128.661 E22.85199
G1 X88.075 Y126.468 E22.98163
G1 X98.46 Y84.468 E25.49943
G1 X99.059 Y82.665 E25.60999
G3 X100.504 Y80.025 I12.333 J5.035 E25.78541
G1 E24.38541 F4800
;WIPE_START
G1 F5760
G1 X100.976 Y79.432 E23.78541
;WIPE_END
G92 E0
G1 X113.324 Y76.781 F7200
G1 E2 F4800
;TYPE:Support material
G1 F3000
G1 X113.842 Y76.846 E2.03038
G3 X112.446 Y76.670 I-2.096 J11.002 E6.04377
G1 X113.25 Y76.772 E6.09093
G1 X122.22 Y91.075 F7200
G1 F3000
G1 X122.22 Y85.492 E6.41583
G1 X122.161 Y85.18 E6.43431
G1 X121.743 Y83.896 E6.51289
G1 X121.665 Y83.729 E6.52362
G1 X121.665 Y91.982 E7.0039
G1 X121.168 Y93.037 E7.07177
G1 X121.109 Y93.13 E7.07818
G1 X121.109 Y82.58 E7.69214
G1 X120.554 Y81.705 E7.75244
G1 X120.554 Y94.005 E8.46824
G3 X119.998 Y94.717 I-3.113 J-1.858 E8.52088
G1 X119.998 Y80.994 E9.31949
G2 X119.443 Y80.360 I-2.821 J1.910 E9.36859
G1 X119.443 Y95.351 E10.24099
G1 X118.887 Y95.872 E10.28533
G1 X118.887 Y79.838 E11.21843
G2 X118.332 Y79.374 I-2.115 J1.966 E11.26062
G1 X118.332 Y96.337 E12.24778
G1 X117.776 Y96.741 E12.28778
G1 X117.776 Y78.97 E13.32196
G2 X117.221 Y78.617 I-1.633 J1.954 E13.36032
G1 X117.221 Y97.094 E14.43559
G1 X116.665 Y97.399 E14.47249
G1 X116.665 Y78.311 E15.58331
G2 X116.110 Y78.039 I-1.314 J1.979 E15.61935
G1 X116.11 Y97.672 E16.76189
G1 X115.555 Y97.892 E16.79663
G1 X115.555 Y77.819 E17.96478
G2 X114.999 Y77.608 I-1.090 J2.034 E17.99942
G1 X114.999 Y98.103 E19.19213
G1 X114.444 Y98.245 E19.22547
G1 X114.444 Y77.465 E20.43476
G1 X113.888 Y77.323 E20.46815
G1 X113.888 Y98.388 E21.69403
G3 X113.333 Y98.475 I-0.638 J-2.256 E21.72676
G1 X113.333 Y77.236 E22.96276
G1 X112.777 Y77.165 E22.99538
G1 X112.777 Y98.545 E24.23959
G3 X112.222 Y98.591 I-0.457 J-2.149 E24.27206
G1 X112.222 Y77.12 E25.52156
G1 X111.666 Y77.12 E25.55392
G1 X111.666 Y98.591 E26.80342
G1 X111.111 Y98.591 E26.83572
G1 X111.111 Y77.12 E28.08522
G1 X110.555 Y77.184 E28.11779
G1 X110.555 Y98.526 E29.35979
G1 X110 Y98.456 E29.39234
G1 X110 Y77.255 E30.62613
G2 X109.445 Y77.362 I0.129 J2.164 E30.65910
G1 X109.445 Y98.349 E31.88044
G1 X108.889 Y98.206 E31.91385
G1 X108.889 Y77.504 E33.1186
G1 X108.334 Y77.659 E33.15213
G1 X108.334 Y98.052 E34.3389
G1 X107.778 Y97.832 E34.3737
G1 X107.778 Y77.878 E35.53492
G1 X107.223 Y78.098 E35.56966
G1 X107.223 Y97.612 E36.70528
G1 X106.667 Y97.316 E36.74194
G1 X106.667 Y78.394 E37.8431
G1 X106.112 Y78.7 E37.87998
G1 X106.112 Y97.011 E38.94559
G3 X105.556 Y96.631 I1.261 J-2.442 E38.98484
G1 X105.556 Y79.08 E40.00622
G1 X105.001 Y79.483 E40.04613
G1 X105.001 Y96.227 E41.02055
G3 X104.445 Y95.730 I1.668 J-2.425 E41.06400
G1 X104.445 Y79.98 E41.98057
G1 X103.89 Y80.505 E42.02503
G1 X103.89 Y95.206 E42.88055
G1 X103.335 Y94.534 E42.93127
G1 X103.335 Y81.176 E43.70864
G2 X102.779 Y81.943 I2.806 J2.619 E43.76387
G1 X102.779 Y93.767 E44.45197
G3 X102.224 Y92.841 I3.367 J-2.647 E44.51488
G1 X102.224 Y82.869 E45.0952
G1 X101.741 Y83.896 E45.16125
G1 X101.668 Y84.119 E45.17491
G1 X101.668 Y91.592 E45.6098
G3 X101.113 Y89.427 I8.271 J-3.274 E45.74012
G1 X101.113 Y85.1 E45.99193
G1 E44.59193 F4800
;WIPE_START
G1 F5760
G1 X101.113 Y85.858 E43.99193
;WIPE_END
G92 E0
G1 X110.873 Y114.032 F7200
G1 E2 F4800
G1 F3000
G3 X119.903 Y117.082 I-0.868 J17.462 E2.56171
G3 X100.093 Y117.084 I-9.904 J5.427 E5.28365
G3 X110.798 Y114.030 I9.900 J14.413 E5.94291
G1 X120.554 Y125.774 F7200
G1 F3000
G1 X120.554 Y120.082 E6.27416
G1 X120.502 Y119.811 E6.29022
G1 X120.081 Y118.516 E6.36946
G1 X119.998 Y118.34 E6.38078
G1 X119.998 Y126.677 E6.86595
G1 X119.501 Y127.732 E6.93382
G1 X119.443 Y127.825 E6.9402
G1 X119.443 Y117.317 E7.55171
G1 X118.887 Y116.959 E7.59019
G1 X118.887 Y128.7 E8.27346
G3 X118.332 Y129.414 I-3.062 J-1.808 E8.32617
G1 X118.332 Y116.638 E9.06967
G1 X117.776 Y116.342 E9.10633
G1 X117.776 Y130.051 E9.90412
G1 X117.221 Y130.573 E9.94846
G1 X117.221 Y116.068 E10.79258
G1 X116.665 Y115.818 E10.82806
G1 X116.665 Y131.042 E11.71402
G1 X116.11 Y131.446 E11.75397
G1 X116.11 Y115.597 E12.6763
G1 X115.555 Y115.395 E12.71067
G1 X115.555 Y131.804 E13.66559
G1 X114.999 Y132.109 E13.70249
G1 X114.999 Y115.21 E14.68593
G1 X114.444 Y115.054 E14.71948
G1 X114.444 Y132.388 E15.72823
G1 X113.888 Y132.608 E15.76303
G1 X113.888 Y114.915 E16.79267
G1 X113.333 Y114.79 E16.82578
G1 X113.333 Y132.826 E17.87538
G1 X112.777 Y132.968 E17.90877
G1 X112.777 Y114.692 E18.97234
G1 X112.222 Y114.611 E19.00498
G1 X112.222 Y133.111 E20.08159
G3 X111.666 Y133.206 I-0.654 J-2.151 E20.11448
G1 X111.666 Y114.543 E21.20057
G1 X111.111 Y114.501 E21.23296
G1 X111.111 Y133.276 E22.32557
G3 X110.555 Y133.331 I-0.494 J-2.151 E22.35813
G1 X110.555 Y114.474 E23.45551
G1 X110 Y114.461 E23.48782
G1 X110 Y133.331 E24.58596
G1 X109.445 Y133.331 E24.61826
G1 X109.445 Y114.474 E25.71564
G1 X108.889 Y114.501 E25.74803
G1 X108.889 Y133.277 E26.8407
G1 X108.334 Y133.206 E26.87326
G1 X108.334 Y114.543 E27.95935
G1 X107.778 Y114.611 E27.99195
G1 X107.778 Y133.112 E29.06861
G1 X107.223 Y132.969 E29.10196
G1 X107.223 Y114.692 E30.16559
G1 X106.667 Y114.79 E30.19845
G1 X106.667 Y132.826 E31.24805
G3 X106.112 Y132.609 I0.628 J-2.423 E31.28273
G1 X106.112 Y114.915 E32.31243
G1 X105.556 Y115.054 E32.34578
G1 X105.556 Y132.389 E33.35459
G3 X105.001 Y132.111 I0.836 J-2.362 E33.39077
G1 X105.001 Y115.21 E34.37432
G1 X104.445 Y115.395 E34.40842
G1 X104.445 Y131.806 E35.36346
G3 X103.890 Y131.447 I1.156 J-2.395 E35.40200
G1 X103.89 Y115.597 E36.32439
G1 X103.335 Y115.818 E36.35915
G1 X103.335 Y131.044 E37.24523
G3 X102.779 Y130.575 I1.526 J-2.373 E37.28765
G1 X102.779 Y116.068 E38.13188
G1 X102.224 Y116.342 E38.1679
G1 X102.224 Y130.053 E38.96581
G3 X101.668 Y129.417 I2.251 J-2.529 E39.01504
G1 X101.668 Y116.638 E39.75871
G1 X101.113 Y116.959 E39.79602
G1 X101.113 Y128.704 E40.47952
G1 X100.557 Y127.829 E40.53985
G1 X100.557 Y117.317 E41.1516
G1 X100.447 Y117.388 E41.15922
G1 X100.002 Y118.334 E41.22006
G1 X100.002 Y126.682 E41.70587
G1 X99.916 Y126.5 E41.71758
G1 X99.495 Y125.205 E41.79682
G1 X99.446 Y124.948 E41.81205
G1 X99.446 Y119.234 E42.14458
G1 E40.74458 F4800
;WIPE_START
G1 F5760
G1 X99.446 Y119.992 E40.14458
;WIPE_END
G92 E0
G1 X108.037 Y111.898 F7200
G1 E2 F4800
;TYPE:External perimeter
G1 F3000
G3 X107.060 Y112.021 I1.974 J19.621 E9.15265
G1 X107.977 Y111.906 E9.20643
G1 X108.27 Y112.223 F7200
G1 X108.087 Y112.396
;TYPE:Perimeter
G1 F3000
G3 X107.135 Y112.515 I1.907 J19.125 E16.17761
G1 X108.027 Y112.403 E16.22993
G1 E14.82993 F4800
;WIPE_START
G1 F5760
G1 X108.783 Y112.344 E14.22993
;WIPE_END
G92 E0
G1 X113.621 Y113.602 F7200
G1 E2 F4800
;TYPE:External perimeter
G1 F3000
G3 X112.725 Y113.444 I-3.622 J17.918 E8.63047
G1 X113.562 Y113.592 E8.67993
G1 X113.885 Y113.302 F7200
G1 X113.71 Y113.111
;TYPE:Perimeter
G1 F3000
G3 X112.799 Y112.950 I-3.723 J18.407 E15.49226
G1 X113.651 Y113.1 E15.5426
;LAYER_CHANGE
;Z:0.48
;HEIGHT:0.2
; BEFORE_LAYER_CHANGE 1 @ 0.48mm
G1 E14.1426 F4800
;WIPE_START
G1 F5760
G1 X114.39 Y113.266 E13.5426
;WIPE_END
G92 E0
G1 Z.48 F7200
; AFTER_LAYER_CHANGE 1 @ 0.48mm
M104 S195 ; set temperature
G1 X107.793 Y116.379
G1 E2 F4800
;TYPE:Support material
;WIDTH:0.42
G1 F3000
G3 X109.619 Y115.997 I2.136 J5.653 E2.05870
G1 X109.619 Y115.577 E2.07187
G3 X107.853 Y115.904 I0.370 J6.929 E3.38254
G3 X109.563 Y115.577 I2.153 J6.624 E3.43723
G1 X110.461 Y115.157 F7200
G1 F3000
G3 X109.536 Y115.157 I-0.463 J7.351 E4.85817
G1 X110.405 Y115.157 E4.88542
G1 E3.48542 F4800
;WIPE_START
G1 F5760
G1 X109.647 Y115.157 E2.88542
;WIPE_END
G92 E0
G1 X110.317 Y81.589 F7200
G1 E2 F4800
G1 F3000
G3 X112.176 Y81.436 I1.412 J5.782 E2.05871
G1 X112.229 Y81.019 E2.07189
G3 X110.457 Y81.120 I-0.499 J6.838 E3.36611
G3 X112.172 Y81.012 I1.285 J6.727 E3.42010
G1 X113.023 Y80.696 F7200
G1 F3000
G3 X110.378 Y80.706 I-1.295 J7.156 E4.76959
G3 X112.967 Y80.689 I1.339 J6.790 E4.85118
G1 E3.45118 F4800
;WIPE_START
G1 F5760
G1 X112.215 Y80.594 E2.85118
;WIPE_END
G92 E0
G1 X108.032 Y111.828 F7200
G1 E2 F4800
;TYPE:External perimeter
G1 F4500
G3 X107.048 Y111.952 I1.982 J19.691 E5.86724
G1 X107.972 Y111.836 E5.89644
G1 X108.265 Y112.153 F7200
G1 X108.07 Y112.219
;TYPE:Perimeter
;WIDTH:0.45
G1 F9000
G3 X107.107 Y112.339 I1.916 J19.303 E9.98857
G1 X108.01 Y112.226 E10.01937
G1 E8.61937 F4800
;WIPE_START
G1 F5760
G1 X108.766 Y112.168 E8.01937
;WIPE_END
G92 E0
G1 X113.607 Y113.671 F7200
G1 E2 F4800
;TYPE:External perimeter
;WIDTH:0.42
G1 F4500
G3 X112.714 Y113.514 I-3.599 J17.851 E5.55870
G1 X113.548 Y113.661 E5.58525
G1 X113.871 Y113.371 F7200
G1 X113.693 Y113.288
;TYPE:Perimeter
;WIDTH:0.45
G1 F9000
G3 X112.773 Y113.126 I-3.685 J18.234 E9.50956
G1 X113.634 Y113.278 E9.53915
G1 X113.703 Y112.886 F7200
;TYPE:Gap fill
;WIDTH:0.431122
G1 F6000
G3 X111.893 Y112.615 I-3.715 J18.633 E13.33311
G3 X113.644 Y112.876 I-1.671 J17.211 E13.39027
M106 S255
;LAYER_CHANGE
;Z:0.68
;HEIGHT:0.2
; BEFORE_LAYER_CHANGE 2 @ 0.68mm
G1 E11.99027 F4800
;WIPE_START
G1 F5760
G1 X114.384 Y113.04 E11.39027
;WIPE_END
G92 E0
G1 Z.68 F7200
; AFTER_LAYER_CHANGE 2 @ 0.68mm
G1 X108.578 Y116.156
G1 E2 F4800
;TYPE:Support material
;WIDTH:0.42
G1 F3000
G3 X110.438 Y116.006 I1.407 J5.843 E2.05872
G1 X110.491 Y115.59 E2.07187
G3 X108.698 Y115.692 I-0.506 J6.915 E3.38161
G3 X110.434 Y115.582 I1.300 J6.771 E3.43626
G1 X110.933 Y115.222 F7200
G1 F3000
G3 X104.633 Y117.470 I-0.949 J7.291 E4.66751
G3 X110.877 Y115.215 I5.326 J4.974 E4.88354
G1 E3.48354 F4800
;WIPE_START
G1 F5760
G2 X110.122 Y115.162 I-0.585 J2.937 E2.88354
;WIPE_END
G92 E0
G1 X110.317 Y81.595 F7200
G1 E2 F4800
G1 F3000
G3 X112.176 Y81.441 I1.412 J5.745 E2.05872
G1 X112.228 Y81.024 E2.0719
G3 X110.458 Y81.125 I-0.498 J6.833 E3.36517
G3 X112.172 Y81.017 I1.284 J6.723 E3.41912
G1 X112.652 Y80.654 F7200
G1 F3000
G3 X106.440 Y82.877 I-0.925 J7.207 E4.63613
G3 X112.596 Y80.647 I5.265 J4.923 E4.84916
G1 E3.44916 F4800
;WIPE_START
G1 F5760
G2 X111.841 Y80.597 I-0.576 J2.972 E2.84916
;WIPE_END
G92 E0
G1 X108.032 Y111.828 F7200
G1 E2 F4800
;TYPE:External perimeter
G1 F4500
G3 X107.047 Y111.952 I1.979 J19.691 E5.86719
G1 X107.972 Y111.836 E5.89642
G1 X108.265 Y112.153 F7200
G1 X108.07 Y112.219
;TYPE:Perimeter
;WIDTH:0.45
G1 F9000
G3 X107.106 Y112.340 I1.933 J19.301 E9.98855
G1 X108.011 Y112.226 E10.01943
G1 E8.61943 F4800
;WIPE_START
G1 F5760
G1 X108.767 Y112.167 E8.01943
;WIPE_END
G92 E0
G1 X113.606 Y113.671 F7200
G1 E2 F4800
;TYPE:External perimeter
;WIDTH:0.42
G1 F4500
G3 X112.714 Y113.514 I-3.602 J17.850 E5.55875
G1 X113.546 Y113.66 E5.58524
G1 X113.87 Y113.371 F7200
G1 X113.673 Y113.284
;TYPE:Perimeter
;WIDTH:0.45
G1 F9000
G3 X112.773 Y113.126 I-3.666 J18.238 E9.51028
