; HEADER_BLOCK_START
; generated by AnycubicSlicerNext 1.3.9.3 on 2026-04-25 at 17:56:33
; total layer number: 15
; filament_density: 1.24
; filament_diameter: 1.75
; max_z_height: 3.04
; exclude_object: 0
; model_instances: 1
; source_info: {"models":[{"file_source":0,"mo_file_id":-1,"name":"FacePlateBase.stl_id_0_copy_0"}],"models_from":0,"plate_index":1,"slice_paras_process":1,"software_version":"AnycubicSlicerNext 1.3.9.3 20260131153104"}
; paint_info = [{"material_type":"PLA","paint_color":[105,164,255],"paint_index":0}]
; project_info = {"flush_multiplier":1.0,"flush_volumes_chan_multipliers":[1.0,1.0,1.0,1.0],"flush_volumes_matrix":[0.0],"flush_volumes_vector":[140.0,140.0]}
; flush_multiplier_calculate_by_acnext: 1
; test_mode: 0
; HEADER_BLOCK_END

; THUMBNAIL_BLOCK_START
; THUMBNAIL_BLOCK_END

; external perimeters extrusion width = 0.42mm
; perimeters extrusion width = 0.45mm
; infill extrusion width = 0.45mm
; solid infill extrusion width = 0.42mm
; top infill extrusion width = 0.42mm
; support material extrusion width = 0.40mm
; first layer extrusion width = 0.50mm

; EXECUTABLE_BLOCK_START
M201 X2000 Y2000 Z800 E2000
M203 X300 Y300 Z8 E100
M204 P2000 R2000 T2000
M205 X10.00 Y10.00 Z2.00 E5.00
;TYPE:Custom
G90 ; use absolute coordinates
M83 ; extruder relative mode
M104 S220 ; set extruder temp
M140 S60 ; set bed temp
M190 S60 ; wait for bed temp
M109 S220 ; wait for extruder temp
G28                                        ; move X/Y/Z to min endstops
G1 Z0.28                                   ; lift nozzle a bit 
G92 E0 
G1 Y3 F1800                                    ; zero the extruded length 
G1 X60  E25 F500                       ; Extrude 25mm of filament in a 5cm line. 
G92 E0                                     ; zero the extruded length again 
G1 E-2 F500                                ; Retract a little 
G1 X70 F4000                              ; Quickly wipe away from the filament line
M117
G90
G21
M83 ; use relative distances for extrusion
; EXECUTABLE_BLOCK_HEAD
; filament start gcode
M75 ; The first extruder is ready.
M106 S0
;LAYER_CHANGE
;Z:0.24
;HEIGHT:0.24
; BEFORE_LAYER_CHANGE 0 @ 0.24mm
G92 E0
; AFTER_LAYER_CHANGE 0 @ 0.24mm
M204 S500
G1 E-.8 F3600
G1 X93.468 Y95.461 F18000
G1 Z.24
G1 E.8 F3600
;TYPE:Skirt
;WIDTH:0.5
G1 F3000
G1 X180.437 Y8.491 E5.39399
G1 X181.274 Y7.811 E.04729
G1 X182.183 Y7.338 E.04491
G1 X183.166 Y7.051 E.04492
G1 X184.327 Y6.965 E.05107
G1 X185.204 Y7.072 E.03873
G1 X186.08 Y7.338 E.04015
G1 X186.863 Y7.732 E.03848
G1 X187.679 Y8.351 E.04491
G1 X213.494 Y34.173 E1.6013
G1 X214.039 Y34.908 E.04015
G1 X214.434 Y35.692 E.03847
G1 X214.7 Y36.568 E.04015
G1 X214.807 Y37.439 E.03848
G1 X214.762 Y38.353 E.04015
G1 X214.57 Y39.209 E.03848
G1 X214.222 Y40.049 E.03988
G1 X213.815 Y40.708 E.03397
G1 X213.281 Y41.334 E.03609
G1 X39.295 Y215.322 E10.79097
G1 X38.588 Y215.903 E.04015
G1 X37.824 Y216.335 E.03849
G1 X36.962 Y216.644 E.04014
G1 X36.098 Y216.794 E.03848
G1 X35.183 Y216.794 E.04015
G1 X34.182 Y216.606 E.04465
G1 X33.358 Y216.289 E.03874
G1 X32.572 Y215.818 E.04014
G1 X31.946 Y215.284 E.0361
G1 X6.112 Y189.406 E1.60365
G1 X5.676 Y188.773 E.03371
G1 X5.284 Y187.946 E.04013
G1 X5.05 Y187.1 E.03849
G1 X4.964 Y186.336 E.03371
G1 X4.991 Y185.568 E.03371
G1 X5.17 Y184.67 E.04014
G1 X5.485 Y183.852 E.03848
G1 X5.956 Y183.067 E.04014
G1 X6.49 Y182.44 E.0361
G1 X93.44 Y95.489 E5.39284
; printing object "FacePlateBase.stl" id:0 copy 0
G1 E-.8 F3600
G1 X8.036 Y187.728 F18000
G1 E.8 F3600
;TYPE:Outer wall
G1 F2400
G1 X7.892 Y187.512 E.01138
G1 X7.712 Y187.155 E.01753
G1 X7.625 Y186.911 E.01138
G1 X7.562 Y186.659 E.01138
G1 X7.513 Y186.266 E.01739
G1 X7.523 Y185.869 E.01739
G1 X7.561 Y185.613 E.01138
G1 X7.624 Y185.361 E.01138
G1 X7.768 Y184.988 E.01753
G1 X7.89 Y184.759 E.01137
G1 X8.034 Y184.544 E.01138
G1 X8.3 Y184.236 E.01784
G1 X182.235 Y10.298 E10.78783
G1 X182.434 Y10.117 E.01182
G1 X182.645 Y9.961 E.01151
G1 X182.87 Y9.826 E.01151
G1 X183.108 Y9.714 E.01151
G1 X183.355 Y9.625 E.01151
G1 X183.609 Y9.561 E.01151
G1 X183.866 Y9.523 E.01138
G1 X184.257 Y9.514 E.01714
G1 X184.656 Y9.562 E.01764
G1 X184.908 Y9.625 E.01137
G1 X185.155 Y9.714 E.01151
G1 X185.392 Y9.826 E.01151
G1 X185.617 Y9.961 E.01151
G1 X185.828 Y10.117 E.01151
G1 X186.028 Y10.298 E.01182
G1 X211.567 Y35.842 E1.58412
G1 X211.816 Y36.162 E.01778
G1 X211.946 Y36.379 E.01113
G1 X212.057 Y36.614 E.01138
G1 X212.182 Y36.993 E.01753
G1 X212.233 Y37.248 E.01138
G1 X212.258 Y37.506 E.01138
G1 X212.248 Y37.906 E.01753
G1 X212.21 Y38.162 E.01138
G1 X212.147 Y38.417 E.01151
G1 X212.058 Y38.664 E.01151
G1 X211.95 Y38.893 E.01113
G1 X211.735 Y39.234 E.01764
G1 X211.471 Y39.539 E.0177
G1 X37.539 Y213.474 E10.7877
G1 X37.231 Y213.74 E.01784
G1 X37.015 Y213.884 E.01138
G1 X36.784 Y214.008 E.01151
G1 X36.541 Y214.108 E.01151
G1 X36.298 Y214.182 E.01113
G1 X35.899 Y214.252 E.01778
G1 X35.64 Y214.265 E.01137
G1 X35.378 Y214.252 E.01151
G1 X35.118 Y214.213 E.01151
G1 X34.872 Y214.152 E.01113
G1 X34.494 Y214.006 E.01778
G1 X34.265 Y213.884 E.01137
G1 X34.049 Y213.74 E.01138
G1 X33.742 Y213.474 E.01784
G1 X8.202 Y187.931 E1.58413
G1 X8.049 Y187.743 E.01063
G1 X8.405 Y187.453 F18000
;TYPE:Inner wall
G1 F2400
G1 X8.28 Y187.286 E.00917
G1 X8.125 Y186.978 E.01511
G1 X8.003 Y186.577 E.01838
G1 X7.962 Y186.243 E.01473
G1 X7.97 Y185.908 E.01473
G1 X8.052 Y185.497 E.01838
G1 X8.176 Y185.175 E.01511
G1 X8.392 Y184.816 E.01838
G1 X8.629 Y184.541 E.01591
G1 X9.644 Y183.526 E.06297
G1 X9.829 Y183.655 E.0099
G1 X9.649 Y184.041 E.01864
G1 X9.508 Y184.443 E.01869
G1 X9.408 Y184.857 E.01869
G1 X9.35 Y185.279 E.01869
G1 X9.334 Y185.705 E.01869
G1 X9.361 Y186.13 E.01869
G1 X9.431 Y186.559 E.01907
G1 X9.607 Y187.156 E.02726
G1 X9.781 Y187.554 E.01907
G1 X9.989 Y187.926 E.01869
G1 X10.234 Y188.275 E.01869
G1 X10.511 Y188.598 E.01869
G1 X10.82 Y188.892 E.01869
G1 X11.157 Y189.153 E.01869
G1 X11.517 Y189.38 E.01869
G1 X11.907 Y189.573 E.01907
G1 X12.494 Y189.779 E.02726
G1 X12.927 Y189.872 E.01946
G1 X13.546 Y189.926 E.02725
G1 X13.99 Y189.909 E.01946
G1 X14.603 Y189.809 E.02725
G1 X15.02 Y189.686 E.01907
G1 X15.423 Y189.522 E.01907
G1 X15.965 Y189.218 E.02726
G1 X16.315 Y188.96 E.01907
G1 X16.617 Y188.686 E.0179
G1 X19.612 Y185.685 E.18596
G1 X19.994 Y185.194 E.02724
G1 X20.216 Y184.82 E.01907
G1 X20.4 Y184.426 E.01907
G1 X20.59 Y183.835 E.02726
G1 X20.673 Y183.399 E.01946
G1 X20.711 Y182.779 E.02725
G1 X20.684 Y182.336 E.01945
G1 X20.568 Y181.725 E.02728
G1 X20.429 Y181.296 E.01977
G1 X20.169 Y180.739 E.02695
G1 X19.929 Y180.358 E.01976
G1 X19.539 Y179.883 E.02695
G1 X19.212 Y179.572 E.01976
G1 X18.718 Y179.208 E.02693
G1 X18.339 Y178.996 E.01906
G1 X17.941 Y178.822 E.01907
G1 X17.336 Y178.643 E.02764
G1 X16.712 Y178.557 E.02764
G1 X16.268 Y178.552 E.01945
G1 X15.642 Y178.622 E.02764
G1 X15.025 Y178.788 E.02803
G1 X14.434 Y179.045 E.02825
G1 X14.309 Y178.861 E.00978
G1 X176.873 Y16.294 E10.08264
G1 X177.058 Y16.423 E.0099
G1 X176.879 Y16.809 E.01864
G1 X176.738 Y17.211 E.01869
G1 X176.638 Y17.625 E.01869
G1 X176.58 Y18.047 E.01869
G1 X176.564 Y18.473 E.01869
G1 X176.59 Y18.898 E.01869
G1 X176.659 Y19.319 E.01869
G1 X176.769 Y19.73 E.01869
G1 X176.92 Y20.129 E.01869
G1 X177.11 Y20.511 E.01869
G1 X177.336 Y20.871 E.01869
G1 X177.598 Y21.208 E.01869
G1 X177.892 Y21.517 E.01869
G1 X178.215 Y21.795 E.01869
G1 X178.571 Y22.044 E.01907
G1 X179.128 Y22.338 E.02764
G1 X179.723 Y22.547 E.02764
G1 X180.148 Y22.638 E.01907
G1 X180.58 Y22.687 E.01907
G1 X181.21 Y22.679 E.02764
G1 X181.832 Y22.577 E.02764
G1 X182.25 Y22.454 E.01907
G1 X182.652 Y22.29 E.01907
G1 X183.194 Y21.986 E.02726
G1 X183.544 Y21.728 E.01907
G1 X183.847 Y21.454 E.0179
G1 X186.842 Y18.453 E.18596
G1 X187.223 Y17.962 E.02724
G1 X187.445 Y17.588 E.01907
G1 X187.625 Y17.202 E.01869
G1 X187.769 Y16.792 E.01907
G1 X187.9 Y16.184 E.02726
G1 X187.938 Y15.742 E.01945
G1 X187.915 Y15.112 E.02764
G1 X187.798 Y14.493 E.02766
G1 X187.659 Y14.064 E.01977
G1 X187.399 Y13.508 E.02693
G1 X187.163 Y13.132 E.01945
G1 X186.769 Y12.651 E.02725
G1 X186.454 Y12.351 E.01907
G1 X186.111 Y12.084 E.01907
G1 X185.569 Y11.763 E.02764
G1 X184.985 Y11.525 E.02766
G1 X184.549 Y11.409 E.01977
G1 X183.941 Y11.325 E.02693
G1 X183.498 Y11.32 E.01944
G1 X182.871 Y11.39 E.02764
G1 X182.263 Y11.553 E.02764
G1 X181.86 Y11.717 E.01907
G1 X181.677 Y11.814 E.00906
G1 X181.54 Y11.628 E.01016
G1 X182.544 Y10.623 E.0623
G1 X182.719 Y10.464 E.01037
G1 X183.082 Y10.222 E.01913
G1 X183.485 Y10.055 E.01914
G1 X183.905 Y9.971 E.01877
G1 X184.235 Y9.963 E.0145
G1 X184.574 Y10.004 E.01498
G1 X184.983 Y10.129 E.01874
G1 X185.18 Y10.222 E.00958
G1 X185.543 Y10.464 E.01913
G1 X185.718 Y10.623 E.01037
G1 X211.23 Y36.139 E1.58242
G1 X211.445 Y36.416 E.01536
G1 X211.64 Y36.781 E.01815
G1 X211.748 Y37.108 E.01511
G1 X211.809 Y37.523 E.01838
G1 X211.801 Y37.867 E.01511
G1 X211.717 Y38.286 E.01876
G1 X211.556 Y38.677 E.01853
G1 X211.374 Y38.966 E.01498
G1 X211.143 Y39.234 E.01551
G1 X210.066 Y40.31 E.06676
G1 X209.881 Y40.177 E.01003
G1 X210.12 Y39.696 E.02356
G1 X210.313 Y39.096 E.02764
G1 X210.395 Y38.66 E.01946
G1 X210.434 Y38.04 E.02725
G1 X210.407 Y37.606 E.01907
G1 X210.337 Y37.176 E.01907
G1 X210.159 Y36.572 E.02764
G1 X209.892 Y36.001 E.02764
G1 X209.656 Y35.625 E.01946
G1 X209.263 Y35.144 E.02725
G1 X208.941 Y34.838 E.01946
G1 X208.441 Y34.469 E.02725
G1 X208.054 Y34.252 E.01945
G1 X207.479 Y34.018 E.02726
G1 X207.05 Y33.903 E.01946
G1 X206.434 Y33.818 E.02726
G1 X205.991 Y33.813 E.01945
G1 X205.365 Y33.883 E.02764
G1 X204.747 Y34.049 E.02804
G1 X204.163 Y34.304 E.02796
G1 X203.796 Y34.523 E.01874
G1 X203.453 Y34.776 E.01868
G1 X203.15 Y35.05 E.0179
G1 X200.155 Y38.051 E.18596
G1 X199.774 Y38.541 E.02724
G1 X199.552 Y38.915 E.01907
G1 X199.372 Y39.302 E.01869
G1 X199.231 Y39.704 E.01869
G1 X199.131 Y40.118 E.01869
G1 X199.073 Y40.54 E.01869
G1 X199.057 Y40.966 E.01869
G1 X199.084 Y41.391 E.01869
G1 X199.152 Y41.812 E.01869
G1 X199.263 Y42.223 E.01869
G1 X199.413 Y42.622 E.01869
G1 X199.603 Y43.003 E.01869
G1 X199.83 Y43.364 E.01869
G1 X200.091 Y43.701 E.01869
G1 X200.385 Y44.009 E.01869
G1 X200.708 Y44.287 E.01869
G1 X201.064 Y44.537 E.01907
G1 X201.621 Y44.831 E.02764
G1 X202.216 Y45.039 E.02764
G1 X202.65 Y45.133 E.01944
G1 X203.261 Y45.187 E.02693
G1 X203.712 Y45.17 E.01977
G1 X204.326 Y45.07 E.02728
G1 X204.751 Y44.945 E.01945
G1 X205.409 Y44.658 E.03147
G1 X205.534 Y44.842 E.00978
G1 X42.837 Y207.542 E10.09089
G1 X42.651 Y207.409 E.01003
G1 X42.89 Y206.928 E.02356
G1 X43.083 Y206.328 E.02764
G1 X43.166 Y205.892 E.01946
G1 X43.205 Y205.272 E.02725
G1 X43.177 Y204.838 E.01907
G1 X43.107 Y204.408 E.01907
G1 X42.929 Y203.804 E.02764
G1 X42.662 Y203.232 E.02766
G1 X42.422 Y202.851 E.01977
G1 X42.033 Y202.375 E.02695
G1 X41.706 Y202.065 E.01976
G1 X41.211 Y201.701 E.02693
G1 X40.832 Y201.488 E.01906
G1 X40.434 Y201.315 E.01907
G1 X39.829 Y201.136 E.02764
G1 X39.205 Y201.05 E.02765
G1 X38.761 Y201.045 E.01945
G1 X38.144 Y201.114 E.02726
G1 X37.721 Y201.216 E.01907
G1 X37.311 Y201.36 E.01907
G1 X36.746 Y201.64 E.02764
G1 X36.23 Y202.002 E.02764
G1 X35.921 Y202.282 E.01828
G1 X32.926 Y205.283 E.18596
G1 X32.545 Y205.773 E.02724
G1 X32.322 Y206.147 E.01907
G1 X32.142 Y206.534 E.01869
G1 X32.002 Y206.936 E.01869
G1 X31.902 Y207.35 E.01869
G1 X31.843 Y207.772 E.01869
G1 X31.827 Y208.198 E.01869
G1 X31.854 Y208.623 E.01869
G1 X31.924 Y209.052 E.01907
G1 X32.1 Y209.648 E.02726
G1 X32.274 Y210.047 E.01907
G1 X32.482 Y210.419 E.01869
G1 X32.727 Y210.768 E.01869
G1 X33.005 Y211.091 E.01869
G1 X33.313 Y211.384 E.01869
G1 X33.65 Y211.646 E.01869
G1 X34.011 Y211.873 E.01869
G1 X34.4 Y212.066 E.01906
G1 X34.979 Y212.269 E.02693
G1 X35.42 Y212.365 E.01977
G1 X36.04 Y212.419 E.02728
G1 X36.483 Y212.402 E.01945
G1 X37.096 Y212.302 E.02726
G1 X37.522 Y212.177 E.01946
G1 X38.179 Y211.89 E.03147
G1 X38.305 Y212.074 E.00978
G1 X37.233 Y213.145 E.06646
G1 X36.959 Y213.382 E.0159
G1 X36.592 Y213.602 E.01876
G1 X36.39 Y213.686 E.00959
G1 X36.194 Y213.745 E.00897
G1 X35.849 Y213.805 E.01536
G1 X35.422 Y213.805 E.01874
G1 X35.007 Y213.723 E.01853
G1 X34.681 Y213.598 E.01536
G1 X34.322 Y213.382 E.01836
G1 X34.047 Y213.146 E.0159
G1 X8.535 Y187.629 E1.58244
G1 X8.417 Y187.47 E.00871
G1 E-.8 F3600
G1 X187.016 Y17.433 F18000
G1 E.8 F3600
;TYPE:Outer wall
G1 F2400
G1 X187.048 Y17.379 E.00279
G1 X187.209 Y17.033 E.01672
G1 X187.336 Y16.67 E.01686
G1 X187.455 Y16.117 E.0248
G1 X187.489 Y15.731 E.017
G1 X187.468 Y15.163 E.02494
G1 X187.362 Y14.604 E.02495
G1 X187.241 Y14.228 E.01731
G1 X187.004 Y13.723 E.02448
G1 X186.798 Y13.394 E.017
G1 X186.44 Y12.957 E.0248
G1 X186.161 Y12.692 E.01686
G1 X185.858 Y12.456 E.01686
G1 X185.369 Y12.165 E.02494
G1 X184.842 Y11.951 E.02495
G1 X184.461 Y11.849 E.01731
G1 X183.907 Y11.773 E.02449
G1 X183.52 Y11.769 E.01699
G1 X182.955 Y11.832 E.02494
G1 X182.406 Y11.979 E.02494
G1 X182.049 Y12.124 E.01686
G1 X181.71 Y12.304 E.01686
G1 X181.246 Y12.628 E.0248
G1 X180.966 Y12.882 E.01655
G1 X177.999 Y15.855 E.18424
G1 X177.652 Y16.302 E.02479
G1 X177.456 Y16.632 E.01686
G1 X177.295 Y16.978 E.01673
G1 X177.169 Y17.338 E.01672
G1 X177.079 Y17.709 E.01672
G1 X177.027 Y18.086 E.01672
G1 X177.013 Y18.467 E.01672
G1 X177.037 Y18.848 E.01673
G1 X177.098 Y19.224 E.01672
G1 X177.197 Y19.593 E.01672
G1 X177.332 Y19.949 E.01673
G1 X177.501 Y20.291 E.01673
G1 X177.704 Y20.614 E.01672
G1 X177.938 Y20.915 E.01672
G1 X178.201 Y21.191 E.01672
G1 X178.49 Y21.44 E.01673
G1 X178.805 Y21.66 E.01686
G1 X179.308 Y21.926 E.02494
G1 X179.845 Y22.114 E.02494
G1 X180.221 Y22.195 E.01686
G1 X180.603 Y22.238 E.01686
G1 X181.171 Y22.231 E.02494
G1 X181.732 Y22.139 E.02494
G1 X182.101 Y22.03 E.01686
G1 X182.457 Y21.885 E.01686
G1 X182.951 Y21.609 E.0248
G1 X183.26 Y21.38 E.01686
G1 X183.538 Y21.129 E.01642
G1 X186.505 Y18.156 E.18424
G1 X186.852 Y17.709 E.0248
G1 X187.006 Y17.451 E.01319
G1 E-.8 F3600
G1 X207.395 Y34.468 F18000
G1 E.8 F3600
G1 F2400
G1 X207.335 Y34.444 E.00284
G1 X206.961 Y34.344 E.017
G1 X206.401 Y34.266 E.0248
G1 X206.013 Y34.261 E.017
G1 X205.448 Y34.325 E.02494
G1 X204.896 Y34.473 E.02508
G1 X204.368 Y34.704 E.02525
G1 X204.044 Y34.897 E.01655
G1 X203.737 Y35.123 E.01672
G1 X203.46 Y35.374 E.01642
G1 X200.492 Y38.348 E.18424
G1 X200.145 Y38.795 E.0248
G1 X199.949 Y39.125 E.01686
G1 X199.788 Y39.471 E.01672
G1 X199.662 Y39.831 E.01672
G1 X199.572 Y40.201 E.01673
G1 X199.52 Y40.579 E.01672
G1 X199.506 Y40.96 E.01673
G1 X199.53 Y41.341 E.01672
G1 X199.591 Y41.717 E.01672
G1 X199.69 Y42.086 E.01673
G1 X199.825 Y42.442 E.01672
G1 X199.995 Y42.784 E.01672
G1 X200.198 Y43.107 E.01672
G1 X200.432 Y43.408 E.01672
G1 X200.694 Y43.684 E.01672
G1 X200.983 Y43.933 E.01672
G1 X201.298 Y44.153 E.01686
G1 X201.801 Y44.419 E.02494
G1 X202.338 Y44.607 E.02494
G1 X202.717 Y44.688 E.01699
G1 X203.273 Y44.737 E.02449
G1 X203.667 Y44.723 E.01731
G1 X204.226 Y44.632 E.02481
G1 X204.597 Y44.522 E.017
G1 X205.116 Y44.296 E.0248
G1 X205.446 Y44.1 E.01686
G1 X205.753 Y43.873 E.01672
G1 X206.031 Y43.622 E.01642
G1 X208.996 Y40.651 E.18411
G1 X209.242 Y40.35 E.01703
G1 X209.45 Y40.035 E.01654
G1 X209.703 Y39.526 E.02494
G1 X209.877 Y38.985 E.02494
G1 X209.949 Y38.604 E.017
G1 X209.985 Y38.04 E.0248
G1 X209.961 Y37.656 E.01686
G1 X209.899 Y37.276 E.01686
G1 X209.738 Y36.731 E.02494
G1 X209.498 Y36.216 E.02494
G1 X209.291 Y35.887 E.017
G1 X208.933 Y35.45 E.0248
G1 X208.652 Y35.182 E.017
G1 X208.197 Y34.847 E.0248
G1 X207.859 Y34.657 E.017
G1 X207.414 Y34.476 E.02109
G1 E-.8 F3600
G1 X20.24 Y182.432 F18000
G1 E.8 F3600
G1 F2400
G1 X20.238 Y182.392 E.00178
G1 X20.133 Y181.836 E.02481
G1 X20.011 Y181.46 E.01731
G1 X19.775 Y180.954 E.02449
G1 X19.564 Y180.621 E.01731
G1 X19.21 Y180.189 E.02449
G1 X18.924 Y179.917 E.01731
G1 X18.475 Y179.586 E.02449
G1 X18.139 Y179.398 E.01686
G1 X17.787 Y179.244 E.01686
G1 X17.241 Y179.083 E.02494
G1 X16.678 Y179.005 E.02494
G1 X16.291 Y179.001 E.017
G1 X15.725 Y179.064 E.02494
G1 X15.173 Y179.212 E.02508
G1 X14.652 Y179.44 E.02494
G1 X14.321 Y179.636 E.01686
G1 X14.015 Y179.862 E.01672
G1 X13.737 Y180.114 E.01641
