; HEADER_BLOCK_START
; generated by AnycubicSlicerNext 1.3.9.4 on 2026-06-14 at 16:37:06
; total layer number: 71
; filament_density: 1.24
; filament_diameter: 1.75
; max_z_height: 14.24
; exclude_object: 0
; model_instances: 12
; source_info: {"models":[{"file_source":0,"mo_file_id":-1,"name":"flat-cat7-clip.stl_id_0_copy_0"},{"file_source":0,"mo_file_id":-1,"name":"flat-cat7-clip-tape.stl_id_1_copy_0"},{"file_source":0,"mo_file_id":-1,"name":"flat-cat7-clip.stl_id_2_copy_0"},{"file_source":0,"mo_file_id":-1,"name":"flat-cat7-clip-tape.stl_id_3_copy_0"},{"file_source":0,"mo_file_id":-1,"name":"flat-cat7-clip.stl_id_4_copy_0"},{"file_source":0,"mo_file_id":-1,"name":"flat-cat7-clip-tape.stl_id_5_copy_0"},{"file_source":0,"mo_file_id":-1,"name":"flat-cat7-clip.stl_id_6_copy_0"},{"file_source":0,"mo_file_id":-1,"name":"flat-cat7-clip-tape.stl_id_7_copy_0"},{"file_source":0,"mo_file_id":-1,"name":"flat-cat7-clip.stl_id_8_copy_0"},{"file_source":0,"mo_file_id":-1,"name":"flat-cat7-clip-tape.stl_id_9_copy_0"},{"file_source":0,"mo_file_id":-1,"name":"flat-cat7-clip.stl_id_10_copy_0"},{"file_source":0,"mo_file_id":-1,"name":"flat-cat7-clip-tape.stl_id_11_copy_0"}],"models_from":0,"plate_index":1,"slice_paras_process":1,"software_version":"AnycubicSlicerNext 1.3.9.4 20260319224604"}
; paint_info = [{"material_type":"PLA","paint_color":[105,164,255],"paint_index":0}]
; project_info = {"flush_multiplier":1.0,"flush_volumes_chan_multipliers":[1.0,1.0,1.0,1.0],"flush_volumes_matrix":[0.0],"flush_volumes_vector":[140.0,140.0]}
; flush_multiplier_calculate_by_acnext: 1
; test_mode: 0
; HEADER_BLOCK_END

; THUMBNAIL_BLOCK_START
; THUMBNAIL_BLOCK_END

; external perimeters extrusion width = 0.42mm
; perimeters extrusion width = 0.45mm
; infill extrusion width = 0.45mm
; solid infill extrusion width = 0.42mm
; top infill extrusion width = 0.42mm
; first layer extrusion width = 0.50mm

; external perimeters extrusion width = 0.42mm
; perimeters extrusion width = 0.45mm
; infill extrusion width = 0.45mm
; solid infill extrusion width = 0.42mm
; top infill extrusion width = 0.42mm
; first layer extrusion width = 0.50mm

; external perimeters extrusion width = 0.42mm
; perimeters extrusion width = 0.45mm
; infill extrusion width = 0.45mm
; solid infill extrusion width = 0.42mm
; top infill extrusion width = 0.42mm
; first layer extrusion width = 0.50mm

; external perimeters extrusion width = 0.42mm
; perimeters extrusion width = 0.45mm
; infill extrusion width = 0.45mm
; solid infill extrusion width = 0.42mm
; top infill extrusion width = 0.42mm
; first layer extrusion width = 0.50mm

; external perimeters extrusion width = 0.42mm
; perimeters extrusion width = 0.45mm
; infill extrusion width = 0.45mm
; solid infill extrusion width = 0.42mm
; top infill extrusion width = 0.42mm
; first layer extrusion width = 0.50mm

; external perimeters extrusion width = 0.42mm
; perimeters extrusion width = 0.45mm
; infill extrusion width = 0.45mm
; solid infill extrusion width = 0.42mm
; top infill extrusion width = 0.42mm
; first layer extrusion width = 0.50mm

; external perimeters extrusion width = 0.42mm
; perimeters extrusion width = 0.45mm
; infill extrusion width = 0.45mm
; solid infill extrusion width = 0.42mm
; top infill extrusion width = 0.42mm
; first layer extrusion width = 0.50mm

; external perimeters extrusion width = 0.42mm
; perimeters extrusion width = 0.45mm
; infill extrusion width = 0.45mm
; solid infill extrusion width = 0.42mm
; top infill extrusion width = 0.42mm
; first layer extrusion width = 0.50mm

; external perimeters extrusion width = 0.42mm
; perimeters extrusion width = 0.45mm
; infill extrusion width = 0.45mm
; solid infill extrusion width = 0.42mm
; top infill extrusion width = 0.42mm
; first layer extrusion width = 0.50mm

; external perimeters extrusion width = 0.42mm
; perimeters extrusion width = 0.45mm
; infill extrusion width = 0.45mm
; solid infill extrusion width = 0.42mm
; top infill extrusion width = 0.42mm
; first layer extrusion width = 0.50mm

; external perimeters extrusion width = 0.42mm
; perimeters extrusion width = 0.45mm
; infill extrusion width = 0.45mm
; solid infill extrusion width = 0.42mm
; top infill extrusion width = 0.42mm
; first layer extrusion width = 0.50mm

; external perimeters extrusion width = 0.42mm
; perimeters extrusion width = 0.45mm
; infill extrusion width = 0.45mm
; solid infill extrusion width = 0.42mm
; top infill extrusion width = 0.42mm
; first layer extrusion width = 0.50mm

; EXECUTABLE_BLOCK_START
M201 X2000 Y2000 Z800 E2000
M203 X300 Y300 Z8 E100
M204 P2000 R2000 T2000
M205 X10.00 Y10.00 Z2.00 E5.00
;TYPE:Custom
G90 ; use absolute coordinates
M83 ; extruder relative mode
M104 S220 ; set extruder temp
M140 S60 ; set bed temp
M190 S60 ; wait for bed temp
M109 S220 ; wait for extruder temp
G28                                        ; move X/Y/Z to min endstops
G1 Z0.28                                   ; lift nozzle a bit 
G92 E0 
G1 Y3 F1800                                    ; zero the extruded length 
G1 X60  E25 F500                       ; Extrude 25mm of filament in a 5cm line. 
G92 E0                                     ; zero the extruded length again 
G1 E-2 F500                                ; Retract a little 
G1 X70 F4000                              ; Quickly wipe away from the filament line
M117
G90
G21
M83 ; use relative distances for extrusion
; EXECUTABLE_BLOCK_HEAD
; filament start gcode
M75 ; The first extruder is ready.
M106 S0
;LAYER_CHANGE
;Z:0.24
;HEIGHT:0.24
; BEFORE_LAYER_CHANGE 0 @ 0.24mm
G92 E0
; AFTER_LAYER_CHANGE 0 @ 0.24mm
M204 S500
G1 E-.8 F3600
G1 X87.029 Y89.622 F18000
G1 Z.24
G1 E.8 F3600
;TYPE:Skirt
;WIDTH:0.5
G1 F3000
G1 X132.971 Y89.622 E2.01483
G1 X133.822 Y89.791 E.03806
G1 X133.985 Y89.859 E.00774
G1 X135.168 Y91.012 E.07246
G1 X135.434 Y92.085 E.04846
G1 X135.434 Y127.915 E1.57137
G1 X135.195 Y128.935 E.04596
G1 X133.991 Y130.139 E.07466
G1 X132.971 Y130.378 E.04595
G1 X87.029 Y130.378 E2.01484
G1 X86.009 Y130.139 E.04595
G1 X84.805 Y128.935 E.07466
G1 X84.566 Y127.915 E.04596
G1 X84.566 Y92.085 E1.57137
G1 X84.805 Y91.065 E.04596
G1 X86.009 Y89.861 E.07466
G1 X86.99 Y89.631 E.0442
; printing object "flat-cat7-clip.stl" id:0 copy 0
G1 E-.8 F3600
G1 X132.836 Y127.78 F18000
G1 E.8 F3600
;TYPE:Outer wall
G1 F2400
G1 X119.444 Y127.78 E.58729
G1 X119.444 Y120.951 E.29947
G1 X132.836 Y120.951 E.58729
G1 X132.836 Y127.76 E.29859
G1 X132.387 Y127.331 F18000
;TYPE:Inner wall
G1 F2400
G1 X119.893 Y127.331 E.54796
G1 X119.893 Y121.4 E.26013
G1 X132.387 Y121.4 E.54796
G1 X132.387 Y127.311 E.25925
G1 E-.8 F3600
G1 X132.253 Y122.453 F18000
G1 E.8 F3600
;TYPE:Bottom surface
;WIDTH:0.505501
G1 F3000
G1 X131.536 Y121.736 E.04498
G1 X130.894 Y121.736 E.0285
G1 X132.051 Y122.893 E.07262
G1 X132.051 Y123.535 E.0285
G1 X130.252 Y121.736 E.11293
G1 X129.61 Y121.736 E.0285
G1 X132.051 Y124.177 E.15324
G1 X132.051 Y124.819 E.0285
G1 X128.968 Y121.736 E.19355
G1 X128.326 Y121.736 E.0285
G1 X132.051 Y125.461 E.23386
G1 X132.051 Y126.103 E.0285
G1 X127.684 Y121.736 E.27417
G1 X127.042 Y121.736 E.0285
G1 X132.051 Y126.745 E.31448
G1 X132.051 Y126.995 E.01109
G1 X131.659 Y126.995 E.01742
G1 X126.4 Y121.736 E.33016
G1 X125.758 Y121.736 E.0285
G1 X131.016 Y126.995 E.33016
G1 X130.374 Y126.995 E.0285
G1 X125.116 Y121.736 E.33016
G1 X124.474 Y121.736 E.0285
G1 X129.732 Y126.995 E.33016
G1 X129.09 Y126.995 E.0285
G1 X123.832 Y121.736 E.33016
G1 X123.19 Y121.736 E.0285
G1 X128.448 Y126.995 E.33016
G1 X127.806 Y126.995 E.0285
G1 X122.548 Y121.736 E.33016
G1 X121.905 Y121.736 E.0285
G1 X127.164 Y126.995 E.33016
G1 X126.522 Y126.995 E.0285
G1 X121.263 Y121.736 E.33016
G1 X120.621 Y121.736 E.0285
G1 X125.88 Y126.995 E.33016
G1 X125.238 Y126.995 E.0285
G1 X120.229 Y121.986 E.31447
G1 X120.229 Y122.628 E.0285
G1 X124.596 Y126.995 E.27416
G1 X123.954 Y126.995 E.0285
G1 X120.229 Y123.27 E.23385
G1 X120.229 Y123.912 E.0285
G1 X123.312 Y126.995 E.19354
G1 X122.67 Y126.995 E.0285
G1 X120.229 Y124.554 E.15323
G1 X120.229 Y125.196 E.0285
G1 X122.028 Y126.995 E.11292
G1 X121.386 Y126.995 E.0285
G1 X120.229 Y125.838 E.07261
G1 X120.229 Y126.48 E.0285
G1 X120.946 Y127.197 E.04498
G1 E-.8 F3600
G1 X120.388 Y121.707 F18000
G1 E.8 F3600
;TYPE:Gap infill
;WIDTH:0.15758
G1 F2400
G1 X120.264 Y121.673 E.00133
G1 X120.117 Y121.702 E.00155
; stop printing object flat-cat7-clip.stl id:0 copy 0
; printing object "flat-cat7-clip-tape.stl" id:1 copy 0
G1 E-.8 F3600
G1 X132.836 Y118.203 F18000
G1 E.8 F3600
;TYPE:Outer wall
;WIDTH:0.5
G1 F2400
G1 X119.444 Y118.203 E.58729
G1 X119.444 Y111.374 E.29947
G1 X132.836 Y111.374 E.58729
G1 X132.836 Y118.183 E.29859
G1 X132.387 Y117.754 F18000
;TYPE:Inner wall
G1 F2400
G1 X119.893 Y117.754 E.54796
G1 X119.893 Y111.823 E.26013
G1 X132.387 Y111.823 E.54796
G1 X132.387 Y117.734 E.25925
G1 E-.8 F3600
G1 X132.253 Y112.876 F18000
G1 E.8 F3600
;TYPE:Bottom surface
;WIDTH:0.505501
G1 F3000
G1 X131.536 Y112.159 E.04498
G1 X130.894 Y112.159 E.0285
G1 X132.051 Y113.316 E.07262
G1 X132.051 Y113.958 E.0285
G1 X130.252 Y112.159 E.11293
G1 X129.61 Y112.159 E.0285
G1 X132.051 Y114.6 E.15324
G1 X132.051 Y115.242 E.0285
G1 X128.968 Y112.159 E.19355
G1 X128.326 Y112.159 E.0285
G1 X132.051 Y115.884 E.23386
G1 X132.051 Y116.526 E.0285
G1 X127.684 Y112.159 E.27417
G1 X127.042 Y112.159 E.0285
G1 X132.051 Y117.168 E.31448
G1 X132.051 Y117.418 E.01109
G1 X131.659 Y117.418 E.01742
G1 X126.4 Y112.159 E.33016
G1 X125.758 Y112.159 E.0285
G1 X131.016 Y117.418 E.33016
G1 X130.374 Y117.418 E.0285
G1 X125.116 Y112.159 E.33016
G1 X124.474 Y112.159 E.0285
G1 X129.732 Y117.418 E.33016
G1 X129.09 Y117.418 E.0285
G1 X123.832 Y112.159 E.33016
G1 X123.19 Y112.159 E.0285
G1 X128.448 Y117.418 E.33016
G1 X127.806 Y117.418 E.0285
G1 X122.548 Y112.159 E.33016
G1 X121.905 Y112.159 E.0285
G1 X127.164 Y117.418 E.33016
G1 X126.522 Y117.418 E.0285
G1 X121.263 Y112.159 E.33016
G1 X120.621 Y112.159 E.0285
G1 X125.88 Y117.418 E.33016
G1 X125.238 Y117.418 E.0285
G1 X120.229 Y112.409 E.31447
G1 X120.229 Y113.051 E.0285
G1 X124.596 Y117.418 E.27416
G1 X123.954 Y117.418 E.0285
G1 X120.229 Y113.693 E.23385
G1 X120.229 Y114.335 E.0285
G1 X123.312 Y117.418 E.19354
G1 X122.67 Y117.418 E.0285
G1 X120.229 Y114.977 E.15323
G1 X120.229 Y115.619 E.0285
G1 X122.028 Y117.418 E.11292
G1 X121.386 Y117.418 E.0285
G1 X120.229 Y116.261 E.07261
G1 X120.229 Y116.903 E.0285
G1 X120.946 Y117.62 E.04498
G1 E-.8 F3600
G1 X120.388 Y112.13 F18000
G1 E.8 F3600
;TYPE:Gap infill
;WIDTH:0.15758
G1 F2400
G1 X120.264 Y112.096 E.00133
G1 X120.117 Y112.125 E.00155
; stop printing object flat-cat7-clip-tape.stl id:1 copy 0
; printing object "flat-cat7-clip.stl" id:2 copy 0
G1 E-.8 F3600
G1 X132.836 Y108.626 F18000
G1 E.8 F3600
;TYPE:Outer wall
;WIDTH:0.5
G1 F2400
G1 X119.444 Y108.626 E.58729
G1 X119.444 Y101.797 E.29947
G1 X132.836 Y101.797 E.58729
G1 X132.836 Y108.606 E.29859
G1 X132.387 Y108.177 F18000
;TYPE:Inner wall
G1 F2400
G1 X119.893 Y108.177 E.54796
G1 X119.893 Y102.246 E.26013
G1 X132.387 Y102.246 E.54796
G1 X132.387 Y108.157 E.25925
G1 E-.8 F3600
G1 X132.253 Y103.299 F18000
G1 E.8 F3600
;TYPE:Bottom surface
;WIDTH:0.505501
G1 F3000
G1 X131.536 Y102.582 E.04498
G1 X130.894 Y102.582 E.0285
G1 X132.051 Y103.739 E.07262
G1 X132.051 Y104.381 E.0285
G1 X130.252 Y102.582 E.11293
G1 X129.61 Y102.582 E.0285
G1 X132.051 Y105.023 E.15324
G1 X132.051 Y105.665 E.0285
G1 X128.968 Y102.582 E.19355
G1 X128.326 Y102.582 E.0285
G1 X132.051 Y106.307 E.23386
G1 X132.051 Y106.949 E.0285
G1 X127.684 Y102.582 E.27417
G1 X127.042 Y102.582 E.0285
G1 X132.051 Y107.591 E.31448
G1 X132.051 Y107.841 E.01109
G1 X131.659 Y107.841 E.01742
G1 X126.4 Y102.582 E.33016
G1 X125.758 Y102.582 E.0285
G1 X131.016 Y107.841 E.33016
G1 X130.374 Y107.841 E.0285
G1 X125.116 Y102.582 E.33016
G1 X124.474 Y102.582 E.0285
G1 X129.732 Y107.841 E.33016
G1 X129.09 Y107.841 E.0285
G1 X123.832 Y102.582 E.33016
G1 X123.19 Y102.582 E.0285
G1 X128.448 Y107.841 E.33016
G1 X127.806 Y107.841 E.0285
G1 X122.548 Y102.582 E.33016
G1 X121.905 Y102.582 E.0285
G1 X127.164 Y107.841 E.33016
G1 X126.522 Y107.841 E.0285
G1 X121.263 Y102.582 E.33016
G1 X120.621 Y102.582 E.0285
G1 X125.88 Y107.841 E.33016
G1 X125.238 Y107.841 E.0285
G1 X120.229 Y102.832 E.31447
G1 X120.229 Y103.474 E.0285
G1 X124.596 Y107.841 E.27416
G1 X123.954 Y107.841 E.0285
G1 X120.229 Y104.116 E.23385
G1 X120.229 Y104.758 E.0285
G1 X123.312 Y107.841 E.19354
G1 X122.67 Y107.841 E.0285
G1 X120.229 Y105.4 E.15323
G1 X120.229 Y106.042 E.0285
G1 X122.028 Y107.841 E.11292
G1 X121.386 Y107.841 E.0285
G1 X120.229 Y106.684 E.07261
G1 X120.229 Y107.326 E.0285
G1 X120.946 Y108.043 E.04498
G1 E-.8 F3600
G1 X120.388 Y102.553 F18000
G1 E.8 F3600
;TYPE:Gap infill
;WIDTH:0.15758
G1 F2400
G1 X120.264 Y102.519 E.00133
G1 X120.117 Y102.548 E.00155
; stop printing object flat-cat7-clip.stl id:2 copy 0
; printing object "flat-cat7-clip.stl" id:6 copy 0
G1 E-.8 F3600
G1 X132.836 Y99.049 F18000
G1 E.8 F3600
;TYPE:Outer wall
;WIDTH:0.5
G1 F2400
G1 X119.444 Y99.049 E.58729
G1 X119.444 Y92.22 E.29947
G1 X132.836 Y92.22 E.58729
G1 X132.836 Y99.029 E.29859
G1 X132.387 Y98.6 F18000
;TYPE:Inner wall
G1 F2400
G1 X119.893 Y98.6 E.54796
G1 X119.893 Y92.669 E.26013
G1 X132.387 Y92.669 E.54796
G1 X132.387 Y98.58 E.25925
G1 E-.8 F3600
G1 X132.253 Y93.722 F18000
G1 E.8 F3600
;TYPE:Bottom surface
;WIDTH:0.505501
G1 F3000
G1 X131.536 Y93.005 E.04498
G1 X130.894 Y93.005 E.0285
G1 X132.051 Y94.162 E.07262
G1 X132.051 Y94.804 E.0285
G1 X130.252 Y93.005 E.11293
G1 X129.61 Y93.005 E.0285
G1 X132.051 Y95.446 E.15324
G1 X132.051 Y96.088 E.0285
G1 X128.968 Y93.005 E.19355
G1 X128.326 Y93.005 E.0285
G1 X132.051 Y96.73 E.23386
G1 X132.051 Y97.372 E.0285
G1 X127.684 Y93.005 E.27417
G1 X127.042 Y93.005 E.0285
G1 X132.051 Y98.014 E.31448
G1 X132.051 Y98.264 E.01109
G1 X131.659 Y98.264 E.01742
G1 X126.4 Y93.005 E.33016
G1 X125.758 Y93.005 E.0285
G1 X131.016 Y98.264 E.33016
G1 X130.374 Y98.264 E.0285
G1 X125.116 Y93.005 E.33016
G1 X124.474 Y93.005 E.0285
G1 X129.732 Y98.264 E.33016
G1 X129.09 Y98.264 E.0285
G1 X123.832 Y93.005 E.33016
G1 X123.19 Y93.005 E.0285
G1 X128.448 Y98.264 E.33016
G1 X127.806 Y98.264 E.0285
G1 X122.548 Y93.005 E.33016
G1 X121.905 Y93.005 E.0285
G1 X127.164 Y98.264 E.33016
G1 X126.522 Y98.264 E.0285
G1 X121.263 Y93.005 E.33016
G1 X120.621 Y93.005 E.0285
G1 X125.88 Y98.264 E.33016
G1 X125.238 Y98.264 E.0285
G1 X120.229 Y93.255 E.31447
G1 X120.229 Y93.897 E.0285
G1 X124.596 Y98.264 E.27416
G1 X123.954 Y98.264 E.0285
G1 X120.229 Y94.539 E.23385
G1 X120.229 Y95.181 E.0285
G1 X123.312 Y98.264 E.19354
G1 X122.67 Y98.264 E.0285
G1 X120.229 Y95.823 E.15323
G1 X120.229 Y96.465 E.0285
G1 X122.028 Y98.264 E.11292
G1 X121.386 Y98.264 E.0285
G1 X120.229 Y97.107 E.07261
G1 X120.229 Y97.749 E.0285
G1 X120.946 Y98.466 E.04498
G1 E-.8 F3600
G1 X120.388 Y92.976 F18000
G1 E.8 F3600
;TYPE:Gap infill
;WIDTH:0.15758
G1 F2400
G1 X120.264 Y92.942 E.00133
G1 X120.117 Y92.971 E.00155
; stop printing object flat-cat7-clip.stl id:6 copy 0
; printing object "flat-cat7-clip-tape.stl" id:7 copy 0
G1 E-.8 F3600
G1 X116.696 Y99.049 F18000
G1 E.8 F3600
;TYPE:Outer wall
;WIDTH:0.5
G1 F2400
G1 X103.304 Y99.049 E.58729
G1 X103.304 Y92.22 E.29947
G1 X116.696 Y92.22 E.58729
G1 X116.696 Y99.029 E.29859
G1 X116.247 Y98.6 F18000
;TYPE:Inner wall
G1 F2400
G1 X103.753 Y98.6 E.54796
G1 X103.753 Y92.669 E.26013
G1 X116.247 Y92.669 E.54796
G1 X116.247 Y98.58 E.25925
G1 E-.8 F3600
G1 X116.113 Y93.722 F18000
G1 E.8 F3600
;TYPE:Bottom surface
;WIDTH:0.505501
G1 F3000
G1 X115.396 Y93.005 E.04498
G1 X114.754 Y93.005 E.0285
G1 X115.911 Y94.162 E.07262
G1 X115.911 Y94.804 E.0285
G1 X114.112 Y93.005 E.11293
G1 X113.47 Y93.005 E.0285
G1 X115.911 Y95.446 E.15324
G1 X115.911 Y96.088 E.0285
G1 X112.828 Y93.005 E.19355
G1 X112.186 Y93.005 E.0285
G1 X115.911 Y96.73 E.23386
G1 X115.911 Y97.372 E.0285
G1 X111.544 Y93.005 E.27417
G1 X110.902 Y93.005 E.0285
G1 X115.911 Y98.014 E.31448
G1 X115.911 Y98.264 E.01109
G1 X115.519 Y98.264 E.01742
G1 X110.26 Y93.005 E.33016
G1 X109.618 Y93.005 E.0285
