; HEADER_BLOCK_START
; generated by AnycubicSlicerNext 1.3.9.4 on 2026-06-14 at 18:04:27
; total layer number: 101
; filament_density: 1.24
; filament_diameter: 1.75
; max_z_height: 20.24
; exclude_object: 0
; model_instances: 12
; source_info: {"models":[{"file_source":0,"mo_file_id":-1,"name":"flat-cat7-clip.stl_id_0_copy_0"},{"file_source":0,"mo_file_id":-1,"name":"flat-cat7-clip-tape.stl_id_1_copy_0"},{"file_source":0,"mo_file_id":-1,"name":"flat-cat7-clip.stl_id_2_copy_0"},{"file_source":0,"mo_file_id":-1,"name":"flat-cat7-clip-tape.stl_id_3_copy_0"},{"file_source":0,"mo_file_id":-1,"name":"flat-cat7-clip.stl_id_4_copy_0"},{"file_source":0,"mo_file_id":-1,"name":"flat-cat7-clip-tape.stl_id_5_copy_0"},{"file_source":0,"mo_file_id":-1,"name":"flat-cat7-clip.stl_id_6_copy_0"},{"file_source":0,"mo_file_id":-1,"name":"flat-cat7-clip-tape.stl_id_7_copy_0"},{"file_source":0,"mo_file_id":-1,"name":"flat-cat7-clip.stl_id_8_copy_0"},{"file_source":0,"mo_file_id":-1,"name":"flat-cat7-clip-tape.stl_id_9_copy_0"},{"file_source":0,"mo_file_id":-1,"name":"flat-cat7-clip.stl_id_10_copy_0"},{"file_source":0,"mo_file_id":-1,"name":"flat-cat7-clip-tape.stl_id_11_copy_0"}],"models_from":0,"plate_index":1,"slice_paras_process":1,"software_version":"AnycubicSlicerNext 1.3.9.4 20260319224604"}
; paint_info = [{"material_type":"PLA","paint_color":[105,164,255],"paint_index":0}]
; project_info = {"flush_multiplier":1.0,"flush_volumes_chan_multipliers":[1.0,1.0,1.0,1.0],"flush_volumes_matrix":[0.0],"flush_volumes_vector":[140.0,140.0]}
; flush_multiplier_calculate_by_acnext: 1
; test_mode: 0
; HEADER_BLOCK_END

; THUMBNAIL_BLOCK_START
; THUMBNAIL_BLOCK_END

; external perimeters extrusion width = 0.42mm
; perimeters extrusion width = 0.45mm
; infill extrusion width = 0.45mm
; solid infill extrusion width = 0.42mm
; top infill extrusion width = 0.42mm
; first layer extrusion width = 0.50mm

; external perimeters extrusion width = 0.42mm
; perimeters extrusion width = 0.45mm
; infill extrusion width = 0.45mm
; solid infill extrusion width = 0.42mm
; top infill extrusion width = 0.42mm
; first layer extrusion width = 0.50mm

; external perimeters extrusion width = 0.42mm
; perimeters extrusion width = 0.45mm
; infill extrusion width = 0.45mm
; solid infill extrusion width = 0.42mm
; top infill extrusion width = 0.42mm
; first layer extrusion width = 0.50mm

; external perimeters extrusion width = 0.42mm
; perimeters extrusion width = 0.45mm
; infill extrusion width = 0.45mm
; solid infill extrusion width = 0.42mm
; top infill extrusion width = 0.42mm
; first layer extrusion width = 0.50mm

; external perimeters extrusion width = 0.42mm
; perimeters extrusion width = 0.45mm
; infill extrusion width = 0.45mm
; solid infill extrusion width = 0.42mm
; top infill extrusion width = 0.42mm
; first layer extrusion width = 0.50mm

; external perimeters extrusion width = 0.42mm
; perimeters extrusion width = 0.45mm
; infill extrusion width = 0.45mm
; solid infill extrusion width = 0.42mm
; top infill extrusion width = 0.42mm
; first layer extrusion width = 0.50mm

; external perimeters extrusion width = 0.42mm
; perimeters extrusion width = 0.45mm
; infill extrusion width = 0.45mm
; solid infill extrusion width = 0.42mm
; top infill extrusion width = 0.42mm
; first layer extrusion width = 0.50mm

; external perimeters extrusion width = 0.42mm
; perimeters extrusion width = 0.45mm
; infill extrusion width = 0.45mm
; solid infill extrusion width = 0.42mm
; top infill extrusion width = 0.42mm
; first layer extrusion width = 0.50mm

; external perimeters extrusion width = 0.42mm
; perimeters extrusion width = 0.45mm
; infill extrusion width = 0.45mm
; solid infill extrusion width = 0.42mm
; top infill extrusion width = 0.42mm
; first layer extrusion width = 0.50mm

; external perimeters extrusion width = 0.42mm
; perimeters extrusion width = 0.45mm
; infill extrusion width = 0.45mm
; solid infill extrusion width = 0.42mm
; top infill extrusion width = 0.42mm
; first layer extrusion width = 0.50mm

; external perimeters extrusion width = 0.42mm
; perimeters extrusion width = 0.45mm
; infill extrusion width = 0.45mm
; solid infill extrusion width = 0.42mm
; top infill extrusion width = 0.42mm
; first layer extrusion width = 0.50mm

; external perimeters extrusion width = 0.42mm
; perimeters extrusion width = 0.45mm
; infill extrusion width = 0.45mm
; solid infill extrusion width = 0.42mm
; top infill extrusion width = 0.42mm
; first layer extrusion width = 0.50mm

; EXECUTABLE_BLOCK_START
M201 X2000 Y2000 Z800 E2000
M203 X300 Y300 Z8 E100
M204 P2000 R2000 T2000
M205 X10.00 Y10.00 Z2.00 E5.00
;TYPE:Custom
G90 ; use absolute coordinates
M83 ; extruder relative mode
M104 S220 ; set extruder temp
M140 S60 ; set bed temp
M190 S60 ; wait for bed temp
M109 S220 ; wait for extruder temp
G28                                        ; move X/Y/Z to min endstops
G1 Z0.28                                   ; lift nozzle a bit 
G92 E0 
G1 Y3 F1800                                    ; zero the extruded length 
G1 X60  E25 F500                       ; Extrude 25mm of filament in a 5cm line. 
G92 E0                                     ; zero the extruded length again 
G1 E-2 F500                                ; Retract a little 
G1 X70 F4000                              ; Quickly wipe away from the filament line
M117
G90
G21
M83 ; use relative distances for extrusion
; EXECUTABLE_BLOCK_HEAD
; filament start gcode
M75 ; The first extruder is ready.
M106 S0
;LAYER_CHANGE
;Z:0.24
;HEIGHT:0.24
; BEFORE_LAYER_CHANGE 0 @ 0.24mm
G92 E0
; AFTER_LAYER_CHANGE 0 @ 0.24mm
M204 S500
G1 E-.8 F3600
G1 X87.029 Y89.622 F18000
G1 Z.24
G1 E.8 F3600
;TYPE:Skirt
;WIDTH:0.5
G1 F3000
G1 X132.971 Y89.622 E2.01484
G1 X133.822 Y89.791 E.03806
G1 X133.991 Y89.861 E.00802
G1 X135.195 Y91.064 E.07464
G1 X135.434 Y92.085 E.04597
G1 X135.434 Y127.915 E1.57137
G1 X135.195 Y128.935 E.04595
G1 X133.991 Y130.139 E.07468
G1 X132.971 Y130.378 E.04594
G1 X87.029 Y130.378 E2.01482
G1 X86.01 Y130.139 E.04592
G1 X84.805 Y128.936 E.07469
G1 X84.566 Y127.915 E.04597
G1 X84.566 Y92.085 E1.57137
G1 X84.805 Y91.065 E.04595
G1 X86.009 Y89.861 E.07465
G1 X86.99 Y89.631 E.04421
; printing object "flat-cat7-clip.stl" id:0 copy 0
G1 E-.8 F3600
G1 X119.459 Y127.765 F18000
G1 E.8 F3600
;TYPE:Outer wall
G1 F2400
G1 X119.459 Y120.966 E.29818
G1 X132.821 Y120.966 E.58601
G1 X132.821 Y127.765 E.29818
G1 X119.479 Y127.765 E.58513
G1 X119.907 Y127.317 F18000
;TYPE:Inner wall
G1 F2400
G1 X119.907 Y121.415 E.25884
G1 X132.373 Y121.415 E.54667
G1 X132.373 Y127.317 E.25884
G1 X119.927 Y127.317 E.54579
G1 E-.8 F3600
G1 X132.238 Y122.464 F18000
G1 E.8 F3600
;TYPE:Bottom surface
;WIDTH:0.504018
G1 F3000
G1 X131.525 Y121.751 E.04464
G1 X130.885 Y121.751 E.02832
G1 X132.036 Y122.902 E.07206
G1 X132.036 Y123.542 E.02832
G1 X130.245 Y121.751 E.1121
G1 X129.605 Y121.751 E.02832
G1 X132.036 Y124.182 E.15215
G1 X132.036 Y124.822 E.02832
G1 X128.965 Y121.751 E.1922
G1 X128.325 Y121.751 E.02832
G1 X132.036 Y125.462 E.23224
G1 X132.036 Y126.102 E.02832
G1 X127.685 Y121.751 E.27229
G1 X127.045 Y121.751 E.02832
G1 X132.036 Y126.742 E.31233
G1 X132.036 Y126.98 E.01054
G1 X131.634 Y126.98 E.01778
G1 X126.405 Y121.751 E.32724
G1 X125.765 Y121.751 E.02832
G1 X130.994 Y126.98 E.32724
G1 X130.355 Y126.98 E.02832
G1 X125.125 Y121.751 E.32724
G1 X124.485 Y121.751 E.02832
G1 X129.715 Y126.98 E.32724
G1 X129.075 Y126.98 E.02832
G1 X123.845 Y121.751 E.32724
G1 X123.205 Y121.751 E.02832
G1 X128.435 Y126.98 E.32724
G1 X127.795 Y126.98 E.02832
G1 X122.565 Y121.751 E.32724
G1 X121.925 Y121.751 E.02832
G1 X127.155 Y126.98 E.32724
G1 X126.515 Y126.98 E.02832
G1 X121.285 Y121.751 E.32724
G1 X120.645 Y121.751 E.02832
G1 X125.875 Y126.98 E.32724
G1 X125.235 Y126.98 E.02832
G1 X120.244 Y121.989 E.31233
G1 X120.244 Y122.629 E.02832
G1 X124.595 Y126.98 E.27228
G1 X123.955 Y126.98 E.02832
G1 X120.244 Y123.269 E.23224
G1 X120.244 Y123.909 E.02832
G1 X123.315 Y126.98 E.19219
G1 X122.675 Y126.98 E.02832
G1 X120.244 Y124.549 E.15214
G1 X120.244 Y125.189 E.02832
G1 X122.035 Y126.98 E.1121
G1 X121.395 Y126.98 E.02832
G1 X120.244 Y125.829 E.07205
G1 X120.244 Y126.469 E.02832
G1 X120.957 Y127.182 E.04463
G1 E-.8 F3600
G1 X120.413 Y121.721 F18000
G1 E.8 F3600
;TYPE:Gap infill
;WIDTH:0.150156
G1 F2400
G1 X120.28 Y121.682 E.00133
G1 X120.132 Y121.712 E.00146
; stop printing object flat-cat7-clip.stl id:0 copy 0
; printing object "flat-cat7-clip-tape.stl" id:1 copy 0
G1 E-.8 F3600
G1 X132.821 Y118.188 F18000
G1 E.8 F3600
;TYPE:Outer wall
;WIDTH:0.5
G1 F2400
G1 X119.459 Y118.188 E.58601
G1 X119.459 Y111.389 E.29818
G1 X132.821 Y111.389 E.58601
G1 X132.821 Y118.168 E.2973
G1 X132.373 Y117.74 F18000
;TYPE:Inner wall
G1 F2400
G1 X119.907 Y117.74 E.54667
G1 X119.907 Y111.837 E.25884
G1 X132.373 Y111.837 E.54667
G1 X132.373 Y117.72 E.25797
G1 E-.8 F3600
G1 X132.238 Y112.887 F18000
G1 E.8 F3600
;TYPE:Bottom surface
;WIDTH:0.504018
G1 F3000
G1 X131.525 Y112.174 E.04464
G1 X130.885 Y112.174 E.02832
G1 X132.036 Y113.325 E.07206
G1 X132.036 Y113.965 E.02832
G1 X130.245 Y112.174 E.1121
G1 X129.605 Y112.174 E.02832
G1 X132.036 Y114.605 E.15215
G1 X132.036 Y115.245 E.02832
G1 X128.965 Y112.174 E.1922
G1 X128.325 Y112.174 E.02832
G1 X132.036 Y115.885 E.23224
G1 X132.036 Y116.525 E.02832
G1 X127.685 Y112.174 E.27229
G1 X127.045 Y112.174 E.02832
G1 X132.036 Y117.165 E.31233
G1 X132.036 Y117.403 E.01054
G1 X131.634 Y117.403 E.01778
G1 X126.405 Y112.174 E.32724
G1 X125.765 Y112.174 E.02832
G1 X130.994 Y117.403 E.32724
G1 X130.355 Y117.403 E.02832
G1 X125.125 Y112.174 E.32724
G1 X124.485 Y112.174 E.02832
G1 X129.715 Y117.403 E.32724
G1 X129.075 Y117.403 E.02832
G1 X123.845 Y112.174 E.32724
G1 X123.205 Y112.174 E.02832
G1 X128.435 Y117.403 E.32724
G1 X127.795 Y117.403 E.02832
G1 X122.565 Y112.174 E.32724
G1 X121.925 Y112.174 E.02832
G1 X127.155 Y117.403 E.32724
G1 X126.515 Y117.403 E.02832
G1 X121.285 Y112.174 E.32724
G1 X120.645 Y112.174 E.02832
G1 X125.875 Y117.403 E.32724
G1 X125.235 Y117.403 E.02832
G1 X120.244 Y112.412 E.31233
G1 X120.244 Y113.052 E.02832
G1 X124.595 Y117.403 E.27228
G1 X123.955 Y117.403 E.02832
G1 X120.244 Y113.692 E.23224
G1 X120.244 Y114.332 E.02832
G1 X123.315 Y117.403 E.19219
G1 X122.675 Y117.403 E.02832
G1 X120.244 Y114.972 E.15214
G1 X120.244 Y115.612 E.02832
G1 X122.035 Y117.403 E.1121
G1 X121.395 Y117.403 E.02832
G1 X120.244 Y116.252 E.07205
G1 X120.244 Y116.892 E.02832
G1 X120.957 Y117.605 E.04463
G1 E-.8 F3600
G1 X120.413 Y112.144 F18000
G1 E.8 F3600
;TYPE:Gap infill
;WIDTH:0.150156
G1 F2400
G1 X120.28 Y112.105 E.00133
G1 X120.132 Y112.135 E.00146
; stop printing object flat-cat7-clip-tape.stl id:1 copy 0
; printing object "flat-cat7-clip.stl" id:2 copy 0
G1 E-.8 F3600
G1 X119.459 Y108.611 F18000
G1 E.8 F3600
;TYPE:Outer wall
;WIDTH:0.5
G1 F2400
G1 X119.459 Y101.812 E.29818
G1 X132.821 Y101.812 E.58601
G1 X132.821 Y108.611 E.29818
G1 X119.479 Y108.611 E.58513
G1 X119.907 Y108.163 F18000
;TYPE:Inner wall
G1 F2400
G1 X119.907 Y102.26 E.25884
G1 X132.373 Y102.26 E.54667
G1 X132.373 Y108.163 E.25884
G1 X119.927 Y108.163 E.54579
G1 E-.8 F3600
G1 X132.238 Y103.31 F18000
G1 E.8 F3600
;TYPE:Bottom surface
;WIDTH:0.504018
G1 F3000
G1 X131.525 Y102.597 E.04464
G1 X130.885 Y102.597 E.02832
G1 X132.036 Y103.748 E.07206
G1 X132.036 Y104.388 E.02832
G1 X130.245 Y102.597 E.1121
G1 X129.605 Y102.597 E.02832
G1 X132.036 Y105.028 E.15215
G1 X132.036 Y105.668 E.02832
G1 X128.965 Y102.597 E.1922
G1 X128.325 Y102.597 E.02832
G1 X132.036 Y106.308 E.23224
G1 X132.036 Y106.948 E.02832
G1 X127.685 Y102.597 E.27229
G1 X127.045 Y102.597 E.02832
G1 X132.036 Y107.588 E.31233
G1 X132.036 Y107.826 E.01054
G1 X131.634 Y107.826 E.01778
G1 X126.405 Y102.597 E.32724
G1 X125.765 Y102.597 E.02832
G1 X130.994 Y107.826 E.32724
G1 X130.355 Y107.826 E.02832
G1 X125.125 Y102.597 E.32724
G1 X124.485 Y102.597 E.02832
G1 X129.715 Y107.826 E.32724
G1 X129.075 Y107.826 E.02832
G1 X123.845 Y102.597 E.32724
G1 X123.205 Y102.597 E.02832
G1 X128.435 Y107.826 E.32724
G1 X127.795 Y107.826 E.02832
G1 X122.565 Y102.597 E.32724
G1 X121.925 Y102.597 E.02832
G1 X127.155 Y107.826 E.32724
G1 X126.515 Y107.826 E.02832
G1 X121.285 Y102.597 E.32724
G1 X120.645 Y102.597 E.02832
G1 X125.875 Y107.826 E.32724
G1 X125.235 Y107.826 E.02832
G1 X120.244 Y102.835 E.31233
G1 X120.244 Y103.475 E.02832
G1 X124.595 Y107.826 E.27228
G1 X123.955 Y107.826 E.02832
G1 X120.244 Y104.115 E.23224
G1 X120.244 Y104.755 E.02832
G1 X123.315 Y107.826 E.19219
G1 X122.675 Y107.826 E.02832
G1 X120.244 Y105.395 E.15214
G1 X120.244 Y106.035 E.02832
G1 X122.035 Y107.826 E.1121
G1 X121.395 Y107.826 E.02832
G1 X120.244 Y106.675 E.07205
G1 X120.244 Y107.315 E.02832
G1 X120.957 Y108.028 E.04463
G1 E-.8 F3600
G1 X120.413 Y102.567 F18000
G1 E.8 F3600
;TYPE:Gap infill
;WIDTH:0.150156
G1 F2400
G1 X120.28 Y102.528 E.00133
G1 X120.132 Y102.558 E.00146
; stop printing object flat-cat7-clip.stl id:2 copy 0
; printing object "flat-cat7-clip.stl" id:6 copy 0
G1 E-.8 F3600
G1 X119.459 Y99.034 F18000
G1 E.8 F3600
;TYPE:Outer wall
;WIDTH:0.5
G1 F2400
G1 X119.459 Y92.235 E.29818
G1 X132.821 Y92.235 E.58601
G1 X132.821 Y99.034 E.29818
G1 X119.479 Y99.034 E.58513
G1 X119.907 Y98.585 F18000
;TYPE:Inner wall
G1 F2400
G1 X119.907 Y92.683 E.25884
G1 X132.373 Y92.683 E.54667
G1 X132.373 Y98.585 E.25884
G1 X119.927 Y98.585 E.54579
G1 E-.8 F3600
G1 X132.238 Y93.733 F18000
G1 E.8 F3600
;TYPE:Bottom surface
;WIDTH:0.504018
G1 F3000
G1 X131.525 Y93.02 E.04464
G1 X130.885 Y93.02 E.02832
G1 X132.036 Y94.171 E.07206
G1 X132.036 Y94.811 E.02832
G1 X130.245 Y93.02 E.1121
G1 X129.605 Y93.02 E.02832
G1 X132.036 Y95.451 E.15215
G1 X132.036 Y96.091 E.02832
G1 X128.965 Y93.02 E.1922
G1 X128.325 Y93.02 E.02832
G1 X132.036 Y96.731 E.23224
G1 X132.036 Y97.371 E.02832
G1 X127.685 Y93.02 E.27229
G1 X127.045 Y93.02 E.02832
G1 X132.036 Y98.011 E.31233
G1 X132.036 Y98.249 E.01054
G1 X131.634 Y98.249 E.01778
G1 X126.405 Y93.02 E.32724
G1 X125.765 Y93.02 E.02832
G1 X130.994 Y98.249 E.32724
G1 X130.355 Y98.249 E.02832
G1 X125.125 Y93.02 E.32724
G1 X124.485 Y93.02 E.02832
G1 X129.715 Y98.249 E.32724
G1 X129.075 Y98.249 E.02832
G1 X123.845 Y93.02 E.32724
G1 X123.205 Y93.02 E.02832
G1 X128.435 Y98.249 E.32724
G1 X127.795 Y98.249 E.02832
G1 X122.565 Y93.02 E.32724
G1 X121.925 Y93.02 E.02832
G1 X127.155 Y98.249 E.32724
G1 X126.515 Y98.249 E.02832
G1 X121.285 Y93.02 E.32724
G1 X120.645 Y93.02 E.02832
G1 X125.875 Y98.249 E.32724
G1 X125.235 Y98.249 E.02832
G1 X120.244 Y93.258 E.31233
G1 X120.244 Y93.898 E.02832
G1 X124.595 Y98.249 E.27228
G1 X123.955 Y98.249 E.02832
G1 X120.244 Y94.538 E.23224
G1 X120.244 Y95.178 E.02832
G1 X123.315 Y98.249 E.19219
G1 X122.675 Y98.249 E.02832
G1 X120.244 Y95.818 E.15214
G1 X120.244 Y96.458 E.02832
G1 X122.035 Y98.249 E.1121
G1 X121.395 Y98.249 E.02832
G1 X120.244 Y97.098 E.07205
G1 X120.244 Y97.738 E.02832
G1 X120.957 Y98.451 E.04463
G1 E-.8 F3600
G1 X120.413 Y92.99 F18000
G1 E.8 F3600
;TYPE:Gap infill
;WIDTH:0.150156
G1 F2400
G1 X120.28 Y92.951 E.00133
G1 X120.132 Y92.981 E.00146
; stop printing object flat-cat7-clip.stl id:6 copy 0
; printing object "flat-cat7-clip-tape.stl" id:7 copy 0
G1 E-.8 F3600
G1 X116.681 Y99.034 F18000
G1 E.8 F3600
;TYPE:Outer wall
;WIDTH:0.5
G1 F2400
G1 X103.319 Y99.034 E.58601
G1 X103.319 Y92.235 E.29818
G1 X116.681 Y92.235 E.58601
G1 X116.681 Y99.014 E.2973
G1 X116.233 Y98.585 F18000
;TYPE:Inner wall
G1 F2400
G1 X103.767 Y98.585 E.54667
G1 X103.767 Y92.683 E.25884
G1 X116.233 Y92.683 E.54667
G1 X116.233 Y98.565 E.25797
G1 E-.8 F3600
G1 X116.098 Y93.733 F18000
G1 E.8 F3600
;TYPE:Bottom surface
;WIDTH:0.504018
G1 F3000
G1 X115.385 Y93.02 E.04464
G1 X114.745 Y93.02 E.02832
G1 X115.896 Y94.171 E.07206
G1 X115.896 Y94.811 E.02832
G1 X114.105 Y93.02 E.1121
G1 X113.465 Y93.02 E.02832
G1 X115.896 Y95.451 E.15215
G1 X115.896 Y96.091 E.02832
G1 X112.825 Y93.02 E.1922
G1 X112.185 Y93.02 E.02832
G1 X115.896 Y96.731 E.23224
G1 X115.896 Y97.371 E.02832
G1 X111.545 Y93.02 E.27229
G1 X110.905 Y93.02 E.02832
G1 X115.896 Y98.011 E.31233
