; HEADER_BLOCK_START
; generated by AnycubicSlicerNext 1.3.9.3 on 2026-03-20 at 07:46:15
; total layer number: 177
; filament_density: 1.24
; filament_diameter: 1.75
; max_z_height: 35.04
; exclude_object: 0
; model_instances: 1
; source_info: {"models":[{"file_source":0,"mo_file_id":-1,"name":"Rack_Edge_id_0_copy_0"}],"models_from":0,"plate_index":1,"slice_paras_process":1,"software_version":"AnycubicSlicerNext 1.3.9.3 20260131153104"}
; paint_info = [{"material_type":"PLA","paint_color":[105,164,255],"paint_index":0}]
; project_info = {"flush_multiplier":1.0,"flush_volumes_chan_multipliers":[1.0,1.0,1.0,1.0],"flush_volumes_matrix":[0.0],"flush_volumes_vector":[140.0,140.0]}
; flush_multiplier_calculate_by_acnext: 1
; test_mode: 0
; HEADER_BLOCK_END

; THUMBNAIL_BLOCK_START
; THUMBNAIL_BLOCK_END

; external perimeters extrusion width = 0.42mm
; perimeters extrusion width = 0.45mm
; infill extrusion width = 0.45mm
; solid infill extrusion width = 0.42mm
; top infill extrusion width = 0.42mm
; support material extrusion width = 0.40mm
; first layer extrusion width = 0.50mm

; EXECUTABLE_BLOCK_START
M201 X2000 Y2000 Z800 E2000
M203 X300 Y300 Z8 E100
M204 P2000 R2000 T2000
M205 X10.00 Y10.00 Z2.00 E5.00
;TYPE:Custom
G90 ; use absolute coordinates
M83 ; extruder relative mode
M104 S220 ; set extruder temp
M140 S60 ; set bed temp
M190 S60 ; wait for bed temp
M109 S220 ; wait for extruder temp
G28                                        ; move X/Y/Z to min endstops
G1 Z0.28                                   ; lift nozzle a bit 
G92 E0 
G1 Y3 F1800                                    ; zero the extruded length 
G1 X60  E25 F500                       ; Extrude 25mm of filament in a 5cm line. 
G92 E0                                     ; zero the extruded length again 
G1 E-2 F500                                ; Retract a little 
G1 X70 F4000                              ; Quickly wipe away from the filament line
M117
G90
G21
M83 ; use relative distances for extrusion
; EXECUTABLE_BLOCK_HEAD
; filament start gcode
M75 ; The first extruder is ready.
M106 S0
;LAYER_CHANGE
;Z:0.24
;HEIGHT:0.24
; BEFORE_LAYER_CHANGE 0 @ 0.24mm
G92 E0
; AFTER_LAYER_CHANGE 0 @ 0.24mm
M204 S500
G1 E-.8 F3600
G1 X29.944 Y26.018 F18000
G1 Z.24
G1 E.8 F3600
;TYPE:Skirt
;WIDTH:0.5
G1 F3000
G1 X36.331 Y17.85 E.45475
G1 X37.499 Y16.993 E.06353
G1 X38.437 Y16.823 E.04178
G1 X43.965 Y16.823 E.24244
G1 X45.855 Y17.606 E.08971
G1 X202.394 Y174.145 E9.70886
G1 X203.177 Y176.035 E.08971
G1 X203.177 Y181.563 E.24244
G1 X202.784 Y182.958 E.06353
G1 X202.151 Y183.669 E.04178
G1 X179.617 Y201.289 E1.2545
G1 X178.277 Y201.839 E.06353
G1 X176.847 Y201.609 E.06353
G1 X176.081 Y201.074 E.04098
G1 X18.926 Y43.919 E9.74701
G1 X18.218 Y42.656 E.06353
G1 X18.273 Y41.208 E.06353
G1 X18.711 Y40.383 E.04098
G1 X29.919 Y26.049 E.79799
G1 X30.272 Y26.326 F18000
G1 F3000
G1 X36.685 Y18.126 E.45651
G1 X37.768 Y17.375 E.05784
G1 X38.437 Y17.272 E.02965
G1 X43.965 Y17.272 E.24244
G1 X45.538 Y17.923 E.07466
G1 X202.077 Y174.463 E9.70886
G1 X202.728 Y176.035 E.07466
G1 X202.728 Y181.563 E.24244
G1 X202.337 Y182.823 E.05784
G1 X201.874 Y183.316 E.02965
G1 X179.341 Y200.936 E1.2545
G1 X178.108 Y201.404 E.05784
G1 X176.398 Y200.757 E.08018
G1 X19.243 Y43.602 E9.74701
G1 X18.629 Y42.435 E.05784
G1 X19.064 Y40.659 E.08018
G1 X30.248 Y26.357 E.79623
; printing object "Rack Edge" id:0 copy 0
G1 E-.8 F3600
G1 X41.255 Y21.424 F18000
G1 E.8 F3600
;TYPE:Support interface
;WIDTH:0.4
G1 F2400
G1 X40.922 Y21.424 E.01135
G1 X40.922 Y21.431 E.00022
G1 X41.104 Y21.431 E.00621
G1 X41.434 Y21.759 E.01584
G1 X41.434 Y21.424 E.0114
G1 X41.657 Y21.981 F18000
G1 F2400
G1 X42.036 Y21.981 E.01294
G1 X42.036 Y22.36 E.0129
G1 X41.695 Y22.019 E.01644
G1 X42.291 Y22.539 F18000
G1 F2400
G1 X42.291 Y22.614 E.00256
G1 X42.593 Y22.916 E.01457
G1 X42.593 Y22.539 E.01285
G1 X42.469 Y22.539 E.00423
G1 X42.969 Y23.096 F18000
G1 F2400
G1 X42.773 Y23.096 E.00669
G1 X43.148 Y23.472 E.0181
G1 X43.148 Y23.096 E.01282
G1 X43.328 Y23.653 F18000
G1 F2400
G1 X43.708 Y23.653 E.01294
G1 X43.708 Y24.034 E.01299
G1 X43.366 Y23.691 E.01651
G1 X44.183 Y23.653 F18000
G1 F2400
G1 X44.265 Y23.653 E.00277
G1 X44.265 Y24.129 E.01623
G1 X44.005 Y23.868 E.01254
G1 X44.005 Y23.653 E.00735
G1 X43.886 Y23.653 E.00405
G1 X43.79 Y23.653 E.00327
G1 X43.879 Y23.742 E.00429
G1 X44.005 Y24.21 F18000
G1 F2400
G1 X44.005 Y24.333 E.00418
G1 X44.265 Y24.593 E.01255
G1 X44.265 Y24.21 E.01307
G1 X44.183 Y24.21 E.00277
G1 X44.768 Y24.21 F18000
G1 F2400
G1 X44.345 Y24.21 E.01441
G1 X44.822 Y24.688 E.02301
G1 X44.822 Y24.21 E.0163
G1 X44.438 Y24.767 F18000
G1 F2400
G1 X44.822 Y24.767 E.01309
G1 X44.822 Y25.153 E.01315
G1 X44.475 Y24.805 E.01673
G1 X45.03 Y25.362 F18000
G1 F2400
G1 X45.379 Y25.712 E.01684
G1 X45.379 Y25.324 E.01323
G1 X44.992 Y25.324 E.01317
G1 X45.325 Y24.767 F18000
G1 F2400
G1 X44.9 Y24.767 E.01448
G1 X45.379 Y25.247 E.0231
G1 X45.379 Y24.767 E.01636
G1 X45.898 Y25.324 F18000
G1 F2400
G1 X45.936 Y25.324 E.00131
G1 X45.936 Y25.806 E.01643
G1 X45.719 Y25.588 E.01047
G1 X45.719 Y25.324 E.00901
G1 X45.456 Y25.324 E.00898
G1 X45.593 Y25.462 E.00664
G1 X45.719 Y25.881 F18000
G1 F2400
G1 X45.719 Y26.054 E.00588
G1 X45.936 Y26.271 E.01047
G1 X45.936 Y25.881 E.0133
G1 X45.898 Y25.881 E.00131
G1 X46.439 Y25.881 F18000
G1 F2400
G1 X46.011 Y25.881 E.01461
G1 X46.493 Y26.365 E.02328
G1 X46.493 Y25.881 E.01649
G1 X46.102 Y26.438 F18000
G1 F2400
G1 X46.493 Y26.438 E.01333
G1 X46.493 Y26.831 E.01338
G1 X46.14 Y26.476 E.01706
G1 X46.576 Y26.438 F18000
G1 F2400
G1 X46.576 Y26.448 E.00035
G1 X47.05 Y26.924 E.02288
G1 X47.05 Y26.438 E.01656
G1 X46.755 Y26.438 E.01007
G1 X46.657 Y26.995 F18000
G1 F2400
G1 X47.05 Y26.995 E.0134
G1 X47.05 Y27.39 E.01346
G1 X46.695 Y27.033 E.01717
G1 X47.607 Y27 F18000
G1 F2400
G1 X47.607 Y27.483 E.01647
G1 X47.433 Y27.308 E.0084
G1 X47.433 Y26.995 E.01067
G1 X47.121 Y26.995 E.01064
G1 X47.307 Y27.182 E.00899
G1 X47.307 Y27.648 F18000
G1 F2400
G1 X47.212 Y27.552 E.00462
G1 X47.433 Y27.552 E.00755
G1 X47.433 Y27.775 E.00758
G1 X47.607 Y27.95 E.0084
G1 X47.607 Y27.557 E.01338
G1 X48.111 Y27.552 F18000
G1 F2400
G1 X47.676 Y27.552 E.01481
G1 X48.164 Y28.042 E.02356
G1 X48.164 Y27.552 E.01669
G1 X47.766 Y28.109 F18000
G1 F2400
G1 X48.164 Y28.109 E.01356
G1 X48.164 Y28.509 E.01361
G1 X47.804 Y28.147 E.01739
G1 X48.29 Y28.109 F18000
G1 F2400
G1 X48.29 Y28.168 E.00201
G1 X48.721 Y28.601 E.02081
G1 X48.721 Y28.109 E.01675
G1 X48.469 Y28.109 E.0086
G1 X48.321 Y28.666 F18000
G1 F2400
G1 X48.721 Y28.666 E.01364
G1 X48.721 Y29.068 E.01369
G1 X48.359 Y28.704 E.0175
G1 E-.8 F3600
G1 X49.835 Y29.224 F18000
G1 E.8 F3600
G1 F2400
G1 X49.835 Y29.717 E.01683
G1 X49.342 Y29.224 E.0238
G1 X49.782 Y29.224 E.015
G1 X49.278 Y28.714 F18000
G1 F2400
G1 X49.278 Y29.16 E.0152
G1 X49.147 Y29.029 E.00632
G1 X49.147 Y28.666 E.01234
G1 X48.787 Y28.666 E.0123
G1 X49.021 Y28.902 E.01134
G1 X49.278 Y29.271 F18000
G1 F2400
G1 X49.278 Y29.627 E.01213
G1 X49.147 Y29.496 E.00631
G1 X49.147 Y29.224 E.00928
G1 X48.876 Y29.224 E.00925
G1 X49.021 Y29.369 E.00702
G1 X49.432 Y29.781 F18000
G1 F2400
G1 X49.835 Y29.781 E.01375
G1 X49.836 Y30.184 E.01375
G1 X49.47 Y29.818 E.01761
G1 X50.004 Y29.781 F18000
G1 F2400
G1 X50.004 Y29.886 E.0036
G1 X50.393 Y30.274 E.0187
G1 X50.393 Y29.781 E.01683
G1 X50.183 Y29.781 E.00714
G1 X50.004 Y30.338 F18000
G1 F2400
G1 X50.004 Y30.353 E.00052
G1 X50.393 Y30.741 E.0187
G1 X50.393 Y30.338 E.01375
G1 X50.183 Y30.338 E.00714
G1 X50.683 Y30.338 F18000
G1 F2400
G1 X50.456 Y30.338 E.00774
G1 X50.862 Y30.743 E.01955
G1 X50.862 Y30.338 E.01382
G1 X50.862 Y30.895 F18000
G1 F2400
G1 X50.862 Y31.21 E.01074
G1 X50.546 Y30.895 E.01519
G1 X50.683 Y30.895 E.00466
G1 X51.141 Y31.49 F18000
G1 F2400
G1 X51.507 Y31.855 E.01761
G1 X51.507 Y31.452 E.01375
G1 X51.103 Y31.452 E.01375
G1 X51.453 Y30.895 F18000
G1 F2400
G1 X51.013 Y30.895 E.015
G1 X51.507 Y31.389 E.0238
G1 X51.507 Y30.895 E.01683
G1 X51.897 Y31.452 F18000
G1 F2400
G1 X52.064 Y31.452 E.00568
G1 X52.064 Y31.946 E.01683
G1 X51.719 Y31.6 E.01664
G1 X51.719 Y31.452 E.00506
G1 X51.719 Y32.009 F18000
G1 F2400
G1 X51.719 Y32.067 E.00198
G1 X52.064 Y32.412 E.01664
G1 X52.064 Y32.009 E.01375
G1 X51.897 Y32.009 E.00568
G1 X52.397 Y32.009 F18000
G1 F2400
G1 X52.127 Y32.009 E.0092
G1 X52.576 Y32.458 E.02162
G1 X52.576 Y32.009 E.01529
G1 X52.397 Y32.566 F18000
G1 F2400
G1 X52.218 Y32.566 E.00612
G1 X52.576 Y32.924 E.01726
G1 X52.576 Y32.566 E.01221
G1 X53.124 Y32.566 F18000
G1 F2400
G1 X52.684 Y32.566 E.015
G1 X53.178 Y33.06 E.0238
G1 X53.178 Y32.566 E.01683
G1 X52.775 Y33.123 F18000
G1 F2400
G1 X53.178 Y33.123 E.01375
G1 X53.178 Y33.526 E.01375
G1 X52.812 Y33.161 E.01761
G1 X53.307 Y33.188 F18000
G1 F2400
G1 X53.241 Y33.123 E.00314
G1 X53.433 Y33.123 E.00653
G1 X53.433 Y33.315 E.00653
G1 X53.735 Y33.617 E.01457
G1 X53.735 Y33.123 E.01683
G1 X53.611 Y33.123 E.00422
G1 X53.433 Y33.68 F18000
G1 F2400
G1 X53.433 Y33.781 E.00345
G1 X53.735 Y34.084 E.01457
G1 X53.735 Y33.68 E.01375
G1 X53.611 Y33.68 E.00422
G1 X54.111 Y33.68 F18000
G1 F2400
G1 X53.798 Y33.68 E.01066
G1 X54.29 Y34.172 E.02369
G1 X54.29 Y33.68 E.01675
G1 X54.111 Y34.237 F18000
G1 F2400
G1 X53.889 Y34.237 E.00758
G1 X54.29 Y34.638 E.01933
G1 X54.29 Y34.237 E.01367
G1 X54.796 Y34.237 F18000
G1 F2400
G1 X54.355 Y34.237 E.015
G1 X54.849 Y34.731 E.0238
G1 X54.849 Y34.237 E.01683
G1 X54.446 Y34.794 F18000
G1 F2400
G1 X54.849 Y34.794 E.01375
G1 X54.849 Y35.198 E.01375
G1 X54.484 Y34.832 E.01761
G1 X55.325 Y34.794 F18000
G1 F2400
G1 X55.406 Y34.794 E.00275
G1 X55.406 Y35.288 E.01683
G1 X55.147 Y35.029 E.0125
G1 X55.147 Y34.794 E.00799
G1 X54.913 Y34.794 E.00799
G1 X55.021 Y34.903 E.00521
G1 X55.147 Y35.351 F18000
G1 F2400
G1 X55.147 Y35.495 E.00491
G1 X55.406 Y35.755 E.0125
G1 X55.406 Y35.351 E.01375
G1 X55.325 Y35.351 E.00275
G1 X55.91 Y35.351 F18000
G1 F2400
G1 X55.47 Y35.351 E.015
G1 X55.963 Y35.845 E.0238
G1 X55.963 Y35.351 E.01683
G1 X55.56 Y35.908 F18000
G1 F2400
G1 X55.963 Y35.908 E.01375
G1 X55.963 Y36.312 E.01375
G1 X55.598 Y35.946 E.01761
G1 X56.155 Y36.503 F18000
G1 F2400
G1 X56.52 Y36.869 E.01761
G1 X56.52 Y36.466 E.01375
G1 X56.117 Y36.466 E.01375
G1 X56.467 Y35.908 F18000
G1 F2400
G1 X56.027 Y35.908 E.015
G1 X56.52 Y36.402 E.0238
G1 X56.52 Y35.908 E.01683
G1 X57.04 Y36.466 F18000
G1 F2400
G1 X57.078 Y36.466 E.00129
G1 X57.078 Y36.959 E.01683
G1 X56.861 Y36.743 E.01043
G1 X56.861 Y36.466 E.00945
G1 X56.584 Y36.466 E.00945
G1 X56.735 Y36.617 E.00728
G1 X56.735 Y37.083 F18000
G1 F2400
G1 X56.674 Y37.023 E.00292
G1 X56.861 Y37.023 E.00637
G1 X56.861 Y37.21 E.00637
G1 X57.078 Y37.426 E.01043
G1 X57.078 Y37.023 E.01375
G1 X57.04 Y37.023 E.00129
G1 X57.581 Y37.023 F18000
G1 F2400
G1 X57.141 Y37.023 E.015
G1 X57.635 Y37.516 E.0238
G1 X57.635 Y37.023 E.01683
G1 X57.231 Y37.58 F18000
G1 F2400
G1 X57.635 Y37.58 E.01375
G1 X57.635 Y37.983 E.01375
G1 X57.269 Y37.618 E.01761
G1 X57.718 Y37.58 F18000
G1 F2400
G1 X57.718 Y37.6 E.00069
G1 X58.192 Y38.073 E.02282
G1 X58.192 Y37.58 E.01683
G1 X57.897 Y37.58 E.01005
G1 X57.788 Y38.137 F18000
G1 F2400
G1 X58.192 Y38.137 E.01375
G1 X58.192 Y38.54 E.01375
G1 X57.826 Y38.175 E.01761
G1 X58.749 Y38.142 F18000
G1 F2400
G1 X58.749 Y38.631 E.01665
G1 X58.575 Y38.457 E.00836
G1 X58.575 Y38.137 E.01091
G1 X58.255 Y38.137 E.01091
G1 X58.449 Y38.331 E.00935
G1 X58.449 Y38.797 F18000
G1 F2400
G1 X58.345 Y38.694 E.00499
G1 X58.575 Y38.694 E.00783
G1 X58.575 Y38.924 E.00783
G1 X58.749 Y39.097 E.00836
G1 X58.749 Y38.699 E.01357
G1 X59.252 Y38.694 F18000
G1 F2400
G1 X58.812 Y38.694 E.015
G1 X59.306 Y39.188 E.0238
G1 X59.306 Y38.694 E.01683
G1 X58.902 Y39.251 F18000
G1 F2400
G1 X59.306 Y39.251 E.01375
G1 X59.306 Y39.654 E.01375
G1 X58.94 Y39.289 E.01761
G1 X59.432 Y39.251 F18000
G1 F2400
G1 X59.432 Y39.314 E.00215
G1 X59.863 Y39.745 E.02075
G1 X59.863 Y39.251 E.01683
G1 X59.611 Y39.251 E.00859
G1 X59.46 Y39.808 F18000
G1 F2400
G1 X59.863 Y39.808 E.01375
G1 X59.863 Y40.211 E.01375
G1 X59.497 Y39.846 E.01761
G1 E-.8 F3600
G1 X60.977 Y40.365 F18000
G1 E.8 F3600
G1 F2400
G1 X60.977 Y40.859 E.01683
G1 X60.483 Y40.365 E.0238
G1 X60.924 Y40.365 E.015
G1 X60.42 Y39.856 F18000
G1 F2400
G1 X60.42 Y40.302 E.01519
G1 X60.289 Y40.171 E.00629
G1 X60.289 Y39.808 E.01238
G1 X59.926 Y39.808 E.01238
G1 X60.163 Y40.045 E.01142
G1 X60.42 Y40.413 F18000
G1 F2400
G1 X60.42 Y40.768 E.01211
G1 X60.289 Y40.638 E.00629
G1 X60.289 Y40.365 E.0093
G1 X60.017 Y40.365 E.0093
G1 X60.163 Y40.512 E.00706
G1 X60.574 Y40.922 F18000
G1 F2400
G1 X60.977 Y40.922 E.01375
G1 X60.977 Y41.326 E.01375
G1 X60.612 Y40.96 E.01761
G1 X61.147 Y40.922 F18000
G1 F2400
G1 X61.147 Y41.028 E.00362
G1 X61.534 Y41.416 E.01868
G1 X61.534 Y40.922 E.01683
G1 X61.325 Y40.922 E.00713
G1 X61.147 Y41.479 F18000
G1 F2400
G1 X61.147 Y41.495 E.00053
G1 X61.534 Y41.883 E.01868
G1 X61.534 Y41.479 E.01375
G1 X61.325 Y41.479 E.00713
G1 X61.825 Y41.479 F18000
G1 F2400
G1 X61.597 Y41.479 E.00775
G1 X62.004 Y41.885 E.01957
G1 X62.004 Y41.479 E.01384
G1 X62.004 Y42.036 F18000
G1 F2400
G1 X62.004 Y42.352 E.01076
G1 X61.688 Y42.036 E.01521
G1 X61.825 Y42.036 E.00467
G1 X62.283 Y42.631 F18000
G1 F2400
G1 X62.648 Y42.997 E.01761
G1 X62.648 Y42.593 E.01375
G1 X62.245 Y42.593 E.01375
G1 X62.595 Y42.036 F18000
G1 F2400
G1 X62.155 Y42.036 E.015
G1 X62.648 Y42.53 E.0238
G1 X62.648 Y42.036 E.01683
G1 X63.039 Y42.593 F18000
G1 F2400
G1 X63.205 Y42.593 E.00566
G1 X63.205 Y43.087 E.01683
G1 X62.861 Y42.742 E.01661
G1 X62.861 Y42.593 E.00508
G1 X62.861 Y43.151 F18000
G1 F2400
G1 X62.861 Y43.209 E.002
G1 X63.205 Y43.554 E.01661
G1 X63.205 Y43.151 E.01375
G1 X63.039 Y43.151 E.00566
G1 X63.539 Y43.151 F18000
G1 F2400
G1 X63.269 Y43.151 E.00922
G1 X63.718 Y43.6 E.02164
G1 X63.718 Y43.151 E.0153
G1 X63.539 Y43.708 F18000
G1 F2400
G1 X63.359 Y43.708 E.00614
G1 X63.718 Y44.066 E.01728
G1 X63.718 Y43.708 E.01222
G1 X64.266 Y43.708 F18000
G1 F2400
G1 X63.826 Y43.708 E.015
G1 X64.32 Y44.201 E.0238
G1 X64.32 Y43.708 E.01683
G1 X63.916 Y44.265 F18000
G1 F2400
G1 X64.32 Y44.265 E.01375
G1 X64.32 Y44.668 E.01375
G1 X63.954 Y44.303 E.01761
G1 X64.449 Y44.33 F18000
G1 F2400
G1 X64.383 Y44.265 E.00317
G1 X64.575 Y44.265 E.00654
G1 X64.575 Y44.457 E.00654
G1 X64.877 Y44.758 E.01455
G1 X64.877 Y44.265 E.01683
G1 X64.753 Y44.265 E.0042
G1 X64.575 Y44.822 F18000
G1 F2400
G1 X64.575 Y44.923 E.00346
G1 X64.877 Y45.225 E.01455
G1 X64.877 Y44.822 E.01375
G1 X64.753 Y44.822 E.0042
G1 X65.253 Y44.822 F18000
G1 F2400
G1 X64.94 Y44.822 E.01068
G1 X65.432 Y45.314 E.02371
G1 X65.432 Y44.822 E.01676
G1 X65.253 Y45.379 F18000
G1 F2400
G1 X65.03 Y45.379 E.0076
G1 X65.432 Y45.78 E.01935
G1 X65.432 Y45.379 E.01368
G1 X65.937 Y45.379 F18000
G1 F2400
G1 X65.497 Y45.379 E.015
G1 X65.991 Y45.873 E.0238
G1 X65.991 Y45.379 E.01683
G1 X65.587 Y45.936 F18000
G1 F2400
G1 X65.991 Y45.936 E.01375
G1 X65.991 Y46.339 E.01375
G1 X65.625 Y45.974 E.01761
G1 X66.468 Y45.936 F18000
G1 F2400
G1 X66.548 Y45.936 E.00274
G1 X66.548 Y46.43 E.01683
G1 X66.289 Y46.171 E.01248
G1 X66.289 Y45.936 E.008
G1 X66.054 Y45.936 E.008
G1 X66.163 Y46.045 E.00523
G1 X66.289 Y46.493 F18000
G1 F2400
G1 X66.289 Y46.637 E.00492
G1 X66.548 Y46.896 E.01248
G1 X66.548 Y46.493 E.01375
G1 X66.468 Y46.493 E.00274
G1 X67.051 Y46.493 F18000
G1 F2400
G1 X66.611 Y46.493 E.015
G1 X67.105 Y46.987 E.0238
G1 X67.105 Y46.493 E.01683
G1 X66.702 Y47.05 F18000
G1 F2400
G1 X67.105 Y47.05 E.01375
G1 X67.105 Y47.453 E.01375
G1 X66.739 Y47.088 E.01761
G1 X67.297 Y47.645 F18000
G1 F2400
G1 X67.662 Y48.011 E.01761
G1 X67.662 Y47.607 E.01375
G1 X67.259 Y47.607 E.01375
G1 X67.608 Y47.05 F18000
G1 F2400
G1 X67.168 Y47.05 E.015
G1 X67.662 Y47.544 E.0238
G1 X67.662 Y47.05 E.01683
G1 X68.182 Y47.607 F18000
G1 F2400
G1 X68.219 Y47.607 E.00128
G1 X68.219 Y48.101 E.01683
G1 X68.003 Y47.885 E.01041
G1 X68.003 Y47.607 E.00947
G1 X67.725 Y47.607 E.00947
G1 X67.877 Y47.759 E.0073
G1 X67.877 Y48.225 F18000
G1 F2400
G1 X67.816 Y48.164 E.00295
G1 X68.003 Y48.164 E.00639
G1 X68.003 Y48.352 E.00639
G1 X68.219 Y48.568 E.01041
G1 X68.219 Y48.164 E.01375
G1 X68.182 Y48.164 E.00128
G1 X68.723 Y48.164 F18000
G1 F2400
