; Postprocessed by [ArcWelder](https://github.com/FormerLurker/ArcWelderLib)
; Copyright(C) 2021 - Brad Hochgesang
; Version: 1.2.0, Branch: master, BuildDate: 2021-11-21T20:04:00Z
; resolution=0.05mm
; path_tolerance=5.0%
; max_radius=9999.00mm
; default_xyz_precision=3
; default_e_precision=5
; extrusion_rate_variance=5.0%

; generated by AnycubicSlicer 1.4.4 on 2025-08-23 at 18:08:59 UTC




; 

; external perimeters extrusion width = 0.42mm
; perimeters extrusion width = 0.45mm
; infill extrusion width = 0.45mm
; solid infill extrusion width = 0.50mm
; top infill extrusion width = 0.42mm
; support material extrusion width = 0.42mm
; first layer extrusion width = 0.56mm

M201 X2500 Y2500 Z800 E2500 ; sets maximum accelerations, mm/sec^2
M203 X250 Y250 Z8 E80 ; sets maximum feedrates, mm / sec
M204 S2500 T2500 ; sets acceleration (S) and retract acceleration (R), mm/sec^2
M205 X10.00 Y10.00 Z2.00 E10.00 ; sets the jerk limits, mm/sec
M205 S0 T0 ; sets the minimum extruding and travel feed rate, mm/sec
;TYPE:Custom
G90 ; use absolute coordinates
M83 ; extruder relative mode
M104 S215 ; set extruder temp
M140 S60 ; set bed temp
M190 S60 ; wait for bed temp
M109 S215 ; wait for extruder temp
G28                                        ; move X/Y/Z to min endstops
G1 Z0.28                                   ; lift nozzle a bit 
G92 E0 
G1 Y3 F1800                                    ; zero the extruded length 
G1 X60  E25 F500                       ; Extrude 25mm of filament in a 5cm line. 
G92 E0                                     ; zero the extruded length again 
G1 E-2 F500                                ; Retract a little 
G1 X70 F4000                              ; Quickly wipe away from the filament line
M117
G21 ; set units to millimeters
G90 ; use absolute coordinates
M82 ; use absolute distances for extrusion
G92 E0
M107
;LAYER_CHANGE
;Z:0.28
;HEIGHT:0.28
; BEFORE_LAYER_CHANGE 0 @ 0.28mm
G1 E-2 F4800
G92 E0
G1 Z.28 F7200
; AFTER_LAYER_CHANGE 0 @ 0.28mm
G1 X99.71 Y85.627
G1 E2 F4800
;TYPE:Skirt/Brim
;WIDTH:0.56
G1 F3000
G1 X100.876 Y84.627 E2.08939
G1 X102.179 Y84.33 E2.16716
G1 X114.375 Y84.33 E2.87691
G1 X115.86 Y84.723 E2.9663
G1 X116.831 Y85.607 E3.04272
G1 X124.22 Y96.14 E3.79147
G1 X124.546 Y96.74 E3.83121
G1 X125.067 Y98.031 E3.91223
G1 X125.26 Y98.772 E3.95679
G1 X125.438 Y100.152 E4.03776
G1 X125.438 Y100.918 E4.08234
G1 X125.199 Y102.624 E4.18259
G1 X120.19 Y123.238 E5.41713
G1 X119.458 Y124.588 E5.5065
G1 X118.152 Y125.398 E5.59593
G1 X117.275 Y125.529 E5.64753
G1 X99.279 Y125.529 E6.69481
G1 X97.794 Y125.136 E6.7842
G1 X96.699 Y124.059 E6.87358
G1 X96.354 Y123.194 E6.92777
G1 X91.631 Y102.411 E8.16807
G1 X91.556 Y101.748 E8.2069
G1 X91.555 Y100.304 E8.29093
G1 X91.666 Y99.495 E8.33845
G3 X92.790 Y96.044 I25.655 J6.447 E8.54978
G1 X93.695 Y94.352 E8.66145
G1 X99.675 Y85.676 E9.27466
G1 X100.087 Y85.96 F7200
G1 F3000
G1 X100.121 Y85.911 E9.27813
G1 X101.207 Y85.027 E9.35962
G1 X102.179 Y84.83 E9.41734
G1 X114.375 Y84.83 E10.12709
G1 X115.719 Y85.222 E10.20856
G1 X116.422 Y85.894 E10.26516
G1 X123.811 Y96.427 E11.01391
G1 X124.603 Y98.218 E11.12787
G1 X124.764 Y98.835 E11.16498
G1 X124.942 Y100.216 E11.24601
G1 X124.942 Y100.854 E11.28314
G1 X124.714 Y102.506 E11.38019
G1 X119.705 Y123.12 E12.61473
G1 X119.006 Y124.333 E12.6962
G1 X117.275 Y125.029 E12.80477
G1 X99.279 Y125.029 E13.85205
G1 X97.935 Y124.637 E13.93352
G1 X96.842 Y123.083 E14.04408
G1 X92.118 Y102.3 E15.2844
G1 X92.055 Y100.304 E15.40061
G1 X92.148 Y99.629 E15.44026
G3 X93.260 Y96.214 I25.021 J6.259 E15.64939
G1 X94.107 Y94.636 E15.75361
G1 X100.053 Y86.009 E16.36335
G1 E14.96335 F4800
;WIPE_START
G1 F5760
G1 X100.121 Y85.911 E14.86892
G1 X100.616 Y85.508 E14.36335
;WIPE_END
G92 E0
G1 X116.614 Y93.722 F7200
G1 E2 F4800
;TYPE:Support material
G1 F3000
G1 X117.391 Y93.87 E2.04603
G1 X118.62 Y94.419 E2.12436
G1 X119.707 Y95.289 E2.20538
G1 X120.579 Y96.461 E2.29039
G1 X120.933 Y96.745 E2.3168
G1 X121.764 Y97.862 E2.39782
G1 X122.285 Y99.154 E2.47889
G1 X122.462 Y100.535 E2.55991
G1 X122.284 Y101.915 E2.64088
G1 X121.771 Y103.187 E2.7207
G1 X120.928 Y104.317 E2.80274
G3 X119.840 Y105.187 I-12.181 J-14.118 E2.88382
G3 X118.567 Y105.751 I-6.602 J-13.182 E2.96487
G1 X117.804 Y105.897 E3.01008
G1 X116.765 Y106.632 E3.08414
G1 X116.765 Y103.026 E3.29399
G1 X116.478 Y102.739 E3.31761
G1 X114.072 Y102.739 E3.45763
G1 X113.785 Y103.026 E3.48125
G1 X113.785 Y106.239 E3.66823
G1 X109.074 Y106.239 E3.94239
G1 X108.109 Y105.202 E4.02483
G1 X107.75 Y104.496 E4.07092
G1 X106.472 Y105.751 E4.17516
G1 X105.436 Y106.239 E4.2418
G1 X102.769 Y106.239 E4.39701
G1 X102.769 Y103.026 E4.58399
G1 X102.482 Y102.739 E4.60761
G1 X100.076 Y102.739 E4.74763
G1 X99.789 Y103.026 E4.77125
G1 X99.789 Y106.289 E4.96114
G1 X99.447 Y106.312 E4.98109
G1 X98.033 Y106.019 E5.06513
G1 X96.752 Y105.355 E5.1491
G1 X95.697 Y104.37 E5.2331
G1 X94.946 Y103.136 E5.31717
G1 X94.556 Y101.746 E5.40118
G1 X94.555 Y100.302 E5.48521
G1 X94.944 Y98.911 E5.56926
G1 X95.289 Y98.343 E5.60793
G1 X95.298 Y98.177 E5.6176
G1 X95.612 Y97.063 E5.68496
G1 X96.165 Y96.055 E5.75187
G3 X97.244 Y94.925 I4.470 J3.188 E5.84303
G1 X98.267 Y94.259 E5.91407
G3 X100.145 Y93.827 I2.866 J8.162 E6.02639
G3 X101.764 Y94.028 I0.124 J5.622 E6.12158
G1 X101.79 Y96.408 E6.26009
G1 X101.835 Y96.547 E6.26859
G1 X103.788 Y99.379 E6.46879
G1 X103.788 Y99.83 E6.49504
G1 X104.075 Y100.117 E6.51866
G1 X112.478 Y100.117 E7.00767
G1 X112.765 Y99.83 E7.03129
G1 X112.765 Y99.379 E7.05754
G1 X114.72 Y96.548 E7.25776
G1 X114.765 Y96.408 E7.26632
G1 X114.794 Y93.734 E7.42194
G1 X115.911 Y93.63 E7.48722
G1 X116.539 Y93.713 E7.52408
G1 X121.608 Y102.989 F7200
G1 F3000
G1 X121.608 Y98.679 E7.7749
G2 X121.053 Y97.660 I-2.228 J0.553 E7.84298
G1 X121.053 Y103.41 E8.1776
G1 X120.602 Y104.003 E8.22096
G1 X120.497 Y104.09 E8.2289
G1 X120.497 Y96.972 E8.64313
G3 X119.942 Y96.359 I0.890 J-1.363 E8.69163
G1 X119.942 Y104.541 E9.16778
G3 X119.387 Y104.903 I-1.124 J-1.117 E9.20654
G1 X119.387 Y95.612 E9.74723
G1 X118.831 Y95.164 E9.78878
G1 X118.831 Y105.155 E10.37021
G3 X118.276 Y105.349 I-0.746 J-1.244 E10.40457
G1 X118.276 Y94.758 E11.02091
G1 X117.72 Y94.51 E11.05634
G1 X117.72 Y105.455 E11.69328
G1 X117.624 Y105.473 E11.69896
G1 X117.215 Y105.762 E11.7281
G1 X117.215 Y102.84 E11.89815
G1 X117.165 Y102.789 E11.90231
G1 X117.165 Y94.285 E12.3972
G1 X116.609 Y94.179 E12.43014
G1 X116.609 Y102.289 E12.9021
G1 X116.054 Y102.289 E12.9344
G1 X116.054 Y94.103 E13.41078
G2 X115.498 Y94.120 I-0.240 J1.236 E13.44331
G1 X115.498 Y102.289 E13.9187
G1 X114.943 Y102.29 E13.951
G1 X114.943 Y97.017 E14.25786
G1 X114.387 Y97.822 E14.31479
G1 X114.387 Y102.29 E14.5748
G1 X113.886 Y102.289 E14.60396
G1 X113.832 Y102.344 E14.60845
G1 X113.832 Y98.626 E14.82482
G1 X113.276 Y99.431 E14.88175
G1 X113.276 Y105.79 E15.25181
G1 X112.721 Y105.79 E15.28411
G1 X112.721 Y100.511 E15.59132
G1 X112.665 Y100.567 E15.59593
G1 X112.166 Y100.567 E15.62497
G1 X112.166 Y105.79 E15.92892
G1 X111.61 Y105.79 E15.96128
G1 X111.61 Y100.567 E16.26523
G1 X111.055 Y100.567 E16.29753
G1 X111.055 Y105.79 E16.60148
G1 X110.499 Y105.79 E16.63384
G1 X110.499 Y100.567 E16.93779
G1 X109.944 Y100.567 E16.97009
G1 X109.944 Y105.79 E17.27404
G1 X109.388 Y105.79 E17.3064
G1 X109.388 Y100.567 E17.61035
G1 X108.833 Y100.567 E17.64265
G1 X108.833 Y105.32 E17.91925
G3 X108.277 Y104.540 I1.077 J-1.356 E17.97554
G1 X108.277 Y100.567 E18.20675
G1 X107.722 Y100.567 E18.23905
G1 X107.722 Y103.892 E18.43255
G1 X107.166 Y104.438 E18.4779
G1 X107.166 Y100.567 E18.70317
G1 X106.611 Y100.567 E18.73547
G1 X106.611 Y104.984 E18.99252
G1 X106.211 Y105.377 E19.02515
G1 X106.056 Y105.45 E19.03512
G1 X106.056 Y100.567 E19.31929
G1 X105.5 Y100.567 E19.35165
G1 X105.5 Y105.712 E19.65106
G1 X105.335 Y105.79 E19.66168
G1 X104.945 Y105.79 E19.68438
G1 X104.945 Y100.567 E19.98833
G1 X104.389 Y100.567 E20.02069
G1 X104.389 Y105.79 E20.32464
G1 X103.834 Y105.79 E20.35694
G1 X103.834 Y100.512 E20.66409
G1 X103.338 Y100.016 E20.70491
G1 X103.338 Y99.519 E20.73383
G1 X103.278 Y99.432 E20.73998
G1 X103.278 Y105.79 E21.10998
G1 X103.219 Y105.79 E21.11341
G1 X103.219 Y102.84 E21.28509
G1 X102.723 Y102.344 E21.32591
G1 X102.723 Y98.627 E21.54222
G1 X102.167 Y97.822 E21.59915
G1 X102.167 Y102.289 E21.85911
G1 X101.612 Y102.289 E21.89141
G1 X101.612 Y97.017 E22.19821
G3 X101.341 Y96.480 I0.739 J-0.710 E22.23360
G1 X101.318 Y94.398 E22.35477
G1 X101.056 Y94.345 E22.37033
G1 X101.056 Y102.289 E22.83263
G1 X100.501 Y102.289 E22.86493
G1 X100.501 Y94.296 E23.33008
G2 X99.946 Y94.315 I-0.233 J1.307 E23.36257
G1 X99.946 Y102.289 E23.82662
G1 X99.89 Y102.289 E23.82988
G1 X99.39 Y102.789 E23.87103
G1 X99.39 Y94.412 E24.35853
G1 X98.835 Y94.567 E24.39206
G1 X98.835 Y105.726 E25.04146
G1 X98.279 Y105.61 E25.07451
G1 X98.279 Y94.788 E25.7043
G1 X97.724 Y95.149 E25.74283
G1 X97.724 Y105.351 E26.33653
G1 X97.168 Y105.064 E26.37294
G1 X97.168 Y95.6 E26.9237
G2 X96.613 Y96.219 I1.931 J2.290 E26.97218
G1 X96.613 Y104.609 E27.46044
G1 X96.057 Y104.091 E27.50466
G1 X96.057 Y97.186 E27.9065
G1 X95.745 Y98.251 E27.97108
G1 X95.733 Y98.48 E27.98442
G1 X95.502 Y98.86 E28.0103
G1 X95.502 Y103.617 E28.28713
G1 E26.88713 F4800
;WIPE_START
G1 F5760
G1 X95.502 Y102.859 E26.28713
;WIPE_END
G92 E0
G1 X101.999 Y116.049 F7200
G1 E2 F4800
;TYPE:External perimeter
G1 F3000
G1 X101.999 Y122.249 E2.36081
G1 X99.559 Y122.249 E2.50281
G1 X99.559 Y114.109 E2.97652
G1 X116.995 Y114.109 E3.99121
G1 X116.995 Y122.249 E4.46492
G1 X114.555 Y122.249 E4.60692
G1 X114.555 Y116.049 E4.96773
G1 X102.059 Y116.049 E5.69493
G1 X101.604 Y115.989 F7200
G1 X101.499 Y115.55
;TYPE:Perimeter
G1 F3000
G1 X101.499 Y121.75 E6.05574
G1 X100.059 Y121.75 E6.13954
G1 X100.059 Y114.609 E6.55511
G1 X116.495 Y114.609 E7.5116
G1 X116.495 Y121.75 E7.92717
G1 X115.055 Y121.75 E8.01097
G1 X115.055 Y115.55 E8.37178
G1 X101.559 Y115.55 E9.15718
G1 E7.75718 F4800
;WIPE_START
G1 F5760
G1 X101.552 Y116.308 E7.15718
;WIPE_END
G92 E0
G1 X115.555 Y115.109 F7200
G1 E2 F4800
G1 F3000
G1 X115.996 Y115.109 E2.02566
G1 X115.996 Y121.25 E2.38304
G1 X115.555 Y121.25 E2.4087
G1 X115.555 Y115.169 E2.76258
G1 E1.36258 F4800
;WIPE_START
G1 F5760
G1 X115.996 Y115.109 E1.01024
G1 X115.996 Y115.422 E.76258
;WIPE_END
G92 E0
G1 X101 Y115.109 F7200
G1 E2 F4800
G1 F3000
G1 X101 Y121.25 E2.35738
G1 X100.559 Y121.25 E2.38304
G1 X100.559 Y115.109 E2.74042
G1 X100.94 Y115.109 E2.76259
G1 X101.25 Y115.079 F7200
;TYPE:Gap fill
;WIDTH:0.500356
G1 F3000
G1 X115.305 Y115.079 E3.48293
G1 E2.08293 F4800
;WIPE_START
G1 F5760
G1 X114.547 Y115.079 E1.48293
;WIPE_END
G92 E0
G1 X101.999 Y107.009 F7200
G1 E2 F4800
;TYPE:External perimeter
;WIDTH:0.56
G1 F3000
G1 X114.555 Y107.009 E2.7307
G1 X114.555 Y103.509 E2.93438
G1 X115.995 Y103.509 E3.01818
G1 X115.995 Y109.749 E3.38132
G1 X100.559 Y109.749 E4.27962
G1 X100.559 Y103.509 E4.64276
G1 X101.999 Y103.509 E4.72656
G1 X101.999 Y106.949 E4.92675
G1 X102.051 Y107.406 F7200
G1 E3.52675 F4800
;WIPE_START
G1 F5760
G1 X102.757 Y106.953 E2.92675
;WIPE_END
G92 E0
G1 X115.055 Y107.009 F7200
G1 E2 F4800
;TYPE:Perimeter
G1 F3000
G1 X115.055 Y104.009 E2.17458
G1 X115.495 Y104.009 E2.20019
G1 X115.495 Y109.25 E2.50519
G1 X115.055 Y109.25 E2.5308
G1 X115.055 Y107.069 E2.65772
G1 E1.25772 F4800
;WIPE_START
G1 F5760
G1 X115.055 Y106.311 E.65772
;WIPE_END
G92 E0
G1 X101.499 Y107.009 F7200
G1 E2 F4800
G1 F3000
G1 X101.499 Y109.25 E2.13041
G1 X101.059 Y109.25 E2.15602
G1 X101.059 Y104.009 E2.46102
G1 X101.499 Y104.009 E2.48663
G1 X101.499 Y106.949 E2.65772
G1 E1.25772 F4800
;WIPE_START
G1 F5760
G1 X101.499 Y107.707 E.65772
;WIPE_END
G92 E0
G1 X101.999 Y109.009 F7200
G1 E2 F4800
;TYPE:External perimeter
G1 F3000
G1 X101.999 Y107.949 E2.06169
G1 X114.555 Y107.949 E2.79239
G1 X114.555 Y109.009 E2.85408
G1 X102.059 Y109.009 E3.58128
G1 X101.6 Y109.021 F7200
G1 X101.749 Y109.379
;TYPE:Gap fill
;WIDTH:0.300178
G1 F3000
G1 X114.805 Y109.379 E3.94618
G1 X114.805 Y107.479 F7200
;WIDTH:0.500179
G1 F3000
G1 X101.749 Y107.479 E4.61505
G1 E3.21505 F4800
;WIPE_START
G1 F5760
G1 X102.507 Y107.479 E2.61505
;WIPE_END
G92 E0
G1 X107.548 Y97.509 F7200
G1 E2 F4800
;TYPE:External perimeter
;WIDTH:0.56
G1 F3000
G1 X109.008 Y97.509 E2.08496
G1 X109.008 Y87.609 E2.66109
G1 X109.848 Y87.609 E2.70997
G1 X109.848 Y97.509 E3.2861
G1 X111.305 Y97.509 E3.37089
G1 X111.305 Y87.609 E3.94702
G1 X114.092 Y87.609 E4.10921
G1 X113.996 Y96.241 E4.61158
G1 X111.995 Y99.139 E4.81653
G1 X111.995 Y99.347 E4.82863
G1 X104.558 Y99.347 E5.26143
G1 X104.558 Y99.139 E5.27353
G1 X102.558 Y96.241 E5.47844
G1 X102.463 Y87.609 E5.98081
G1 X105.249 Y87.609 E6.14294
G1 X105.249 Y97.509 E6.71907
G1 X106.708 Y97.509 E6.80398
G1 X106.708 Y87.609 E7.38011
G1 X107.548 Y87.609 E7.42899
G1 X107.548 Y97.449 E8.00163
G1 X107.56 Y97.909 F7200
G1 X107.048 Y98.009
;TYPE:Perimeter
G1 F3000
G1 X111.805 Y98.009 E8.27846
G1 X111.805 Y88.109 E8.85459
G1 X113.587 Y88.109 E8.95829
G1 X113.498 Y96.082 E9.42231
G1 X111.59 Y98.847 E9.61781
G1 X104.964 Y98.847 E10.00341
G1 X103.057 Y96.083 E10.19883
G1 X102.968 Y88.109 E10.66291
G1 X104.749 Y88.109 E10.76656
G1 X104.749 Y98.009 E11.34269
G1 X106.988 Y98.009 E11.47299
G1 E10.07299 F4800
;WIPE_START
G1 F5760
G1 X107.746 Y98.009 E9.47299
;WIPE_END
G92 E0
G1 X112.305 Y96.56 F7200
G1 E2 F4800
G1 F3000
G1 X112.305 Y88.609 E2.46271
G1 X113.081 Y88.609 E2.50787
G1 X113 Y95.924 E2.93359
G1 X112.516 Y96.625 E2.98316
G1 X112.362 Y96.578 E2.99253
G1 E1.59253 F4800
;WIPE_START
G1 F5760
G1 X112.357 Y95.82 E.99253
;WIPE_END
G92 E0
G1 X104.039 Y96.626 F7200
G1 E2 F4800
G1 F3000
G1 X103.555 Y95.924 E2.04962
G1 X103.474 Y88.609 E2.47534
G1 X104.25 Y88.609 E2.5205
G1 X104.25 Y96.56 E2.98321
G1 X104.096 Y96.608 E2.9926
G1 X103.903 Y95.988 F7200
;TYPE:Gap fill
;WIDTH:0.294041
G1 F3000
G1 X103.863 Y88.859 E3.18676
G1 E1.78676 F4800
;WIPE_START
G1 F5760
G1 X103.867 Y89.617 E1.18676
;WIPE_END
G92 E0
G1 X107.128 Y87.859 F7200
G1 E2 F4800
;WIDTH:0.400179
G1 F3000
G1 X107.128 Y97.759 E2.39194
G1 E.99194 F4800
;WIPE_START
G1 F5760
G1 X107.128 Y97.001 E.39194
;WIPE_END
G92 E0
G1 X104.979 Y98.428 F7200
G1 E2 F4800
;WIDTH:0.398009
G1 F3000
G1 X111.575 Y98.428 E2.25947
G1 E.85947 F4800
;WIPE_START
G1 F5760
G1 X110.817 Y98.428 E.25947
;WIPE_END
G92 E0
G1 X109.428 Y97.759 F7200
G1 E2 F4800
;WIDTH:0.400179
G1 F3000
G1 X109.428 Y87.859 E2.39194
G1 E.99194 F4800
;WIPE_START
G1 F5760
G1 X109.428 Y88.617 E.39194
;WIPE_END
G92 E0
G1 X112.692 Y88.859 F7200
G1 E2 F4800
;WIDTH:0.331923
G1 F3000
G1 X112.652 Y95.988 E2.2256
;LAYER_CHANGE
;Z:0.48
;HEIGHT:0.2
; BEFORE_LAYER_CHANGE 1 @ 0.48mm
G1 E.8256 F4800
;WIPE_START
G1 F5760
G1 X112.656 Y95.23 E.2256
;WIPE_END
G92 E0
G1 Z.48 F7200
; AFTER_LAYER_CHANGE 1 @ 0.48mm
M104 S195 ; set temperature
G1 X114.045 Y98.89
G1 E2 F4800
;TYPE:Support material
;WIDTH:0.42
G1 F3000
G3 X114.546 Y98.912 I0.213 J0.860 E2.01607
G1 X115.336 Y98.653 E2.04214
G3 X115.794 Y98.479 I0.455 J0.507 E2.05780
G1 X115.849 Y98.063 E2.07096
G3 X116.840 Y98.987 I-0.150 J1.155 E2.11653
G1 X117.083 Y99.163 E2.12594
G1 X117.348 Y99.566 E2.14106
G3 X117.015 Y101.557 I-0.346 J0.966 E2.23035
G1 X116.546 Y101.502 E2.24516
G1 X115.877 Y101.823 E2.26843
G3 X114.757 Y102.305 I-0.854 J-0.442 E2.31003
G1 X114.342 Y102.083 E2.32479
G1 X113.833 Y102.081 E2.34075
G1 X113.165 Y102.511 E2.36566
G3 X112.270 Y101.386 I-0.783 J-0.296 E2.47607
G1 X113.935 Y101.379 E2.52828
G1 X113.451 Y100.803 E2.55187
G1 X113.425 Y99.789 E2.58367
G3 X113.312 Y99.220 I0.918 J-0.478 E2.60201
G1 X113.794 Y98.513 E2.62884
G3 X114.514 Y98.481 I0.411 J1.121 E2.65183
G1 X115.148 Y98.273 E2.67275
G3 X115.793 Y98.055 I0.633 J0.809 E2.69446
G1 X116.115 Y97.674 F7200
G1 F3000
G3 X117.182 Y98.716 I-0.334 J1.409 E2.74344
G1 X117.392 Y98.868 E2.75157
G1 X117.634 Y99.237 E2.76541
G3 X116.618 Y101.933 I-0.631 J1.302 E2.89927
G1 X116.143 Y102.161 E2.91579
G3 X114.236 Y102.503 I-1.104 J-0.667 E2.98420
G1 X113.955 Y102.502 E2.99301
G1 X113.498 Y102.797 E3.01006
G3 X112.204 Y100.967 I-1.116 J-0.583 E3.17132
G1 X113.037 Y100.963 E3.19744
G1 X112.739 Y100.607 E3.212
G1 X113.02 Y100.407 E3.22281
