; Postprocessed by [ArcWelder](https://github.com/FormerLurker/ArcWelderLib)
; Copyright(C) 2021 - Brad Hochgesang
; Version: 1.2.0, Branch: master, BuildDate: 2021-11-21T20:04:00Z
; resolution=0.05mm
; path_tolerance=5.0%
; max_radius=9999.00mm
; default_xyz_precision=3
; default_e_precision=5
; extrusion_rate_variance=5.0%

; generated by AnycubicSlicer 1.4.4 on 2025-07-06 at 08:51:13 UTC




; 

; external perimeters extrusion width = 0.42mm
; perimeters extrusion width = 0.45mm
; infill extrusion width = 0.45mm
; solid infill extrusion width = 0.50mm
; top infill extrusion width = 0.42mm
; first layer extrusion width = 0.56mm

M201 X2500 Y2500 Z800 E2500 ; sets maximum accelerations, mm/sec^2
M203 X250 Y250 Z8 E80 ; sets maximum feedrates, mm / sec
M204 S2500 T2500 ; sets acceleration (S) and retract acceleration (R), mm/sec^2
M205 X10.00 Y10.00 Z2.00 E10.00 ; sets the jerk limits, mm/sec
M205 S0 T0 ; sets the minimum extruding and travel feed rate, mm/sec
;TYPE:Custom
G90 ; use absolute coordinates
M83 ; extruder relative mode
M104 S215 ; set extruder temp
M140 S60 ; set bed temp
M190 S60 ; wait for bed temp
M109 S215 ; wait for extruder temp
G28                                        ; move X/Y/Z to min endstops
G1 Z0.28                                   ; lift nozzle a bit 
G92 E0 
G1 Y3 F1800                                    ; zero the extruded length 
G1 X60  E25 F500                       ; Extrude 25mm of filament in a 5cm line. 
G92 E0                                     ; zero the extruded length again 
G1 E-2 F500                                ; Retract a little 
G1 X70 F4000                              ; Quickly wipe away from the filament line
M117
G21 ; set units to millimeters
G90 ; use absolute coordinates
M82 ; use absolute distances for extrusion
G92 E0
M107
;LAYER_CHANGE
;Z:0.28
;HEIGHT:0.28
; BEFORE_LAYER_CHANGE 0 @ 0.28mm
G1 E-2 F4800
G92 E0
G1 Z.28 F7200
; AFTER_LAYER_CHANGE 0 @ 0.28mm
G1 X100.468 Y100.474
G1 E2 F4800
;TYPE:Skirt/Brim
;WIDTH:0.56
G1 F3000
G1 X103.54 Y97.403 E2.25278
G1 X105.433 Y96.533 E2.37402
G1 X108.5 Y96.308 E2.55298
G1 X111.728 Y96.316 E2.74083
G1 X114.567 Y96.533 E2.90653
G1 X116.461 Y97.403 E3.02782
G1 X122.597 Y103.539 E3.53281
G1 X123.467 Y105.433 E3.6541
G1 X123.692 Y108.5 E3.83306
G1 X123.692 Y111.5 E4.00764
G1 X123.467 Y114.567 E4.1866
G1 X122.597 Y116.461 E4.30789
G1 X116.461 Y122.597 E4.81288
G1 X114.567 Y123.467 E4.93417
G1 X111.5 Y123.692 E5.11313
G1 X108.5 Y123.692 E5.28771
G1 X105.433 Y123.467 E5.46667
G1 X103.54 Y122.597 E5.58791
G1 X97.403 Y116.461 E6.09294
G1 X96.533 Y114.567 E6.21423
G1 X96.308 Y111.5 E6.39319
G1 X96.308 Y108.5 E6.56777
G1 X96.533 Y105.433 E6.74673
G1 X97.403 Y103.539 E6.86802
G1 X100.426 Y100.516 E7.11681
G1 X100.779 Y100.87 F7200
G1 F3000
G1 X103.893 Y97.756 E7.37309
G1 X105.471 Y97.031 E7.47415
G1 X108.5 Y96.808 E7.6509
G1 X111.69 Y96.815 E7.83654
G1 X114.529 Y97.031 E8.00223
G1 X116.107 Y97.756 E8.10329
G1 X122.244 Y103.893 E8.60837
G1 X122.969 Y105.471 E8.70943
G1 X123.185 Y108.31 E8.87512
G1 X123.192 Y111.5 E9.06076
G1 X122.969 Y114.529 E9.23751
G1 X122.244 Y116.107 E9.33857
G1 X116.107 Y122.244 E9.84365
G1 X114.529 Y122.969 E9.94471
G1 X111.69 Y123.185 E10.1104
G1 X108.5 Y123.192 E10.29604
G1 X105.471 Y122.969 E10.47279
G1 X103.893 Y122.244 E10.57385
G1 X97.756 Y116.107 E11.07893
G1 X97.031 Y114.529 E11.17999
G1 X96.815 Y111.69 E11.34568
G1 X96.808 Y108.5 E11.53132
G1 X97.031 Y105.471 E11.70807
G1 X97.756 Y103.893 E11.80913
G1 X100.737 Y100.912 E12.05447
G1 E10.65447 F4800
;WIPE_START
G1 F5760
G1 X101.273 Y100.376 E10.05447
;WIPE_END
G92 E0
G1 X106.42 Y120.126 F7200
G1 E2 F4800
;TYPE:External perimeter
;WIDTH:0.762083
G1 F3000
G1 X108.5 Y120.126 E2.16998
G1 X108.78 Y120.055 F7200
;WIDTH:0.56
G1 F3000
G1 X111.22 Y120.055 E2.31198
G1 X111.22 Y120.412 E2.33276
G1 X108.78 Y120.412 E2.47476
G1 X108.78 Y120.115 E2.49204
G1 X109.18 Y120.074 F7200
G1 E1.09204 F4800
;WIPE_START
G1 F5760
G1 X109.538 Y120.096 E.49204
;WIPE_END
G92 E0
G1 X111.5 Y120.126 F7200
G1 E2 F4800
;WIDTH:0.762084
G1 F3000
G1 X113.58 Y120.126 E2.16998
G1 E.76998 F4800
;WIPE_START
G1 F5760
G1 X112.822 Y120.126 E.16998
;WIPE_END
G92 E0
G1 X120.126 Y113.58 F7200
G1 E2 F4800
;WIDTH:0.762083
G1 F3000
G1 X120.126 Y111.5 E2.16998
G1 X120.055 Y111.22 F7200
;WIDTH:0.56
G1 F3000
G1 X120.055 Y108.78 E2.31198
G1 X120.412 Y108.78 E2.33276
G1 X120.412 Y111.22 E2.47476
G1 X120.115 Y111.22 E2.49204
G1 X120.074 Y110.82 F7200
G1 E1.09204 F4800
;WIPE_START
G1 F5760
G1 X120.096 Y110.462 E.49204
;WIPE_END
G92 E0
G1 X120.126 Y108.5 F7200
G1 E2 F4800
;WIDTH:0.762084
G1 F3000
G1 X120.126 Y106.42 E2.16998
G1 E.76998 F4800
;WIPE_START
G1 F5760
G1 X120.126 Y107.178 E.16998
;WIPE_END
G92 E0
G1 X118.695 Y113.86 F7200
G1 E2 F4800
;WIDTH:0.56
G1 F3000
G1 X120.196 Y113.86 E2.08735
G1 X120.196 Y114.223 E2.10847
G1 X114.223 Y120.196 E2.60005
G1 X113.86 Y120.196 E2.62117
G1 X113.86 Y118.695 E2.70852
G1 X106.14 Y118.695 E3.15778
G1 X106.14 Y120.196 E3.24513
G1 X105.777 Y120.196 E3.26625
G1 X99.804 Y114.223 E3.75783
G1 X99.804 Y113.86 E3.77895
G1 X101.305 Y113.86 E3.8663
G1 X101.305 Y106.14 E4.31556
G1 X99.804 Y106.14 E4.40291
G1 X99.804 Y105.777 E4.42403
G1 X105.777 Y99.804 E4.91561
G1 X106.14 Y99.804 E4.93673
G1 X106.14 Y101.305 E5.02408
G1 X113.86 Y101.305 E5.47334
G1 X113.86 Y99.804 E5.56069
G1 X114.223 Y99.804 E5.58181
G1 X120.196 Y105.777 E6.07339
G1 X120.196 Y106.14 E6.09451
G1 X118.695 Y106.14 E6.18186
G1 X118.695 Y113.8 E6.62763
G1 X118.669 Y114.259 F7200
G1 X118.195 Y114.36
;TYPE:Perimeter
G1 F3000
G1 X119.352 Y114.36 E6.69496
G1 X114.36 Y119.352 E7.1058
G1 X114.36 Y118.195 E7.17313
G1 X105.64 Y118.195 E7.68059
G1 X105.64 Y119.352 E7.74792
G1 X100.648 Y114.36 E8.15876
G1 X101.805 Y114.36 E8.22609
G1 X101.805 Y105.64 E8.73355
G1 X100.648 Y105.64 E8.80088
G1 X105.64 Y100.648 E9.21172
G1 X105.64 Y101.805 E9.27905
G1 X114.36 Y101.805 E9.78651
G1 X114.36 Y100.648 E9.85384
G1 X119.352 Y105.64 E10.26468
G1 X118.195 Y105.64 E10.33201
G1 X118.195 Y114.3 E10.83598
G1 X117.695 Y114.86 F7200
G1 F3000
G1 X118.145 Y114.86 E10.86217
G1 X114.86 Y118.145 E11.13253
G1 X114.86 Y117.695 E11.15872
G1 X105.14 Y117.695 E11.72437
G1 X105.14 Y118.145 E11.75056
G1 X101.854 Y114.86 E12.02096
G1 X102.305 Y114.86 E12.04721
G1 X102.305 Y105.14 E12.61286
G1 X101.854 Y105.14 E12.63911
G1 X105.14 Y101.855 E12.90951
G1 X105.14 Y102.305 E12.9357
G1 X114.86 Y102.305 E13.50135
G1 X114.86 Y101.855 E13.52754
G1 X118.145 Y105.14 E13.7979
G1 X117.695 Y105.14 E13.82409
G1 X117.695 Y114.8 E14.38625
G1 E12.98625 F4800
;WIPE_START
G1 F5760
G1 X118.145 Y114.86 E12.62685
G1 X117.93 Y115.075 E12.38625
;WIPE_END
G92 E0
G1 X113.58 Y99.874 F7200
G1 E2 F4800
;TYPE:External perimeter
;WIDTH:0.762077
G1 F3000
G1 X111.5 Y99.874 E2.16998
G1 E.76998 F4800
;WIPE_START
G1 F5760
G1 X112.258 Y99.874 E.16998
;WIPE_END
G92 E0
G1 X108.78 Y99.945 F7200
G1 E2 F4800
;WIDTH:0.56
G1 F3000
G1 X108.78 Y99.588 E2.02078
G1 X111.22 Y99.588 E2.16278
G1 X111.22 Y99.945 E2.18356
G1 X108.84 Y99.945 E2.32206
G1 X108.944 Y99.627 F7200
G1 X108.5 Y99.874
;WIDTH:0.762076
G1 F3000
G1 X106.42 Y99.874 E2.49204
G1 E1.09204 F4800
;WIPE_START
G1 F5760
G1 X107.178 Y99.874 E.49204
;WIPE_END
G92 E0
G1 X99.874 Y106.42 F7200
G1 E2 F4800
;WIDTH:0.762106
G1 F3000
G1 X99.874 Y108.5 E2.16998
G1 E.76998 F4800
;WIPE_START
G1 F5760
G1 X99.874 Y107.742 E.16998
;WIPE_END
G92 E0
G1 X99.874 Y113.58 F7200
G1 E2 F4800
;WIDTH:0.762105
G1 F3000
G1 X99.874 Y111.5 E2.16998
G1 E.76998 F4800
;WIPE_START
G1 F5760
G1 X99.874 Y112.258 E.16998
;WIPE_END
G92 E0
G1 X99.588 Y108.78 F7200
G1 E2 F4800
;WIDTH:0.56
G1 F3000
G1 X99.945 Y108.78 E2.02078
G1 X99.945 Y111.22 E2.16278
G1 X99.588 Y111.22 E2.18356
G1 X99.588 Y108.84 E2.32206
G1 X99.905 Y108.944 F7200
G1 E.92206 F4800
;WIPE_START
G1 F5760
G1 X99.945 Y108.78 E.63547
G1 X99.945 Y109.176 E.32206
;WIPE_END
G92 E0
G1 X114.908 Y102.505 F7200
G1 E2 F4800
;TYPE:Solid infill
;WIDTH:0.561271
G1 F3000
G1 X117.27 Y104.867 E2.19489
G1 X117.27 Y105.576 E2.23626
G1 X114.424 Y102.73 E2.47108
G1 X113.716 Y102.73 E2.51239
G1 X117.27 Y106.284 E2.80563
G1 X117.27 Y106.993 E2.847
G1 X113.007 Y102.73 E3.19874
G1 X112.298 Y102.73 E3.24011
G1 X117.27 Y107.702 E3.65035
G1 X117.27 Y108.411 E3.69172
G1 X111.589 Y102.73 E4.16046
G1 X110.881 Y102.73 E4.20177
G1 X117.27 Y109.119 E4.72892
G1 X117.27 Y109.828 E4.77029
G1 X110.172 Y102.73 E5.35594
G1 X109.463 Y102.73 E5.39731
G1 X117.27 Y110.537 E6.04146
G1 X117.27 Y111.246 E6.08283
G1 X108.754 Y102.73 E6.78548
G1 X108.045 Y102.73 E6.82685
G1 X117.27 Y111.955 E7.588
G1 X117.27 Y112.663 E7.62931
G1 X107.337 Y102.73 E8.44888
G1 X106.628 Y102.73 E8.49025
G1 X117.27 Y113.372 E9.36831
G1 X117.27 Y114.081 E9.40968
G1 X105.919 Y102.73 E10.34624
G1 X105.21 Y102.73 E10.38761
G1 X117.27 Y114.79 E11.38267
G1 X117.27 Y115.134 E11.40274
G1 X117.088 Y115.316 E11.41776
G1 X104.684 Y102.912 E12.44121
G1 X104.329 Y103.266 E12.47046
G1 X116.734 Y115.671 E13.49399
G1 X116.379 Y116.025 E13.52324
G1 X103.975 Y103.621 E14.54669
G1 X103.62 Y103.975 E14.57594
G1 X116.025 Y116.38 E15.59947
G1 X115.671 Y116.734 E15.62868
G1 X103.266 Y104.329 E16.65221
G1 X102.912 Y104.684 E16.68146
G1 X115.316 Y117.088 E17.70491
G1 X115.134 Y117.27 E17.71993
G1 X114.789 Y117.27 E17.74006
G1 X102.73 Y105.211 E18.73504
G1 X102.73 Y105.919 E18.77635
G1 X114.081 Y117.27 E19.71291
G1 X113.372 Y117.27 E19.75428
G1 X102.73 Y106.628 E20.63234
G1 X102.73 Y107.337 E20.67371
G1 X112.663 Y117.27 E21.49328
G1 X111.954 Y117.27 E21.53465
G1 X102.73 Y108.046 E22.29572
G1 X102.73 Y108.755 E22.33709
G1 X111.245 Y117.27 E23.03966
G1 X110.537 Y117.27 E23.08097
G1 X102.73 Y109.463 E23.72512
G1 X102.73 Y110.172 E23.76649
G1 X109.828 Y117.27 E24.35214
G1 X109.119 Y117.27 E24.39351
G1 X102.73 Y110.881 E24.92066
G1 X102.73 Y111.59 E24.96203
G1 X108.41 Y117.27 E25.43068
G1 X107.702 Y117.27 E25.47199
G1 X102.73 Y112.298 E25.88223
G1 X102.73 Y113.007 E25.9236
G1 X106.993 Y117.27 E26.27534
G1 X106.284 Y117.27 E26.31671
G1 X102.73 Y113.716 E26.60995
G1 X102.73 Y114.425 E26.65132
G1 X105.575 Y117.27 E26.88606
G1 X104.866 Y117.27 E26.92743
G1 X102.505 Y114.909 E27.12223
;LAYER_CHANGE
;Z:0.48
;HEIGHT:0.2
; BEFORE_LAYER_CHANGE 1 @ 0.48mm
G1 E25.72223 F4800
;WIPE_START
G1 F5760
G1 X103.041 Y115.445 E25.12223
;WIPE_END
G92 E0
G1 Z.48 F7200
; AFTER_LAYER_CHANGE 1 @ 0.48mm
M104 S195 ; set temperature
G1 X111.29 Y99.637
G1 E2 F4800
;TYPE:External perimeter
;WIDTH:0.42
G1 F4500
G1 X114.293 Y99.637 E2.09416
G1 X120.363 Y105.707 E2.36331
G1 X120.363 Y108.71 E2.45747
G1 X120.684 Y108.71 E2.46753
G1 X120.684 Y111.29 E2.54842
G1 X120.363 Y111.29 E2.55848
G1 X120.363 Y114.293 E2.65264
G1 X114.293 Y120.363 E2.92179
G1 X111.29 Y120.363 E3.01595
G1 X111.29 Y120.684 E3.02601
G1 X108.71 Y120.684 E3.1069
G1 X108.71 Y120.363 E3.11696
G1 X105.707 Y120.363 E3.21112
G1 X99.637 Y114.292 E3.4803
G1 X99.637 Y111.29 E3.57443
G1 X99.316 Y111.29 E3.58449
G1 X99.316 Y108.71 E3.66538
G1 X99.637 Y108.71 E3.67544
G1 X99.637 Y105.708 E3.76957
G1 X105.707 Y99.637 E4.03875
G1 X108.71 Y99.637 E4.13291
G1 X108.71 Y99.316 E4.14297
G1 X111.29 Y99.316 E4.22386
G1 X111.29 Y99.577 E4.23204
G1 X111.476 Y99.992 F7200
G1 E2.83204 F4800
;WIPE_START
G1 F5760
G1 X112.048 Y99.592 E2.23204
;WIPE_END
G92 E0
G1 X106.21 Y118.765 F7200
G1 E2 F4800
G1 F4500
G1 X113.79 Y118.765 E2.23767
G1 X113.79 Y119.985 E2.27592
G1 X106.21 Y119.985 E2.51359
G1 X106.21 Y118.825 E2.54996
G1 X106.028 Y118.408 F7200
G1 E1.14996 F4800
;WIPE_START
G1 F5760
G1 X106.968 Y118.819 E.54996
;WIPE_END
G92 E0
G1 X101.235 Y106.21 F7200
G1 E2 F4800
G1 F4500
G1 X101.235 Y113.79 E2.23767
G1 X100.015 Y113.79 E2.27592
G1 X100.015 Y106.21 E2.51359
G1 X101.175 Y106.21 E2.54996
G1 X101.592 Y106.028 F7200
G1 E1.14996 F4800
;WIPE_START
G1 F5760
G1 X101.181 Y106.968 E.54996
;WIPE_END
G92 E0
G1 X106.21 Y101.235 F7200
G1 E2 F4800
G1 F4500
G1 X106.21 Y100.015 E2.03825
G1 X113.79 Y100.015 E2.27592
G1 X113.79 Y101.235 E2.31417
G1 X106.27 Y101.235 E2.54995
G1 X105.81 Y101.256 F7200
G1 E1.14995 F4800
;WIPE_START
G1 F5760
G1 X106.233 Y100.478 E.54995
;WIPE_END
G92 E0
G1 X118.373 Y114.182 F7200
G1 E2 F4800
;TYPE:Perimeter
;WIDTH:0.45
G1 F7320
G1 X119.919 Y114.182 E2.05233
G1 X114.182 Y119.919 E2.32696
G1 X114.182 Y118.373 E2.37929
G1 X105.818 Y118.373 E2.6624
G1 X105.818 Y119.919 E2.71473
G1 X100.082 Y114.182 E2.98933
G1 X101.627 Y114.182 E3.04163
G1 X101.627 Y105.818 E3.32474
G1 X100.082 Y105.818 E3.37704
G1 X105.818 Y100.081 E3.65164
G1 X105.818 Y101.627 E3.70397
G1 X114.182 Y101.627 E3.98708
G1 X114.182 Y100.081 E4.03941
G1 X119.919 Y105.818 E4.31404
G1 X118.373 Y105.818 E4.36637
G1 X118.373 Y114.122 E4.64745
G1 X117.966 Y114.589 F7200
G1 F7320
G1 X118.936 Y114.589 E4.68028
G1 X114.589 Y118.936 E4.88837
G1 X114.589 Y117.966 E4.9212
G1 X105.411 Y117.966 E5.23186
G1 X105.411 Y118.936 E5.26469
G1 X101.064 Y114.589 E5.47278
G1 X102.034 Y114.589 E5.50561
G1 X102.034 Y105.411 E5.81627
G1 X101.064 Y105.411 E5.8491
G1 X105.411 Y101.064 E6.05719
G1 X105.411 Y102.034 E6.09002
G1 X114.589 Y102.034 E6.40068
G1 X114.589 Y101.064 E6.43351
G1 X118.936 Y105.411 E6.6416
G1 X117.966 Y105.411 E6.67443
G1 X117.966 Y114.529 E6.98306
G1 X118.765 Y113.79 F7200
;TYPE:External perimeter
;WIDTH:0.42
G1 F4500
G1 X118.765 Y106.21 E7.22073
G1 X119.985 Y106.21 E7.25898
G1 X119.985 Y113.79 E7.49665
G1 X118.825 Y113.79 E7.53302
G1 X118.408 Y113.972 F7200
G1 E6.13302 F4800
;WIPE_START
G1 F5760
G1 X118.819 Y113.032 E5.53302
;WIPE_END
G92 E0
G1 X120.334 Y111.094 F7200
G1 E2 F4800
;TYPE:Gap fill
;WIDTH:0.349712
G1 F6000
G1 X120.334 Y108.906 E2.05582
G1 E.65582 F4800
;WIPE_START
G1 F5760
G1 X120.334 Y109.664 E.05582
;WIPE_END
G92 E0
G1 X111.094 Y99.666 F7200
G1 E2 F4800
;WIDTH:0.349698
G1 F6000
G1 X108.906 Y99.666 E2.05581
G1 E.65581 F4800
;WIPE_START
G1 F5760
G1 X109.664 Y99.666 E.05581
;WIPE_END
G92 E0
G1 X105.107 Y101.798 F7200
G1 E2 F4800
;TYPE:Solid infill
;WIDTH:0.38292
G1 F7320
G1 X104.962 Y101.87 E2.00458
G1 X101.87 Y104.963 E2.12822
G1 X101.798 Y105.107 E2.13277
;WIDTH:0.499999
G1 X102.274 Y105.043 E2.15102
G1 X105.043 Y102.274 E2.29985
G1 X105.562 Y102.401 E2.32016
G1 X102.401 Y105.562 E2.49006
G1 X102.401 Y106.209 E2.51465
G1 X106.209 Y102.401 E2.71933
G1 X106.855 Y102.401 E2.74388
G1 X102.401 Y106.855 E2.98328
G1 X102.401 Y107.501 E3.00783
G1 X107.501 Y102.401 E3.28195
G1 X108.148 Y102.401 E3.30654
G1 X102.401 Y108.148 E3.61544
G1 X102.401 Y108.794 E3.63999
G1 X108.794 Y102.401 E3.98361
G1 X109.441 Y102.401 E4.0082
G1 X102.401 Y109.441 E4.38659
G1 X102.401 Y110.087 E4.41114
G1 X110.087 Y102.401 E4.82425
G1 X110.733 Y102.401 E4.8488
G1 X102.401 Y110.733 E5.29664
G1 X102.401 Y111.38 E5.32123
G1 X111.38 Y102.401 E5.80384
G1 X112.026 Y102.401 E5.82839
G1 X102.401 Y112.026 E6.34572
G1 X102.401 Y112.673 E6.37031
G1 X112.673 Y102.401 E6.92242
G1 X113.319 Y102.401 E6.94697
G1 X102.401 Y113.319 E7.5338
G1 X102.401 Y113.966 E7.55839
G1 X113.966 Y102.401 E8.18
G1 X114.612 Y102.401 E8.20455
G1 X102.401 Y114.612 E8.86088
G1 X102.036 Y114.953 E8.87986
;WIDTH:0.522828
G2 X102.021 Y115.011 I-0.057 J0.016 E8.89181
G1 X102.327 Y115.333 E8.90954
;WIDTH:0.499999
G1 X115.333 Y102.327 E9.6086
;WIDTH:0.522926
G1 X115.011 Y102.021 E9.62633
G3 X114.910 Y101.994 I-0.042 J-0.044 E9.63112
G3 X114.984 Y101.920 I0.059 J-0.015 E9.63592
G1 X115.026 Y101.963 E9.63832
G1 X115.656 Y102.65 F7200
;WIDTH:0.499999
G1 F7320
G1 X102.65 Y115.656 E10.33738
G1 X102.973 Y115.979 E10.35474
G1 X115.979 Y102.973 E11.0538
G1 X116.303 Y103.296 E11.07119
G1 X103.297 Y116.302 E11.77025
G1 X103.62 Y116.626 E11.78764
G1 X116.626 Y103.62 E12.4867
G1 X116.949 Y103.943 E12.50406
G1 X103.943 Y116.949 E13.20312
G1 X104.266 Y117.272 E13.22048
G1 X117.272 Y104.266 E13.91954
G1 X117.595 Y104.589 E13.9369
G1 X104.589 Y117.595 E14.63596
G1 X105.068 Y118.048 E14.66102
;WIDTH:0.537248
G3 X105.084 Y117.988 I-0.043 J-0.044 E14.67365
G1 X105.232 Y117.599 E14.69076
;WIDTH:0.499999
G1 X117.599 Y105.232 E15.35547
G1 X118.048 Y105.068 E15.37364
;WIDTH:0.537264
G3 X118.064 Y105.009 I-0.044 J-0.043 E15.38631
G1 X117.599 Y105.879 F7200
;WIDTH:0.499999
G1 F7320
