; HEADER_BLOCK_START
; generated by AnycubicSlicerNext 1.3.9.3 on 2026-05-01 at 15:00:38
; total layer number: 515
; filament_density: 1.24
; filament_diameter: 1.75
; max_z_height: 103.04
; exclude_object: 0
; model_instances: 1
; source_info: {"models":[{"file_source":0,"mo_file_id":-1,"name":"PiMountV1.stl_id_0_copy_0"}],"models_from":0,"plate_index":1,"slice_paras_process":1,"software_version":"AnycubicSlicerNext 1.3.9.3 20260131153104"}
; paint_info = [{"material_type":"PLA","paint_color":[105,164,255],"paint_index":0}]
; project_info = {"flush_multiplier":1.0,"flush_volumes_chan_multipliers":[1.0,1.0,1.0,1.0],"flush_volumes_matrix":[0.0],"flush_volumes_vector":[140.0,140.0]}
; flush_multiplier_calculate_by_acnext: 1
; test_mode: 0
; HEADER_BLOCK_END

; THUMBNAIL_BLOCK_START
; THUMBNAIL_BLOCK_END

; external perimeters extrusion width = 0.42mm
; perimeters extrusion width = 0.45mm
; infill extrusion width = 0.45mm
; solid infill extrusion width = 0.42mm
; top infill extrusion width = 0.42mm
; support material extrusion width = 0.40mm
; first layer extrusion width = 0.50mm

; EXECUTABLE_BLOCK_START
M201 X2000 Y2000 Z800 E2000
M203 X300 Y300 Z8 E100
M204 P2000 R2000 T2000
M205 X10.00 Y10.00 Z2.00 E5.00
;TYPE:Custom
G90 ; use absolute coordinates
M83 ; extruder relative mode
M104 S220 ; set extruder temp
M140 S60 ; set bed temp
M190 S60 ; wait for bed temp
M109 S220 ; wait for extruder temp
G28                                        ; move X/Y/Z to min endstops
G1 Z0.28                                   ; lift nozzle a bit 
G92 E0 
G1 Y3 F1800                                    ; zero the extruded length 
G1 X60  E25 F500                       ; Extrude 25mm of filament in a 5cm line. 
G92 E0                                     ; zero the extruded length again 
G1 E-2 F500                                ; Retract a little 
G1 X70 F4000                              ; Quickly wipe away from the filament line
M117
G90
G21
M83 ; use relative distances for extrusion
; EXECUTABLE_BLOCK_HEAD
; filament start gcode
M75 ; The first extruder is ready.
M106 S0
;LAYER_CHANGE
;Z:0.24
;HEIGHT:0.24
; BEFORE_LAYER_CHANGE 0 @ 0.24mm
G92 E0
; AFTER_LAYER_CHANGE 0 @ 0.24mm
M204 S500
G1 E-.8 F3600
G1 X94.31 Y93.299 F18000
G1 Z.24
G1 E.8 F3600
;TYPE:Skirt
;WIDTH:0.5
G1 F3000
G1 X181.279 Y6.329 E5.39399
G1 X182.116 Y5.65 E.04729
G1 X183.024 Y5.176 E.04491
G1 X184.008 Y4.889 E.04492
G1 X185.169 Y4.803 E.05107
G1 X186.046 Y4.911 E.03873
G1 X186.922 Y5.176 E.04015
G1 X187.705 Y5.571 E.03848
G1 X188.521 Y6.189 E.04491
G1 X214.336 Y32.011 E1.6013
G1 X214.881 Y32.747 E.04015
G1 X215.276 Y33.53 E.03847
G1 X215.542 Y34.406 E.04015
G1 X215.649 Y35.277 E.03848
G1 X215.604 Y36.191 E.04015
G1 X215.412 Y37.047 E.03848
G1 X215.064 Y37.888 E.03988
G1 X214.657 Y38.547 E.03397
G1 X214.123 Y39.173 E.03609
G1 X40.137 Y213.161 E10.79098
G1 X39.43 Y213.741 E.04015
G1 X38.666 Y214.174 E.03849
G1 X37.804 Y214.482 E.04014
G1 X36.94 Y214.632 E.03848
G1 X36.025 Y214.632 E.04014
G1 X35.024 Y214.445 E.04465
G1 X34.2 Y214.127 E.03874
G1 X33.414 Y213.657 E.04014
G1 X32.788 Y213.123 E.0361
G1 X6.954 Y187.245 E1.60365
G1 X6.518 Y186.611 E.03371
G1 X6.126 Y185.784 E.04013
G1 X5.892 Y184.938 E.03849
G1 X5.806 Y184.175 E.03371
G1 X5.833 Y183.406 E.03371
G1 X6.012 Y182.509 E.04014
G1 X6.327 Y181.69 E.03848
G1 X6.798 Y180.905 E.04014
G1 X7.332 Y180.279 E.0361
G1 X94.282 Y93.327 E5.39284
; printing object "PiMountV1.stl" id:0 copy 0
G1 E-.8 F3600
G1 X212.742 Y34.142 F18000
G1 E.8 F3600
;TYPE:Outer wall
G1 F2400
G1 X212.788 Y34.218 E.00389
G1 X212.899 Y34.452 E.01138
G1 X213.024 Y34.832 E.01753
G1 X213.075 Y35.086 E.01138
G1 X213.1 Y35.345 E.01138
G1 X213.09 Y35.744 E.01753
G1 X213.052 Y36.001 E.01138
G1 X212.989 Y36.255 E.01151
G1 X212.9 Y36.502 E.01151
G1 X212.792 Y36.732 E.01113
G1 X212.577 Y37.072 E.01764
G1 X212.313 Y37.378 E.0177
G1 X38.381 Y211.313 E10.7877
G1 X38.073 Y211.578 E.01784
G1 X37.857 Y211.723 E.01138
G1 X37.626 Y211.846 E.01151
G1 X37.383 Y211.947 E.01151
G1 X37.135 Y212.022 E.01138
G1 X36.741 Y212.09 E.01753
G1 X36.482 Y212.103 E.01138
G1 X36.22 Y212.09 E.01151
G1 X35.96 Y212.052 E.01151
G1 X35.714 Y211.99 E.01113
G1 X35.336 Y211.845 E.01778
G1 X35.107 Y211.723 E.01137
G1 X34.891 Y211.579 E.01138
G1 X34.584 Y211.313 E.01784
G1 X9.044 Y185.769 E1.58413
G1 X8.878 Y185.566 E.01151
G1 X8.734 Y185.35 E.01138
G1 X8.554 Y184.994 E.01753
G1 X8.467 Y184.749 E.01138
G1 X8.404 Y184.498 E.01138
G1 X8.355 Y184.104 E.01739
G1 X8.365 Y183.708 E.01739
G1 X8.403 Y183.451 E.01138
G1 X8.466 Y183.199 E.01138
G1 X8.61 Y182.827 E.01753
G1 X8.732 Y182.598 E.01137
G1 X8.876 Y182.382 E.01138
G1 X9.142 Y182.074 E.01784
G1 X183.077 Y8.137 E10.78783
G1 X183.276 Y7.956 E.01182
G1 X183.487 Y7.799 E.01151
G1 X183.712 Y7.664 E.01151
G1 X183.95 Y7.552 E.01151
G1 X184.197 Y7.464 E.01151
G1 X184.451 Y7.4 E.01151
G1 X184.708 Y7.362 E.01138
G1 X185.099 Y7.352 E.01714
G1 X185.498 Y7.401 E.01764
G1 X185.749 Y7.464 E.01137
G1 X185.997 Y7.552 E.01151
G1 X186.234 Y7.664 E.01151
G1 X186.459 Y7.799 E.01151
G1 X186.67 Y7.956 E.01151
G1 X186.87 Y8.137 E.01182
G1 X212.409 Y33.68 E1.58412
G1 X212.658 Y34 E.01778
G1 X212.732 Y34.125 E.00636
G1 X212.339 Y34.352 F18000
;TYPE:Inner wall
G1 F2400
G1 X212.482 Y34.619 E.01328
G1 X212.59 Y34.947 E.01511
G1 X212.651 Y35.361 E.01838
G1 X212.643 Y35.706 E.01511
G1 X212.559 Y36.125 E.01876
G1 X212.398 Y36.516 E.01853
G1 X212.216 Y36.804 E.01498
G1 X211.985 Y37.072 E.01551
G1 X210.908 Y38.149 E.06676
G1 X210.723 Y38.015 E.01003
G1 X210.962 Y37.534 E.02356
G1 X211.155 Y36.934 E.02764
G1 X211.237 Y36.498 E.01946
G1 X211.276 Y35.878 E.02725
G1 X211.249 Y35.444 E.01907
G1 X211.179 Y35.015 E.01907
G1 X211.001 Y34.41 E.02764
G1 X210.734 Y33.839 E.02764
G1 X210.498 Y33.463 E.01946
G1 X210.105 Y32.982 E.02725
G1 X209.783 Y32.677 E.01946
G1 X209.283 Y32.308 E.02725
G1 X208.896 Y32.091 E.01945
G1 X208.321 Y31.856 E.02726
G1 X207.892 Y31.742 E.01946
G1 X207.276 Y31.657 E.02726
G1 X206.833 Y31.651 E.01945
G1 X206.207 Y31.722 E.02764
G1 X205.589 Y31.887 E.02804
G1 X205.005 Y32.143 E.02796
G1 X204.638 Y32.361 E.01874
G1 X204.295 Y32.614 E.01868
G1 X203.992 Y32.888 E.0179
G1 X200.997 Y35.89 E.18596
G1 X200.616 Y36.38 E.02724
G1 X200.394 Y36.754 E.01907
G1 X200.214 Y37.14 E.01869
G1 X200.073 Y37.542 E.01869
G1 X199.973 Y37.956 E.01869
G1 X199.915 Y38.379 E.01869
G1 X199.899 Y38.804 E.01869
G1 X199.926 Y39.23 E.01869
G1 X199.994 Y39.65 E.01869
G1 X200.105 Y40.062 E.01869
G1 X200.255 Y40.46 E.01869
G1 X200.445 Y40.842 E.01869
G1 X200.672 Y41.203 E.01869
G1 X200.933 Y41.539 E.01869
G1 X201.227 Y41.848 E.01869
G1 X201.55 Y42.126 E.01869
G1 X201.906 Y42.375 E.01907
G1 X202.463 Y42.67 E.02764
G1 X203.058 Y42.878 E.02764
G1 X203.492 Y42.971 E.01944
G1 X204.103 Y43.025 E.02693
G1 X204.554 Y43.009 E.01977
G1 X205.168 Y42.909 E.02728
G1 X205.593 Y42.783 E.01945
G1 X206.251 Y42.496 E.03147
G1 X206.376 Y42.68 E.00978
G1 X43.679 Y205.381 E10.09089
G1 X43.493 Y205.247 E.01003
G1 X43.732 Y204.766 E.02356
G1 X43.925 Y204.166 E.02764
G1 X44.008 Y203.73 E.01946
G1 X44.047 Y203.11 E.02725
G1 X44.019 Y202.676 E.01907
G1 X43.949 Y202.247 E.01907
G1 X43.771 Y201.642 E.02764
G1 X43.504 Y201.071 E.02766
G1 X43.264 Y200.689 E.01977
G1 X42.875 Y200.214 E.02695
G1 X42.548 Y199.904 E.01976
G1 X42.053 Y199.54 E.02693
G1 X41.674 Y199.327 E.01906
G1 X41.276 Y199.153 E.01907
G1 X40.671 Y198.975 E.02764
G1 X40.047 Y198.889 E.02764
G1 X39.603 Y198.883 E.01945
G1 X38.986 Y198.953 E.02726
G1 X38.563 Y199.055 E.01907
G1 X38.153 Y199.198 E.01907
G1 X37.588 Y199.479 E.02764
G1 X37.072 Y199.84 E.02764
G1 X36.763 Y200.12 E.01828
G1 X33.768 Y203.122 E.18596
G1 X33.387 Y203.612 E.02724
G1 X33.164 Y203.986 E.01907
G1 X32.984 Y204.372 E.01869
G1 X32.844 Y204.774 E.01869
G1 X32.744 Y205.188 E.01869
G1 X32.685 Y205.611 E.01869
G1 X32.669 Y206.036 E.01869
G1 X32.696 Y206.462 E.01869
G1 X32.766 Y206.891 E.01907
G1 X32.942 Y207.487 E.02726
G1 X33.116 Y207.886 E.01907
G1 X33.324 Y208.257 E.01869
G1 X33.569 Y208.606 E.01869
G1 X33.847 Y208.929 E.01869
G1 X34.155 Y209.223 E.01869
G1 X34.492 Y209.484 E.01869
G1 X34.853 Y209.711 E.01869
G1 X35.242 Y209.905 E.01906
G1 X35.821 Y210.108 E.02693
G1 X36.262 Y210.203 E.01977
G1 X36.882 Y210.257 E.02728
G1 X37.325 Y210.241 E.01945
G1 X37.938 Y210.141 E.02726
G1 X38.364 Y210.015 E.01946
G1 X39.021 Y209.728 E.03147
G1 X39.147 Y209.912 E.00978
G1 X38.075 Y210.984 E.06646
G1 X37.801 Y211.221 E.0159
G1 X37.434 Y211.44 E.01876
G1 X37.232 Y211.524 E.00958
G1 X37.031 Y211.585 E.0092
G1 X36.692 Y211.644 E.01511
G1 X36.264 Y211.643 E.01876
G1 X35.849 Y211.562 E.01853
G1 X35.523 Y211.436 E.01536
G1 X35.164 Y211.221 E.01836
G1 X34.889 Y210.984 E.0159
G1 X9.377 Y185.467 E1.58244
G1 X9.122 Y185.124 E.01876
G1 X8.967 Y184.816 E.01511
G1 X8.845 Y184.415 E.01838
G1 X8.804 Y184.082 E.01473
G1 X8.812 Y183.746 E.01473
G1 X8.894 Y183.335 E.01838
G1 X9.018 Y183.014 E.01511
G1 X9.234 Y182.654 E.01838
G1 X9.471 Y182.38 E.01591
G1 X10.486 Y181.364 E.06297
G1 X10.671 Y181.494 E.0099
G1 X10.491 Y181.879 E.01864
G1 X10.35 Y182.281 E.01869
G1 X10.25 Y182.696 E.01869
G1 X10.192 Y183.118 E.01869
G1 X10.176 Y183.544 E.01869
G1 X10.203 Y183.969 E.01869
G1 X10.273 Y184.398 E.01907
G1 X10.449 Y184.994 E.02726
G1 X10.623 Y185.393 E.01907
G1 X10.831 Y185.764 E.01869
G1 X11.075 Y186.113 E.01869
G1 X11.353 Y186.436 E.01869
G1 X11.662 Y186.73 E.01869
G1 X11.999 Y186.992 E.01869
G1 X12.359 Y187.218 E.01869
G1 X12.749 Y187.412 E.01907
G1 X13.335 Y187.617 E.02726
G1 X13.769 Y187.71 E.01946
G1 X14.388 Y187.765 E.02725
G1 X14.832 Y187.748 E.01946
G1 X15.445 Y187.648 E.02725
G1 X15.862 Y187.525 E.01907
G1 X16.265 Y187.361 E.01907
G1 X16.807 Y187.057 E.02726
G1 X17.157 Y186.799 E.01907
G1 X17.459 Y186.525 E.0179
G1 X20.454 Y183.523 E.18596
G1 X20.836 Y183.033 E.02724
G1 X21.058 Y182.659 E.01907
G1 X21.242 Y182.265 E.01907
G1 X21.432 Y181.673 E.02726
G1 X21.515 Y181.237 E.01946
G1 X21.553 Y180.617 E.02725
G1 X21.526 Y180.174 E.01945
G1 X21.41 Y179.563 E.02728
G1 X21.271 Y179.134 E.01977
G1 X21.011 Y178.578 E.02695
G1 X20.771 Y178.196 E.01976
G1 X20.381 Y177.721 E.02695
G1 X20.054 Y177.411 E.01976
G1 X19.56 Y177.047 E.02693
G1 X19.181 Y176.834 E.01906
G1 X18.783 Y176.66 E.01907
G1 X18.178 Y176.482 E.02764
G1 X17.554 Y176.396 E.02764
G1 X17.11 Y176.39 E.01945
G1 X16.484 Y176.461 E.02764
G1 X15.867 Y176.626 E.02803
G1 X15.276 Y176.884 E.02825
G1 X15.15 Y176.7 E.00978
G1 X177.715 Y14.132 E10.08264
G1 X177.9 Y14.262 E.0099
G1 X177.721 Y14.647 E.01864
G1 X177.58 Y15.049 E.01869
G1 X177.48 Y15.464 E.01869
G1 X177.422 Y15.886 E.01869
G1 X177.406 Y16.311 E.01869
G1 X177.432 Y16.737 E.01869
G1 X177.501 Y17.157 E.01869
G1 X177.611 Y17.569 E.01869
G1 X177.762 Y17.968 E.01869
G1 X177.952 Y18.349 E.01869
G1 X178.178 Y18.71 E.01869
G1 X178.44 Y19.046 E.01869
G1 X178.734 Y19.355 E.01869
G1 X179.057 Y19.633 E.01869
G1 X179.413 Y19.882 E.01907
G1 X179.97 Y20.177 E.02764
G1 X180.565 Y20.385 E.02764
G1 X180.99 Y20.477 E.01907
G1 X181.422 Y20.525 E.01907
G1 X182.052 Y20.517 E.02764
G1 X182.674 Y20.416 E.02764
G1 X183.092 Y20.293 E.01907
G1 X183.494 Y20.129 E.01907
G1 X184.036 Y19.825 E.02726
G1 X184.386 Y19.567 E.01907
G1 X184.689 Y19.293 E.0179
G1 X187.684 Y16.291 E.18596
G1 X188.065 Y15.801 E.02724
G1 X188.287 Y15.427 E.01907
G1 X188.467 Y15.041 E.01869
G1 X188.611 Y14.63 E.01907
G1 X188.742 Y14.023 E.02726
G1 X188.78 Y13.581 E.01945
G1 X188.757 Y12.951 E.02764
G1 X188.64 Y12.331 E.02766
G1 X188.501 Y11.902 E.01977
G1 X188.241 Y11.346 E.02693
G1 X188.005 Y10.971 E.01945
G1 X187.611 Y10.49 E.02725
G1 X187.296 Y10.19 E.01907
G1 X186.953 Y9.923 E.01907
G1 X186.411 Y9.601 E.02764
G1 X185.827 Y9.363 E.02766
G1 X185.391 Y9.247 E.01977
G1 X184.783 Y9.164 E.02693
G1 X184.34 Y9.158 E.01944
G1 X183.713 Y9.229 E.02764
G1 X183.105 Y9.392 E.02764
G1 X182.702 Y9.556 E.01907
G1 X182.519 Y9.652 E.00906
G1 X182.382 Y9.466 E.01016
G1 X183.386 Y8.462 E.0623
G1 X183.561 Y8.303 E.01037
G1 X183.924 Y8.06 E.01913
G1 X184.327 Y7.893 E.01914
G1 X184.747 Y7.81 E.01877
G1 X185.077 Y7.801 E.0145
G1 X185.416 Y7.843 E.01498
G1 X185.825 Y7.967 E.01874
G1 X186.022 Y8.06 E.00958
G1 X186.385 Y8.303 E.01913
G1 X186.56 Y8.462 E.01037
G1 X212.072 Y33.978 E1.58242
G1 X212.287 Y34.254 E.01536
G1 X212.33 Y34.334 E.00399
G1 E-.8 F3600
G1 X158.316 Y74.9 F18000
G1 E.8 F3600
;TYPE:Outer wall
G1 F2400
G1 X171.079 Y62.137 E.7916
G1 X160.225 Y51.283 E.67319
G1 X159.647 Y51.86 E.0358
G1 X147.461 Y64.046 E.7558
G1 X158.302 Y74.886 E.67231
G1 X158.316 Y75.535 F18000
;TYPE:Inner wall
G1 F2400
G1 X171.713 Y62.137 E.83094
G1 X160.225 Y50.649 E.71253
G1 X159.33 Y51.543 E.05547
G1 X146.827 Y64.046 E.77547
G1 X158.302 Y75.521 E.71165
G1 E-.8 F3600
G1 X147.073 Y89.326 F18000
G1 E.8 F3600
;TYPE:Outer wall
G1 F2400
G1 X158.881 Y77.517 E.7324
G1 X146.436 Y65.072 E.77187
G1 X145.979 Y65.529 E.02833
G1 X134.628 Y76.881 E.70407
G1 X147.059 Y89.311 E.77099
G1 X147.073 Y89.96 F18000
;TYPE:Inner wall
G1 F2400
G1 X159.516 Y77.517 E.77173
G1 X146.436 Y64.438 E.8112
G1 X145.662 Y65.211 E.048
G1 X133.993 Y76.881 E.72373
G1 X147.059 Y89.946 E.81033
G1 X146.189 Y90.209 F18000
;TYPE:Outer wall
G1 F2400
G1 X133.744 Y77.764 E.77187
G1 X133.287 Y78.221 E.02833
G1 X121.935 Y89.573 E.70407
G1 X134.38 Y102.018 E.77187
G1 X146.175 Y90.224 E.73152
G1 X146.823 Y90.209 F18000
;TYPE:Inner wall
G1 F2400
G1 X133.744 Y77.13 E.8112
G1 X132.97 Y77.904 E.048
G1 X121.301 Y89.573 E.72373
G1 X134.38 Y102.652 E.8112
G1 X146.809 Y90.224 E.77086
G1 E-.8 F3600
G1 X75.479 Y160.921 F18000
G1 E.8 F3600
;TYPE:Outer wall
G1 F2400
G1 X63.034 Y148.476 E.77187
G1 X62.577 Y148.932 E.02833
G1 X51.225 Y160.284 E.70407
G1 X63.67 Y172.729 E.77187
G1 X75.465 Y160.935 E.73152
G1 X76.113 Y160.921 F18000
;TYPE:Inner wall
G1 F2400
G1 X63.034 Y147.841 E.8112
G1 X62.26 Y148.615 E.048
G1 X50.591 Y160.284 E.72373
G1 X63.67 Y173.364 E.8112
G1 X76.099 Y160.935 E.77086
G1 X76.363 Y160.037 F18000
;TYPE:Outer wall
G1 F2400
G1 X88.171 Y148.228 E.7324
G1 X75.726 Y135.783 E.77187
G1 X75.269 Y136.24 E.02833
G1 X63.917 Y147.592 E.70407
G1 X76.348 Y160.023 E.77099
G1 X76.363 Y160.671 F18000
;TYPE:Inner wall
G1 F2400
G1 X88.805 Y148.228 E.77173
G1 X75.726 Y135.149 E.8112
G1 X74.952 Y135.923 E.048
G1 X63.283 Y147.592 E.72373
G1 X76.348 Y160.657 E.81033
G1 E-.8 F3600
G1 X87.606 Y145.612 F18000
G1 E.8 F3600
;TYPE:Outer wall
G1 F2400
G1 X100.369 Y132.848 E.7916
G1 X89.515 Y121.994 E.67319
G1 X88.937 Y122.572 E.0358
G1 X76.751 Y134.758 E.7558
G1 X87.591 Y145.598 E.67231
G1 X87.606 Y146.246 F18000
;TYPE:Inner wall
G1 F2400
G1 X101.003 Y132.848 E.83094
G1 X89.515 Y121.36 E.71253
G1 X88.62 Y122.254 E.05547
G1 X76.117 Y134.758 E.77547
G1 X87.591 Y146.232 E.71165
G1 E-.8 F3600
G1 X182.941 Y9.943 F18000
G1 E.8 F3600
;TYPE:Outer wall
G1 F2400
G1 X182.892 Y9.963 E.00235
G1 X182.552 Y10.142 E.01686
G1 X182.088 Y10.467 E.0248
G1 X181.808 Y10.72 E.01655
G1 X178.841 Y13.694 E.18424
G1 X178.494 Y14.14 E.02479
G1 X178.298 Y14.471 E.01686
G1 X178.137 Y14.816 E.01673
G1 X178.011 Y15.176 E.01672
G1 X177.921 Y15.547 E.01672
G1 X177.869 Y15.925 E.01672
G1 X177.855 Y16.306 E.01672
G1 X177.879 Y16.687 E.01673
G1 X177.94 Y17.063 E.01672
G1 X178.039 Y17.431 E.01672
G1 X178.174 Y17.788 E.01673
G1 X178.343 Y18.129 E.01673
G1 X178.546 Y18.452 E.01672
G1 X178.78 Y18.753 E.01672
G1 X179.043 Y19.03 E.01672
G1 X179.332 Y19.278 E.01673
G1 X179.647 Y19.499 E.01686
G1 X180.15 Y19.765 E.02494
G1 X180.687 Y19.953 E.02494
G1 X181.063 Y20.033 E.01686
G1 X181.445 Y20.076 E.01686
G1 X182.013 Y20.069 E.02494
G1 X182.574 Y19.978 E.02494
G1 X182.943 Y19.869 E.01686
G1 X183.299 Y19.724 E.01686
G1 X183.793 Y19.447 E.0248
G1 X184.102 Y19.219 E.01686
G1 X184.379 Y18.968 E.01641
G1 X187.347 Y15.994 E.18424
G1 X187.694 Y15.548 E.0248
G1 X187.89 Y15.217 E.01686
G1 X188.051 Y14.872 E.01672
G1 X188.178 Y14.509 E.01686
G1 X188.297 Y13.956 E.0248
G1 X188.331 Y13.57 E.017
G1 X188.31 Y13.001 E.02494
G1 X188.204 Y12.442 E.02495
G1 X188.083 Y12.067 E.01731
G1 X187.846 Y11.561 E.02448
G1 X187.64 Y11.233 E.017
G1 X187.282 Y10.795 E.0248
G1 X187.003 Y10.53 E.01686
G1 X186.7 Y10.294 E.01686
G1 X186.211 Y10.004 E.02494
