; HEADER_BLOCK_START
; generated by AnycubicSlicerNext 1.3.9.3 on 2026-03-04 at 08:16:53
; total layer number: 50
; filament_density: 1.24
; filament_diameter: 1.75
; max_z_height: 10.04
; exclude_object: 0
; model_instances: 1
; source_info: {"models":[{"file_source":0,"mo_file_id":-1,"name":"Pixel_7_case_flat.stl_id_0_copy_0"}],"models_from":0,"plate_index":1,"slice_paras_process":1,"software_version":"AnycubicSlicerNext 1.3.9.3 20260131153104"}
; paint_info = [{"material_type":"PLA","paint_color":[105,164,255],"paint_index":0}]
; project_info = {"flush_multiplier":1.0,"flush_volumes_chan_multipliers":[1.0,1.0,1.0,1.0],"flush_volumes_matrix":[0.0],"flush_volumes_vector":[140.0,140.0]}
; flush_multiplier_calculate_by_acnext: 1
; test_mode: 0
; HEADER_BLOCK_END

; THUMBNAIL_BLOCK_START
; THUMBNAIL_BLOCK_END

; external perimeters extrusion width = 0.42mm
; perimeters extrusion width = 0.45mm
; infill extrusion width = 0.45mm
; solid infill extrusion width = 0.42mm
; top infill extrusion width = 0.42mm
; support material extrusion width = 0.40mm
; first layer extrusion width = 0.50mm

; EXECUTABLE_BLOCK_START
M201 X2000 Y2000 Z800 E2000
M203 X300 Y300 Z8 E100
M204 P2000 R2000 T2000
M205 X10.00 Y10.00 Z2.00 E5.00
;TYPE:Custom
G90 ; use absolute coordinates
M83 ; extruder relative mode
M104 S220 ; set extruder temp
M140 S60 ; set bed temp
M190 S60 ; wait for bed temp
M109 S220 ; wait for extruder temp
G28                                        ; move X/Y/Z to min endstops
G1 Z0.28                                   ; lift nozzle a bit 
G92 E0 
G1 Y3 F1800                                    ; zero the extruded length 
G1 X60  E25 F500                       ; Extrude 25mm of filament in a 5cm line. 
G92 E0                                     ; zero the extruded length again 
G1 E-2 F500                                ; Retract a little 
G1 X70 F4000                              ; Quickly wipe away from the filament line
M117
G90
G21
M83 ; use relative distances for extrusion
; EXECUTABLE_BLOCK_HEAD
; filament start gcode
M75 ; The first extruder is ready.
M106 S0
;LAYER_CHANGE
;Z:0.24
;HEIGHT:0.24
; BEFORE_LAYER_CHANGE 0 @ 0.24mm
G92 E0
; AFTER_LAYER_CHANGE 0 @ 0.24mm
M204 S500
G1 E-.8 F3600
G1 X44.727 Y68.496 F18000
G1 Z.24
G1 E.8 F3600
;TYPE:Skirt
;WIDTH:0.5
G1 F3000
G1 X178.914 Y68.619 E5.88492
G1 X184.158 Y69.17 E.23125
G1 X185.379 Y69.495 E.05541
G1 X187.931 Y70.611 E.12217
G1 X190.015 Y72.108 E.1125
G1 X190.56 Y72.654 E.03383
G1 X191.088 Y73.363 E.03882
G1 X191.455 Y74.042 E.0338
G1 X191.857 Y75.224 E.05476
G1 X192.68 Y79.337 E.18399
G1 X192.164 Y140.657 E2.68931
G1 X192.058 Y142.563 E.08376
G1 X191.788 Y144.015 E.06475
G1 X190.529 Y146.911 E.13848
G1 X189.291 Y148.725 E.09633
G1 X188.767 Y149.207 E.03121
G1 X187.358 Y150.091 E.07298
G1 X185.927 Y150.54 E.06576
G1 X184.074 Y150.851 E.0824
G1 X181.116 Y151.103 E.13019
G1 X130.58 Y151.251 E2.21633
G1 X36.779 Y151.247 E4.11372
G1 X36.206 Y151.185 E.02529
G1 X34.847 Y150.827 E.06163
G1 X32.909 Y149.948 E.09331
G1 X31.893 Y149.327 E.05222
G1 X29.707 Y147.235 E.1327
G1 X29.137 Y146.549 E.03911
G1 X28.653 Y145.673 E.0439
G1 X27.95 Y143.289 E.10901
G1 X27.756 Y141.97 E.05847
G1 X27.475 Y78.229 E2.79546
G1 X27.667 Y77.22 E.04503
G1 X29.195 Y73.53 E.17517
G1 X29.528 Y72.985 E.02802
G1 X30.984 Y71.141 E.10302
G1 X31.609 Y70.566 E.03725
G1 X32.451 Y70.035 E.04365
G1 X33.4 Y69.642 E.04506
G1 X38.062 Y68.559 E.20991
G1 X38.666 Y68.49 E.02664
G1 X44.687 Y68.496 E.26406
G1 X44.687 Y68.945 F18000
G1 F3000
G1 X178.914 Y69.068 E5.88667
G1 X184.105 Y69.615 E.22894
G1 X185.25 Y69.924 E.05199
G1 X187.735 Y71.015 E.11901
G1 X189.747 Y72.467 E.10882
G1 X190.2 Y72.921 E.02815
G1 X190.729 Y73.631 E.03882
G1 X191.034 Y74.196 E.02813
G1 X191.328 Y75.002 E.03764
G1 X192.239 Y79.416 E.19769
G1 X191.715 Y140.652 E2.68567
G1 X191.61 Y142.538 E.08281
G1 X191.372 Y143.847 E.05838
G1 X190.152 Y146.669 E.13482
G1 X188.946 Y148.439 E.0939
G1 X188.51 Y148.84 E.02598
G1 X187.199 Y149.672 E.06809
G1 X185.853 Y150.098 E.06195
G1 X184 Y150.408 E.0824
G1 X181.115 Y150.655 E.12698
G1 X130.579 Y150.802 E2.21629
G1 X36.779 Y150.799 E4.11371
G1 X36.302 Y150.747 E.02105
G1 X35.032 Y150.418 E.05753
G1 X33.094 Y149.54 E.09331
G1 X32.136 Y148.95 E.04933
G1 X30.052 Y146.949 E.12673
G1 X29.482 Y146.263 E.03911
G1 X29.079 Y145.534 E.03654
G1 X28.383 Y143.17 E.10806
G1 X28.204 Y141.968 E.05331
G1 X27.923 Y78.227 E2.79546
G1 X28.083 Y77.388 E.03747
G1 X29.603 Y73.716 E.17425
G1 X29.88 Y73.263 E.02332
G1 X31.336 Y71.419 E.10302
G1 X31.856 Y70.941 E.031
G1 X32.651 Y70.436 E.04126
G1 X33.502 Y70.079 E.04051
G1 X38.163 Y68.996 E.20986
G1 X38.666 Y68.939 E.02217
G1 X44.647 Y68.944 E.26231
; printing object "Pixel 7 case flat.stl" id:0 copy 0
G1 E-.8 F3600
G1 X39.533 Y71.24 F18000
G1 E.8 F3600
;TYPE:Support
G1 F2400
G1 X40.417 Y71.629 E.04236
G1 X40.601 Y71.638 E.00809
G1 X40.611 Y71.63 E.00058
G1 X40.685 Y71.642 E.00326
G1 X40.759 Y71.646 E.00329
G1 X40.85 Y71.67 E.0041
G1 X41.249 Y71.737 E.01777
G1 X41.555 Y71.661 E.0138
G1 X42.017 Y71.56 E.02076
G1 X42.836 Y71.611 E.03599
G1 X42.995 Y71.675 E.00752
G1 X43.43 Y71.654 E.0191
G1 X43.841 Y71.56 E.01847
G1 X44.633 Y71.608 E.0348
G1 X45.198 Y71.811 E.02632
G1 X46.009 Y71.429 E.03934
G1 X46.679 Y71.366 E.02952
G1 X47.27 Y71.377 E.0259
G1 X47.902 Y71.546 E.02872
G1 X48.032 Y71.636 E.00694
G1 X48.478 Y71.675 E.01961
G1 X48.593 Y71.721 E.00544
G1 X49.323 Y71.553 E.03284
G1 X50.16 Y71.628 E.03687
G1 X50.457 Y71.738 E.01389
G1 X50.532 Y71.719 E.00339
G1 X50.986 Y71.614 E.02046
G1 X51.646 Y71.641 E.02896
G1 X52.173 Y71.747 E.02358
G1 X52.782 Y71.603 E.02742
G1 X53.433 Y71.63 E.02857
G1 X53.928 Y71.722 E.0221
G1 X54.528 Y71.583 E.02702
G1 X55.215 Y71.607 E.03013
G1 X55.823 Y71.744 E.02737
G1 X56.656 Y71.553 E.03747
G1 X57.493 Y71.628 E.03687
G1 X57.79 Y71.738 E.01388
G1 X57.865 Y71.719 E.00339
G1 X58.32 Y71.614 E.02046
G1 X58.98 Y71.641 E.02897
G1 X59.506 Y71.747 E.02354
G1 X60.115 Y71.603 E.02742
G1 X60.766 Y71.63 E.0286
G1 X61.256 Y71.721 E.02187
G1 X61.823 Y71.591 E.02551
G1 X62.13 Y71.59 E.01344
G1 X62.549 Y71.609 E.01842
G1 X63.15 Y71.743 E.02701
G1 X63.981 Y71.552 E.0374
G1 X64.821 Y71.631 E.03699
G1 X65.116 Y71.739 E.01377
G1 X65.191 Y71.72 E.0034
G1 X65.646 Y71.614 E.0205
G1 X66.305 Y71.641 E.0289
G1 X66.834 Y71.746 E.02368
G1 X67.434 Y71.604 E.02703
G1 X68.091 Y71.629 E.02883
G1 X68.582 Y71.723 E.02192
G1 X69.188 Y71.583 E.0273
G1 X69.873 Y71.607 E.03004
G1 X70.483 Y71.743 E.02744
G1 X71.315 Y71.552 E.0374
G1 X72.154 Y71.631 E.03699
G1 X72.449 Y71.739 E.01377
G1 X72.524 Y71.72 E.0034
G1 X72.98 Y71.614 E.0205
G1 X73.638 Y71.641 E.02891
G1 X74.167 Y71.746 E.02367
G1 X74.767 Y71.604 E.02703
G1 X75.424 Y71.629 E.02883
G1 X75.915 Y71.723 E.02193
G1 X76.49 Y71.591 E.02585
G1 X76.796 Y71.59 E.01345
G1 X77.216 Y71.609 E.01841
G1 X77.817 Y71.743 E.02701
G1 X78.648 Y71.552 E.0374
G1 X79.488 Y71.631 E.03699
G1 X79.782 Y71.739 E.01376
G1 X79.858 Y71.72 E.00341
G1 X80.313 Y71.614 E.0205
G1 X80.971 Y71.641 E.02889
G1 X81.501 Y71.746 E.02371
G1 X82.101 Y71.604 E.02701
G1 X82.757 Y71.629 E.02883
G1 X83.249 Y71.723 E.02194
G1 X83.855 Y71.584 E.02726
G1 X84.539 Y71.607 E.03005
G1 X85.15 Y71.743 E.02745
G1 X85.981 Y71.552 E.0374
G1 X86.821 Y71.631 E.03699
G1 X87.116 Y71.739 E.01376
G1 X87.191 Y71.72 E.0034
G1 X87.646 Y71.614 E.02049
G1 X88.305 Y71.641 E.02892
G1 X88.834 Y71.746 E.02365
G1 X89.434 Y71.604 E.02705
G1 X90.091 Y71.629 E.02883
G1 X90.582 Y71.723 E.02196
G1 X91.188 Y71.584 E.02724
G1 X91.872 Y71.607 E.03005
G1 X92.483 Y71.743 E.02746
G1 X93.315 Y71.553 E.0374
G1 X94.155 Y71.631 E.037
G1 X94.449 Y71.739 E.01376
G1 X94.524 Y71.72 E.0034
G1 X94.979 Y71.614 E.02049
G1 X95.638 Y71.641 E.02892
G1 X96.167 Y71.746 E.02364
G1 X96.731 Y71.613 E.02544
G1 X97.065 Y71.612 E.01462
G1 X97.438 Y71.632 E.01639
G1 X98.079 Y71.755 E.02864
G1 X98.201 Y71.826 E.00616
G1 X98.363 Y71.811 E.00714
G1 X98.908 Y71.533 E.02681
G1 X99.316 Y71.408 E.01875
G1 X99.874 Y71.363 E.02455
G1 X101.133 Y71.454 E.05535
G1 X101.281 Y71.636 E.01028
G1 X101.559 Y71.652 E.01222
G1 X101.742 Y71.726 E.00865
G1 X102.253 Y71.605 E.02302
G1 X102.919 Y71.629 E.02923
G1 X103.406 Y71.727 E.0218
G1 X104.008 Y71.584 E.02712
G1 X104.697 Y71.606 E.03023
G1 X105.31 Y71.742 E.02753
G1 X106.14 Y71.552 E.03734
G1 X106.983 Y71.633 E.03713
G1 X107.275 Y71.74 E.01363
G1 X107.35 Y71.72 E.00343
G1 X107.807 Y71.615 E.02054
G1 X108.469 Y71.641 E.02907
G1 X108.99 Y71.746 E.02332
G1 X109.586 Y71.605 E.02687
G1 X110.252 Y71.629 E.02923
G1 X110.739 Y71.727 E.02178
G1 X111.342 Y71.584 E.02718
G1 X112.031 Y71.606 E.03019
G1 X112.63 Y71.739 E.02691
G1 X113.53 Y71.552 E.04034
G1 X114.324 Y71.636 E.03501
G1 X114.603 Y71.738 E.01302
G1 X115.133 Y71.615 E.02387
G1 X115.799 Y71.641 E.02925
G1 X116.313 Y71.747 E.02299
G1 X116.905 Y71.606 E.0267
G1 X117.58 Y71.629 E.02963
G1 X118.057 Y71.729 E.02136
G1 X118.669 Y71.585 E.02758
G1 X119.355 Y71.606 E.03009
G1 X119.97 Y71.741 E.02761
G1 X120.799 Y71.551 E.03727
G1 X121.645 Y71.636 E.03729
G1 X121.933 Y71.741 E.01348
G1 X122.009 Y71.721 E.00341
G1 X122.466 Y71.615 E.02058
G1 X123.132 Y71.641 E.02926
G1 X123.646 Y71.747 E.023
G1 X124.239 Y71.606 E.02674
G1 X124.914 Y71.629 E.02962
G1 X125.391 Y71.728 E.02136
G1 X126.003 Y71.585 E.02755
G1 X126.688 Y71.606 E.03009
G1 X127.29 Y71.738 E.02701
G1 X128.155 Y71.558 E.03877
G1 X128.873 Y71.61 E.03153
G1 X129.493 Y71.82 E.0287
G1 X130.269 Y71.438 E.03796
G1 X130.992 Y71.363 E.03185
G1 X132.15 Y71.434 E.05089
G1 X132.33 Y71.616 E.01124
G1 X132.583 Y71.631 E.01108
G1 X132.809 Y71.709 E.01051
G1 X133.336 Y71.585 E.02372
G1 X134.022 Y71.606 E.03009
G1 X134.637 Y71.741 E.02762
G1 X135.465 Y71.551 E.03727
G1 X136.311 Y71.636 E.03729
G1 X136.6 Y71.741 E.01349
G1 X137.127 Y71.615 E.02373
G1 X137.8 Y71.641 E.02956
G1 X138.312 Y71.747 E.02292
G1 X138.905 Y71.606 E.02675
G1 X139.58 Y71.629 E.02963
G1 X140.057 Y71.729 E.02137
G1 X140.669 Y71.586 E.02755
G1 X141.355 Y71.606 E.03009
G1 X141.957 Y71.738 E.02701
G1 X142.822 Y71.558 E.03878
G1 X143.539 Y71.61 E.03153
G1 X144.159 Y71.82 E.02871
G1 X144.936 Y71.438 E.03795
G1 X145.658 Y71.363 E.03185
G1 X146.816 Y71.434 E.05086
G1 X147.017 Y71.638 E.01257
G1 X147.449 Y71.677 E.019
G1 X147.561 Y71.72 E.00528
G1 X148.298 Y71.552 E.03317
G1 X149.145 Y71.636 E.0373
G1 X149.383 Y71.723 E.01113
G1 X150.132 Y71.552 E.03369
G1 X150.978 Y71.636 E.03729
G1 X151.267 Y71.741 E.01347
G1 X151.342 Y71.721 E.00341
G1 X151.799 Y71.615 E.02057
G1 X152.466 Y71.641 E.02928
G1 X152.96 Y71.743 E.02214
G1 X153.799 Y71.552 E.03772
G1 X154.645 Y71.636 E.0373
G1 X154.895 Y71.727 E.01169
G1 X155.405 Y71.606 E.02298
G1 X156.08 Y71.629 E.02963
G1 X156.558 Y71.729 E.02138
G1 X157.139 Y71.593 E.02618
G1 X157.451 Y71.591 E.01367
G1 X157.865 Y71.608 E.01818
G1 X158.471 Y71.741 E.0272
G1 X159.299 Y71.552 E.03727
G1 X160.145 Y71.636 E.03729
G1 X160.434 Y71.741 E.01348
G1 X160.923 Y71.624 E.02207
G1 X161.272 Y71.623 E.01529
G1 X161.65 Y71.644 E.01661
G1 X162.205 Y71.76 E.02484
G1 X162.267 Y71.707 E.00358
G1 X163.195 Y71.363 E.04343
G1 X164.244 Y71.291 E.04611
G1 X164.801 Y71.621 E.02841
G1 X164.886 Y71.604 E.0038
G1 X165.672 Y71.649 E.0345
G1 X165.88 Y71.724 E.00968
G1 X166.632 Y71.552 E.03384
G1 X167.478 Y71.636 E.0373
G1 X167.767 Y71.741 E.01346
G1 X167.842 Y71.722 E.00342
G1 X168.299 Y71.615 E.02056
G1 X168.967 Y71.641 E.02932
G1 X169.478 Y71.747 E.02289
G1 X170.072 Y71.606 E.02681
G1 X170.747 Y71.629 E.02962
G1 X171.225 Y71.729 E.02139
G1 X171.836 Y71.586 E.02752
G1 X172.521 Y71.606 E.03007
G1 X173.137 Y71.741 E.02764
G1 X173.965 Y71.552 E.03727
G1 X174.812 Y71.636 E.03731
G1 X175.1 Y71.741 E.01346
G1 X175.175 Y71.722 E.00342
G1 X175.632 Y71.616 E.02056
G1 X176.3 Y71.641 E.02932
G1 X176.872 Y71.76 E.02562
G1 X176.933 Y71.707 E.00354
G1 X177.862 Y71.364 E.04344
G1 X178.912 Y71.292 E.04615
G1 X179.467 Y71.621 E.02833
G1 X179.552 Y71.604 E.0038
G1 X180.338 Y71.649 E.0345
G1 X180.546 Y71.724 E.0097
G1 X181.268 Y71.559 E.03249
G1 X182.033 Y71.608 E.03361
G1 X182.665 Y71.822 E.02928
G1 X182.752 Y71.871 E.00438
G1 X183.056 Y71.802 E.01367
G1 X183.842 Y71.824 E.03451
G1 X184.608 Y72.054 E.03507
G1 X185.327 Y72.537 E.03796
G1 X186.06 Y72.673 E.0327
G1 X186.761 Y73.014 E.0342
G1 X187.295 Y73.603 E.03485
G1 X187.699 Y73.733 E.01864
G1 X188.416 Y74.25 E.03874
G1 X188.945 Y74.96 E.03882
G1 X189.239 Y75.766 E.03764
G1 X189.283 Y76.198 E.01905
G1 X189.224 Y76.988 E.03474
G1 X189.404 Y77.52 E.02466
G1 X189.442 Y77.895 E.0165
G1 X189.439 Y78.1 E.00899
G1 X189.876 Y78.842 E.0378
G1 X190.049 Y79.808 E.04304
G1 X189.875 Y80.774 E.04304
G1 X189.484 Y81.435 E.03371
G1 X189.491 Y81.965 E.02324
G1 X189.335 Y82.451 E.02238
G1 X189.479 Y82.962 E.02327
G1 X189.49 Y83.605 E.02819
G1 X189.416 Y84.082 E.02118
G1 X189.338 Y84.295 E.00993
G1 X189.479 Y84.798 E.02294
G1 X189.49 Y85.556 E.03324
G1 X189.394 Y85.975 E.01884
G1 X189.338 Y86.128 E.00716
G1 X189.479 Y86.631 E.02293
G1 X189.491 Y87.465 E.03658
G1 X189.335 Y87.951 E.02239
G1 X189.479 Y88.462 E.02328
G1 X189.49 Y89.105 E.02819
G1 X189.416 Y89.582 E.02118
G1 X189.338 Y89.795 E.00993
G1 X189.479 Y90.298 E.02294
G1 X189.49 Y91.056 E.03324
G1 X189.394 Y91.475 E.01884
G1 X189.338 Y91.628 E.00716
G1 X189.479 Y92.131 E.02293
G1 X189.491 Y92.965 E.03658
G1 X189.335 Y93.451 E.02239
G1 X189.479 Y93.965 E.02339
G1 X189.491 Y94.799 E.03658
G1 X189.335 Y95.285 E.02239
G1 X189.479 Y95.796 E.02328
G1 X189.49 Y96.438 E.02819
G1 X189.416 Y96.915 E.02118
G1 X189.338 Y97.128 E.00993
G1 X189.479 Y97.631 E.02293
G1 X189.49 Y98.389 E.03324
G1 X189.394 Y98.808 E.01884
G1 X189.338 Y98.961 E.00717
G1 X189.479 Y99.465 E.02293
G1 X189.491 Y100.299 E.03658
G1 X189.335 Y100.785 E.02239
G1 X189.479 Y101.298 E.02339
G1 X189.49 Y102.056 E.03324
G1 X189.394 Y102.475 E.01884
G1 X189.338 Y102.628 E.00716
G1 X189.479 Y103.131 E.02294
G1 X189.491 Y103.965 E.03658
G1 X189.335 Y104.451 E.02238
G1 X189.479 Y104.965 E.02339
G1 X189.491 Y105.799 E.03658
G1 X189.335 Y106.285 E.02239
G1 X189.479 Y106.796 E.02328
G1 X189.49 Y107.438 E.02819
G1 X189.416 Y107.915 E.02117
G1 X189.338 Y108.128 E.00994
G1 X189.479 Y108.631 E.02294
G1 X189.49 Y109.389 E.03324
G1 X189.394 Y109.808 E.01884
G1 X189.338 Y109.961 E.00716
G1 X189.479 Y110.465 E.02294
G1 X189.491 Y111.299 E.03658
G1 X189.335 Y111.785 E.02238
G1 X189.479 Y112.298 E.02339
G1 X189.491 Y113.132 E.03658
G1 X189.335 Y113.618 E.02239
G1 X189.479 Y114.131 E.02339
G1 X189.491 Y114.965 E.03658
G1 X189.335 Y115.451 E.02239
G1 X189.479 Y115.965 E.02339
G1 X189.491 Y116.799 E.03658
G1 X189.335 Y117.285 E.02238
G1 X189.479 Y117.796 E.02328
G1 X189.49 Y118.438 E.02819
G1 X189.416 Y118.915 E.02117
G1 X189.338 Y119.128 E.00994
G1 X189.479 Y119.631 E.02293
G1 X189.491 Y120.465 E.03658
G1 X189.335 Y120.951 E.02239
G1 X189.479 Y121.462 E.02328
G1 X189.49 Y122.105 E.02819
G1 X189.416 Y122.582 E.02117
G1 X189.338 Y122.795 E.00994
G1 X189.479 Y123.296 E.02282
G1 X189.49 Y123.938 E.02819
G1 X189.416 Y124.415 E.02117
G1 X189.338 Y124.628 E.00994
G1 X189.479 Y125.131 E.02293
G1 X189.49 Y125.889 E.03324
G1 X189.394 Y126.308 E.01884
G1 X189.338 Y126.461 E.00717
G1 X189.479 Y126.965 E.02293
G1 X189.491 Y127.799 E.03658
G1 X189.335 Y128.285 E.02239
G1 X189.479 Y128.798 E.0234
G1 X189.49 Y129.556 E.03324
G1 X189.394 Y129.975 E.01884
G1 X189.338 Y130.128 E.00716
G1 X189.479 Y130.631 E.02293
G1 X189.491 Y131.465 E.03658
G1 X189.335 Y131.951 E.02239
G1 X189.479 Y132.465 E.02339
G1 X189.491 Y133.299 E.03658
G1 X189.335 Y133.785 E.02239
G1 X189.479 Y134.298 E.02339
G1 X189.491 Y135.132 E.03658
G1 X189.335 Y135.618 E.02238
G1 X189.479 Y136.131 E.02339
G1 X189.491 Y136.965 E.03658
G1 X189.335 Y137.451 E.02238
G1 X189.479 Y137.965 E.02338
G1 X189.491 Y138.799 E.03658
G1 X189.335 Y139.285 E.02239
G1 X189.479 Y139.798 E.02339
G1 X189.491 Y140.632 E.03658
G1 X189.245 Y141.397 E.03522
G1 X189.348 Y141.795 E.01806
G1 X189.389 Y142.41 E.02703
G1 X189.309 Y143.016 E.02679
G1 X189.011 Y143.755 E.03497
G1 X188.625 Y144.244 E.0273
G1 X188.603 Y144.67 E.01869
G1 X188.279 Y145.469 E.03781
G1 X187.739 Y146.139 E.03776
G1 X187.689 Y146.159 E.00238
