; HEADER_BLOCK_START
; generated by AnycubicSlicerNext 1.3.9.3 on 2026-03-06 at 17:16:47
; total layer number: 57
; filament_density: 1.24
; filament_diameter: 1.75
; max_z_height: 11.44
; exclude_object: 0
; model_instances: 1
; source_info: {"models":[{"file_source":0,"mo_file_id":-1,"name":"Pixel_7_case_raised_corners_0.2_XYZ_tolerance.stl_id_0_copy_0"}],"models_from":0,"plate_index":1,"slice_paras_process":1,"software_version":"AnycubicSlicerNext 1.3.9.3 20260131153104"}
; paint_info = [{"material_type":"PLA","paint_color":[105,164,255],"paint_index":0}]
; project_info = {"flush_multiplier":1.0,"flush_volumes_chan_multipliers":[1.0,1.0,1.0,1.0],"flush_volumes_matrix":[0.0],"flush_volumes_vector":[140.0,140.0]}
; flush_multiplier_calculate_by_acnext: 1
; test_mode: 0
; HEADER_BLOCK_END

; THUMBNAIL_BLOCK_START
; THUMBNAIL_BLOCK_END

; external perimeters extrusion width = 0.42mm
; perimeters extrusion width = 0.45mm
; infill extrusion width = 0.45mm
; solid infill extrusion width = 0.42mm
; top infill extrusion width = 0.42mm
; first layer extrusion width = 0.50mm

; EXECUTABLE_BLOCK_START
M201 X2000 Y2000 Z800 E2000
M203 X300 Y300 Z8 E100
M204 P2000 R2000 T2000
M205 X10.00 Y10.00 Z2.00 E5.00
;TYPE:Custom
G90 ; use absolute coordinates
M83 ; extruder relative mode
M104 S220 ; set extruder temp
M140 S60 ; set bed temp
M190 S60 ; wait for bed temp
M109 S220 ; wait for extruder temp
G28                                        ; move X/Y/Z to min endstops
G1 Z0.28                                   ; lift nozzle a bit 
G92 E0 
G1 Y3 F1800                                    ; zero the extruded length 
G1 X60  E25 F500                       ; Extrude 25mm of filament in a 5cm line. 
G92 E0                                     ; zero the extruded length again 
G1 E-2 F500                                ; Retract a little 
G1 X70 F4000                              ; Quickly wipe away from the filament line
M117
G90
G21
M83 ; use relative distances for extrusion
; EXECUTABLE_BLOCK_HEAD
; filament start gcode
M75 ; The first extruder is ready.
M106 S0
;LAYER_CHANGE
;Z:0.24
;HEIGHT:0.24
; BEFORE_LAYER_CHANGE 0 @ 0.24mm
G92 E0
; AFTER_LAYER_CHANGE 0 @ 0.24mm
M204 S500
G1 E-.8 F3600
G1 X74.493 Y50.232 F18000
G1 Z.24
G1 E.8 F3600
;TYPE:Skirt
;WIDTH:0.5
G1 F3000
G1 X74.493 Y37.139 E.57421
G1 X74.608 Y36.267 E.03858
G1 X74.845 Y35.628 E.02989
G1 X75.315 Y34.818 E.04108
G1 X76.018 Y34.115 E.04361
G1 X77.088 Y33.536 E.05337
G1 X78.234 Y33.295 E.05135
G1 X141.766 Y33.295 E2.78625
G1 X142.907 Y33.534 E.05112
G1 X143.587 Y33.854 E.03296
G1 X144.133 Y34.234 E.02919
G1 X144.685 Y34.818 E.03524
G1 X145.05 Y35.407 E.03038
G1 X145.392 Y36.267 E.04059
G1 X145.505 Y37.034 E.03399
G1 X145.507 Y182.861 E6.3954
G1 X145.392 Y183.733 E.03858
G1 X145.164 Y184.353 E.02898
G1 X144.685 Y185.182 E.04198
G1 X143.982 Y185.885 E.04362
G1 X142.912 Y186.464 E.05336
G1 X141.766 Y186.705 E.05137
G1 X78.339 Y186.707 E2.78163
G1 X77.467 Y186.592 E.03858
G1 X76.847 Y186.364 E.02898
G1 X76.018 Y185.885 E.04197
G1 X75.315 Y185.182 E.04362
G1 X74.963 Y184.618 E.02913
G1 X74.64 Y183.842 E.03688
G1 X74.493 Y182.861 E.04351
G1 X74.493 Y50.272 E5.81481
G1 X74.941 Y50.272 F18000
G1 F3000
G1 X74.941 Y37.139 E.57597
G1 X75.038 Y36.395 E.03292
G1 X75.259 Y35.801 E.02778
G1 X75.666 Y35.097 E.03569
G1 X76.297 Y34.466 E.03911
G1 X77.261 Y33.95 E.04799
G1 X78.252 Y33.743 E.04438
G1 X141.748 Y33.743 E2.78471
G1 X142.735 Y33.948 E.04418
G1 X143.374 Y34.249 E.031
G1 X143.854 Y34.586 E.0257
G1 X144.334 Y35.097 E.03074
G1 X144.655 Y35.619 E.0269
G1 X144.962 Y36.395 E.03658
G1 X145.057 Y37.051 E.02911
G1 X145.059 Y182.861 E6.39462
G1 X144.962 Y183.605 E.03292
G1 X144.75 Y184.181 E.02691
G1 X144.334 Y184.903 E.03655
G1 X143.703 Y185.534 E.03911
G1 X142.739 Y186.05 E.04798
G1 X141.748 Y186.257 E.04439
G1 X78.339 Y186.259 E2.78086
G1 X77.595 Y186.162 E.03292
G1 X77.019 Y185.95 E.02691
G1 X76.297 Y185.534 E.03655
G1 X75.666 Y184.903 E.03912
G1 X75.357 Y184.404 E.02575
G1 X75.07 Y183.714 E.03276
G1 X74.941 Y182.861 E.03786
G1 X74.941 Y50.312 E5.81306
; printing object "Pixel 7 case raised corners 0.2 XYZ tolerance.stl" id:0 copy 0
G1 E-.8 F3600
G1 X142.51 Y173.363 F18000
G1 E.8 F3600
;TYPE:Outer wall
G1 F2400
G1 X142.51 Y182.37 E.39498
G1 X142.506 Y182.913 E.02384
G1 X142.4 Y183.191 E.01304
G1 X142.319 Y183.342 E.0075
G1 X142.241 Y183.441 E.00553
G1 X142.147 Y183.515 E.00523
G1 X141.767 Y183.693 E.0184
G1 X141.654 Y183.71 E.00499
G1 X78.286 Y183.706 E2.77909
G1 X78.009 Y183.6 E.013
G1 X77.858 Y183.519 E.0075
G1 X77.759 Y183.441 E.00553
G1 X77.681 Y183.341 E.00557
G1 X77.606 Y183.204 E.00685
G1 X77.494 Y182.914 E.01364
G1 X77.491 Y173.363 E.41884
G1 X142.49 Y173.363 E2.8506
G1 X142.061 Y173.812 F18000
;TYPE:Inner wall
G1 F2400
G1 X142.061 Y182.368 E.37524
G1 X142.058 Y182.829 E.02022
G1 X141.991 Y183.004 E.00822
G1 X141.928 Y183.122 E.00588
G1 X141.631 Y183.261 E.01436
G1 X78.369 Y183.257 E2.77445
G1 X78.196 Y183.191 E.00811
G1 X78.079 Y183.121 E.00598
G1 X78.014 Y183.016 E.00543
G1 X77.943 Y182.83 E.00871
G1 X77.939 Y173.812 E.39551
G1 X142.041 Y173.812 E2.81125
G1 E-.8 F3600
G1 X141.012 Y173.946 F18000
G1 E.8 F3600
;TYPE:Bottom surface
;WIDTH:0.503706
G1 F3000
G1 X141.725 Y174.659 E.04457
G1 X141.725 Y175.299 E.02828
G1 X140.574 Y174.148 E.07194
G1 X139.935 Y174.148 E.02828
G1 X141.725 Y175.938 E.11193
G1 X141.725 Y176.578 E.02828
G1 X139.295 Y174.148 E.15192
G1 X138.656 Y174.148 E.02828
G1 X141.725 Y177.217 E.19191
G1 X141.725 Y177.857 E.02828
G1 X138.016 Y174.148 E.2319
G1 X137.377 Y174.148 E.02828
G1 X141.725 Y178.496 E.27189
G1 X141.725 Y179.136 E.02828
G1 X136.737 Y174.148 E.31188
G1 X136.098 Y174.148 E.02828
G1 X141.725 Y179.775 E.35188
G1 X141.725 Y180.415 E.02828
G1 X135.458 Y174.148 E.39187
G1 X134.819 Y174.148 E.02828
G1 X141.725 Y181.054 E.43186
G1 X141.725 Y181.694 E.02828
G1 X134.179 Y174.148 E.47185
G1 X133.54 Y174.148 E.02828
G1 X141.725 Y182.333 E.51184
G1 X141.722 Y182.766 E.01914
G1 X141.684 Y182.865 E.00468
G1 X141.638 Y182.886 E.00224
G1 X132.9 Y174.148 E.54643
G1 X132.261 Y174.148 E.02828
G1 X141.037 Y182.925 E.54883
G1 X140.398 Y182.925 E.02828
G1 X131.621 Y174.148 E.54883
G1 X130.982 Y174.148 E.02828
G1 X139.758 Y182.925 E.54883
G1 X139.119 Y182.925 E.02828
G1 X130.342 Y174.148 E.54882
G1 X129.703 Y174.148 E.02828
G1 X138.479 Y182.924 E.54882
G1 X137.839 Y182.924 E.02828
G1 X129.063 Y174.148 E.54882
G1 X128.424 Y174.148 E.02828
G1 X137.2 Y182.924 E.54882
G1 X136.56 Y182.924 E.02828
G1 X127.784 Y174.148 E.54881
G1 X127.145 Y174.148 E.02828
G1 X135.921 Y182.924 E.54881
G1 X135.281 Y182.924 E.02828
G1 X126.505 Y174.148 E.54881
G1 X125.866 Y174.148 E.02828
G1 X134.642 Y182.924 E.54881
G1 X134.002 Y182.924 E.02828
G1 X125.226 Y174.148 E.5488
G1 X124.587 Y174.148 E.02828
G1 X133.363 Y182.924 E.5488
G1 X132.723 Y182.924 E.02828
G1 X123.947 Y174.148 E.5488
G1 X123.308 Y174.148 E.02828
G1 X132.083 Y182.924 E.5488
G1 X131.444 Y182.924 E.02828
G1 X122.668 Y174.148 E.54879
G1 X122.029 Y174.148 E.02828
G1 X130.804 Y182.924 E.54879
G1 X130.165 Y182.924 E.02828
G1 X121.389 Y174.148 E.54879
G1 X120.75 Y174.148 E.02828
G1 X129.525 Y182.924 E.54879
G1 X128.886 Y182.924 E.02828
G1 X120.11 Y174.148 E.54878
G1 X119.47 Y174.148 E.02828
G1 X128.246 Y182.924 E.54878
G1 X127.607 Y182.924 E.02828
G1 X118.831 Y174.148 E.54878
G1 X118.191 Y174.148 E.02828
G1 X126.967 Y182.924 E.54878
G1 X126.328 Y182.924 E.02828
G1 X117.552 Y174.148 E.54877
G1 X116.912 Y174.148 E.02828
G1 X125.688 Y182.924 E.54877
G1 X125.048 Y182.924 E.02828
G1 X116.273 Y174.148 E.54877
G1 X115.633 Y174.148 E.02828
G1 X124.409 Y182.924 E.54877
G1 X123.769 Y182.924 E.02828
G1 X114.994 Y174.148 E.54876
G1 X114.354 Y174.148 E.02828
G1 X123.13 Y182.924 E.54876
G1 X122.49 Y182.923 E.02828
G1 X113.715 Y174.148 E.54876
G1 X113.075 Y174.148 E.02828
G1 X121.851 Y182.923 E.54876
G1 X121.211 Y182.923 E.02828
G1 X112.436 Y174.148 E.54875
G1 X111.796 Y174.148 E.02828
G1 X120.572 Y182.923 E.54875
G1 X119.932 Y182.923 E.02828
G1 X111.157 Y174.148 E.54875
G1 X110.517 Y174.148 E.02828
G1 X119.292 Y182.923 E.54875
G1 X118.653 Y182.923 E.02828
G1 X109.878 Y174.148 E.54874
G1 X109.238 Y174.148 E.02828
G1 X118.013 Y182.923 E.54874
G1 X117.374 Y182.923 E.02828
G1 X108.599 Y174.148 E.54874
G1 X107.959 Y174.148 E.02828
G1 X116.734 Y182.923 E.54874
G1 X116.095 Y182.923 E.02828
G1 X107.32 Y174.148 E.54873
G1 X106.68 Y174.148 E.02828
G1 X115.455 Y182.923 E.54873
G1 X114.816 Y182.923 E.02828
G1 X106.041 Y174.148 E.54873
G1 X105.401 Y174.148 E.02828
G1 X114.176 Y182.923 E.54873
G1 X113.537 Y182.923 E.02828
G1 X104.762 Y174.148 E.54872
G1 X104.122 Y174.148 E.02828
G1 X112.897 Y182.923 E.54872
G1 X112.257 Y182.923 E.02828
G1 X103.483 Y174.148 E.54872
G1 X102.843 Y174.148 E.02828
G1 X111.618 Y182.923 E.54872
G1 X110.978 Y182.923 E.02828
G1 X102.204 Y174.148 E.54871
G1 X101.564 Y174.148 E.02828
G1 X110.339 Y182.923 E.54871
G1 X109.699 Y182.923 E.02828
G1 X100.925 Y174.148 E.54871
G1 X100.285 Y174.148 E.02828
G1 X109.06 Y182.923 E.54871
G1 X108.42 Y182.923 E.02828
G1 X99.646 Y174.148 E.5487
G1 X99.006 Y174.148 E.02828
G1 X107.781 Y182.923 E.5487
G1 X107.141 Y182.923 E.02828
G1 X98.367 Y174.148 E.5487
G1 X97.727 Y174.148 E.02828
G1 X106.501 Y182.922 E.5487
G1 X105.862 Y182.922 E.02828
G1 X97.088 Y174.148 E.54869
G1 X96.448 Y174.148 E.02828
G1 X105.222 Y182.922 E.54869
G1 X104.583 Y182.922 E.02828
G1 X95.809 Y174.148 E.54869
G1 X95.169 Y174.148 E.02828
G1 X103.943 Y182.922 E.54869
G1 X103.304 Y182.922 E.02828
G1 X94.53 Y174.148 E.54868
G1 X93.89 Y174.148 E.02828
G1 X102.664 Y182.922 E.54868
G1 X102.025 Y182.922 E.02828
G1 X93.251 Y174.148 E.54868
G1 X92.611 Y174.148 E.02828
G1 X101.385 Y182.922 E.54868
G1 X100.746 Y182.922 E.02828
G1 X91.972 Y174.148 E.54867
G1 X91.332 Y174.148 E.02828
G1 X100.106 Y182.922 E.54867
G1 X99.466 Y182.922 E.02828
G1 X90.693 Y174.148 E.54867
G1 X90.053 Y174.148 E.02828
G1 X98.827 Y182.922 E.54867
G1 X98.187 Y182.922 E.02828
G1 X89.414 Y174.148 E.54866
G1 X88.774 Y174.148 E.02828
G1 X97.548 Y182.922 E.54866
G1 X96.908 Y182.922 E.02828
G1 X88.134 Y174.148 E.54866
G1 X87.495 Y174.148 E.02828
G1 X96.269 Y182.922 E.54866
G1 X95.629 Y182.922 E.02828
G1 X86.855 Y174.148 E.54865
G1 X86.216 Y174.148 E.02828
G1 X94.99 Y182.922 E.54865
G1 X94.35 Y182.922 E.02828
G1 X85.576 Y174.148 E.54865
G1 X84.937 Y174.148 E.02828
G1 X93.71 Y182.922 E.54865
G1 X93.071 Y182.922 E.02828
G1 X84.297 Y174.148 E.54864
G1 X83.658 Y174.148 E.02828
G1 X92.431 Y182.922 E.54864
G1 X91.792 Y182.922 E.02828
G1 X83.018 Y174.148 E.54864
G1 X82.379 Y174.148 E.02828
G1 X91.152 Y182.922 E.54864
G1 X90.513 Y182.921 E.02828
G1 X81.739 Y174.148 E.54863
G1 X81.1 Y174.148 E.02828
G1 X89.873 Y182.921 E.54863
G1 X89.234 Y182.921 E.02828
G1 X80.46 Y174.148 E.54863
G1 X79.821 Y174.148 E.02828
G1 X88.594 Y182.921 E.54863
G1 X87.955 Y182.921 E.02828
G1 X79.181 Y174.148 E.54862
G1 X78.542 Y174.148 E.02828
G1 X87.315 Y182.921 E.54862
G1 X86.675 Y182.921 E.02828
G1 X78.276 Y174.522 E.52526
G1 X78.276 Y175.161 E.02829
G1 X86.036 Y182.921 E.48525
G1 X85.396 Y182.921 E.02828
G1 X78.276 Y175.801 E.44524
G1 X78.277 Y176.441 E.02829
G1 X84.757 Y182.921 E.40523
G1 X84.117 Y182.921 E.02828
G1 X78.277 Y177.081 E.36522
G1 X78.277 Y177.721 E.02829
G1 X83.478 Y182.921 E.32521
G1 X82.838 Y182.921 E.02828
G1 X78.277 Y178.36 E.2852
G1 X78.278 Y179 E.02829
G1 X82.199 Y182.921 E.24519
G1 X81.559 Y182.921 E.02828
G1 X78.278 Y179.64 E.20518
G1 X78.278 Y180.28 E.02829
G1 X80.919 Y182.921 E.16517
G1 X80.28 Y182.921 E.02828
G1 X78.278 Y180.919 E.12516
G1 X78.279 Y181.559 E.02829
G1 X79.64 Y182.921 E.08515
G1 X79.001 Y182.921 E.02828
G1 X78.077 Y181.997 E.05777
G1 E-.8 F3600
G1 X78.215 Y174.036 F18000
G1 E.8 F3600
;TYPE:Gap infill
;WIDTH:0.168997
G1 F2400
G1 X78.224 Y174.233 E.00227
G1 X78.321 Y174.258 E.00115
G1 E-.8 F3600
G1 X142.51 Y152.293 F18000
G1 E.8 F3600
;TYPE:Outer wall
;WIDTH:0.5
G1 F2400
G1 X77.49 Y152.293 E2.85148
G1 X77.49 Y37.146 E5.04991
G1 X77.507 Y37.033 E.00499
G1 X77.685 Y36.653 E.0184
G1 X77.759 Y36.56 E.00523
G1 X77.853 Y36.485 E.00523
G1 X78.233 Y36.307 E.0184
G1 X78.346 Y36.29 E.00499
G1 X141.714 Y36.294 E2.77909
G1 X141.991 Y36.4 E.013
G1 X142.142 Y36.481 E.0075
G1 X142.241 Y36.559 E.00553
G1 X142.319 Y36.658 E.00553
G1 X142.402 Y36.812 E.00767
G1 X142.491 Y37.028 E.01023
G1 X142.51 Y37.146 E.00524
G1 X142.51 Y152.273 E5.04903
G1 X142.061 Y151.844 F18000
;TYPE:Inner wall
G1 F2400
G1 X77.939 Y151.844 E2.81214
G1 X77.939 Y37.169 E5.02922
G1 X78.076 Y36.876 E.01417
G1 X78.369 Y36.739 E.01417
G1 X141.631 Y36.743 E2.77445
G1 X141.804 Y36.809 E.00811
G1 X141.921 Y36.879 E.00598
G1 X142.061 Y37.161 E.01383
G1 X142.061 Y151.824 E5.02867
G1 E-.8 F3600
G1 X141.927 Y38.002 F18000
G1 E.8 F3600
;TYPE:Bottom surface
;WIDTH:0.500827
G1 F3000
G1 X141.003 Y37.079 E.05736
G1 X140.368 Y37.079 E.02792
G1 X141.725 Y38.436 E.08431
G1 X141.725 Y39.071 E.02792
G1 X139.732 Y37.079 E.12379
G1 X139.097 Y37.079 E.02792
G1 X141.725 Y39.707 E.16328
G1 X141.725 Y40.342 E.02792
G1 X138.461 Y37.079 E.20277
G1 X137.826 Y37.079 E.02792
G1 X141.725 Y40.978 E.24225
G1 X141.725 Y41.613 E.02792
G1 X137.19 Y37.079 E.28174
G1 X136.555 Y37.079 E.02792
G1 X141.725 Y42.249 E.32122
G1 X141.725 Y42.884 E.02792
G1 X135.92 Y37.079 E.36071
G1 X135.284 Y37.079 E.02792
G1 X141.725 Y43.52 E.4002
G1 X141.725 Y44.155 E.02792
G1 X134.649 Y37.079 E.43968
G1 X134.013 Y37.079 E.02792
G1 X141.725 Y44.79 E.47917
G1 X141.725 Y45.426 E.02792
G1 X133.378 Y37.079 E.51865
G1 X132.742 Y37.079 E.02792
G1 X141.725 Y46.061 E.55814
G1 X141.725 Y46.697 E.02792
G1 X132.107 Y37.079 E.59763
G1 X131.471 Y37.079 E.02792
G1 X141.725 Y47.332 E.63711
G1 X141.725 Y47.968 E.02792
G1 X130.836 Y37.079 E.6766
G1 X130.2 Y37.079 E.02792
G1 X141.725 Y48.603 E.71609
G1 X141.725 Y49.238 E.02792
G1 X129.565 Y37.079 E.75557
G1 X128.929 Y37.078 E.02792
G1 X141.725 Y49.874 E.79506
G1 X141.725 Y50.509 E.02792
G1 X128.294 Y37.078 E.83454
G1 X127.658 Y37.078 E.02792
G1 X141.725 Y51.145 E.87403
G1 X141.725 Y51.78 E.02792
G1 X127.023 Y37.078 E.91352
G1 X126.387 Y37.078 E.02792
G1 X141.725 Y52.416 E.953
G1 X141.725 Y53.051 E.02792
G1 X125.752 Y37.078 E.99249
G1 X125.116 Y37.078 E.02792
G1 X141.725 Y53.687 E1.03198
G1 X141.725 Y54.322 E.02792
G1 X124.481 Y37.078 E1.07146
G1 X123.845 Y37.078 E.02792
G1 X141.725 Y54.957 E1.11095
G1 X141.725 Y55.593 E.02792
G1 X123.21 Y37.078 E1.15043
G1 X122.574 Y37.078 E.02792
G1 X141.725 Y56.228 E1.18992
G1 X141.725 Y56.864 E.02792
G1 X121.939 Y37.078 E1.22941
G1 X121.304 Y37.078 E.02792
G1 X141.725 Y57.499 E1.26889
G1 X141.725 Y58.135 E.02792
G1 X120.668 Y37.078 E1.30838
G1 X120.033 Y37.078 E.02792
G1 X141.725 Y58.77 E1.34787
G1 X141.725 Y59.405 E.02792
G1 X119.397 Y37.078 E1.38735
G1 X118.762 Y37.078 E.02792
G1 X141.725 Y60.041 E1.42684
G1 X141.725 Y60.676 E.02792
G1 X118.126 Y37.078 E1.46632
G1 X117.491 Y37.078 E.02792
G1 X141.725 Y61.312 E1.50581
G1 X141.725 Y61.947 E.02792
G1 X116.855 Y37.078 E1.5453
G1 X116.22 Y37.078 E.02792
G1 X141.725 Y62.583 E1.58478
G1 X141.725 Y63.218 E.02792
G1 X115.584 Y37.078 E1.62427
G1 X114.949 Y37.078 E.02792
G1 X141.725 Y63.854 E1.66376
G1 X141.725 Y64.489 E.02792
G1 X114.313 Y37.078 E1.70324
G1 X113.678 Y37.078 E.02792
G1 X141.725 Y65.124 E1.74273
G1 X141.725 Y65.76 E.02792
G1 X113.042 Y37.077 E1.78221
G1 X112.407 Y37.077 E.02792
G1 X141.725 Y66.395 E1.8217
G1 X141.725 Y67.031 E.02792
G1 X111.771 Y37.077 E1.86119
G1 X111.136 Y37.077 E.02792
G1 X141.725 Y67.666 E1.90067
G1 X141.725 Y68.302 E.02792
G1 X110.5 Y37.077 E1.94016
G1 X109.865 Y37.077 E.02792
G1 X141.725 Y68.937 E1.97965
G1 X141.725 Y69.572 E.02792
G1 X109.229 Y37.077 E2.01913
G1 X108.594 Y37.077 E.02792
G1 X141.725 Y70.208 E2.05862
G1 X141.725 Y70.843 E.02792
G1 X107.958 Y37.077 E2.0981
G1 X107.323 Y37.077 E.02792
G1 X141.725 Y71.479 E2.13759
G1 X141.725 Y72.114 E.02792
G1 X106.688 Y37.077 E2.17708
G1 X106.052 Y37.077 E.02792
G1 X141.725 Y72.75 E2.21656
G1 X141.725 Y73.385 E.02792
G1 X105.417 Y37.077 E2.25605
G1 X104.781 Y37.077 E.02792
G1 X141.725 Y74.021 E2.29554
G1 X141.725 Y74.656 E.02792
G1 X104.146 Y37.077 E2.33502
