; Postprocessed by [ArcWelder](https://github.com/FormerLurker/ArcWelderLib)
; Copyright(C) 2021 - Brad Hochgesang
; Version: 1.2.0, Branch: master, BuildDate: 2021-11-21T20:04:00Z
; resolution=0.05mm
; path_tolerance=5.0%
; max_radius=9999.00mm
; default_xyz_precision=3
; default_e_precision=5
; extrusion_rate_variance=5.0%

; generated by AnycubicSlicer 1.4.4 on 2026-02-20 at 06:14:38 UTC




; 

; external perimeters extrusion width = 0.42mm
; perimeters extrusion width = 0.45mm
; infill extrusion width = 0.45mm
; solid infill extrusion width = 0.50mm
; top infill extrusion width = 0.42mm
; support material extrusion width = 0.42mm
; first layer extrusion width = 0.56mm

; external perimeters extrusion width = 0.42mm
; perimeters extrusion width = 0.45mm
; infill extrusion width = 0.45mm
; solid infill extrusion width = 0.50mm
; top infill extrusion width = 0.42mm
; support material extrusion width = 0.42mm
; first layer extrusion width = 0.56mm

; external perimeters extrusion width = 0.42mm
; perimeters extrusion width = 0.45mm
; infill extrusion width = 0.45mm
; solid infill extrusion width = 0.50mm
; top infill extrusion width = 0.42mm
; support material extrusion width = 0.42mm
; first layer extrusion width = 0.56mm

; external perimeters extrusion width = 0.42mm
; perimeters extrusion width = 0.45mm
; infill extrusion width = 0.45mm
; solid infill extrusion width = 0.50mm
; top infill extrusion width = 0.42mm
; support material extrusion width = 0.42mm
; first layer extrusion width = 0.56mm

M201 X2500 Y2500 Z800 E2500 ; sets maximum accelerations, mm/sec^2
M203 X250 Y250 Z8 E80 ; sets maximum feedrates, mm / sec
M204 S2500 T2500 ; sets acceleration (S) and retract acceleration (R), mm/sec^2
M205 X10.00 Y10.00 Z2.00 E10.00 ; sets the jerk limits, mm/sec
M205 S0 T0 ; sets the minimum extruding and travel feed rate, mm/sec
;TYPE:Custom
G90 ; use absolute coordinates
M83 ; extruder relative mode
M104 S215 ; set extruder temp
M140 S60 ; set bed temp
M190 S60 ; wait for bed temp
M109 S215 ; wait for extruder temp
G28                                        ; move X/Y/Z to min endstops
G1 Z0.28                                   ; lift nozzle a bit 
G92 E0 
G1 Y3 F1800                                    ; zero the extruded length 
G1 X60  E25 F500                       ; Extrude 25mm of filament in a 5cm line. 
G92 E0                                     ; zero the extruded length again 
G1 E-2 F500                                ; Retract a little 
G1 X70 F4000                              ; Quickly wipe away from the filament line
M117
G21 ; set units to millimeters
G90 ; use absolute coordinates
M82 ; use absolute distances for extrusion
G92 E0
M107
;LAYER_CHANGE
;Z:0.28
;HEIGHT:0.28
; BEFORE_LAYER_CHANGE 0 @ 0.28mm
G1 E-2 F4800
G92 E0
G1 Z.28 F7200
; AFTER_LAYER_CHANGE 0 @ 0.28mm
G1 X57.995 Y72.356
G1 E2 F4800
;TYPE:Skirt/Brim
;WIDTH:0.56
G1 F3000
G1 X59.242 Y71.377 E2.09226
G1 X60.464 Y70.793 E2.17108
G1 X62.216 Y70.34 E2.27639
G1 X63.31 Y70.255 E2.34025
G1 X96.749 Y70.255 E4.28623
G1 X147.954 Y71.267 E7.26668
G1 X149.278 Y71.426 E7.34428
G1 X150.526 Y71.788 E7.4199
G1 X151.312 Y72.133 E7.46985
G1 X152.638 Y73.022 E7.56275
G3 X154.626 Y76.056 I-3.914 J4.733 E7.77679
G1 X154.872 Y77.604 E7.86801
G1 X155.872 Y118.604 E10.25471
G1 X155.873 Y145.323 E11.80962
G3 X155.630 Y146.927 I-6.007 J-0.090 E11.90424
G1 X155.07 Y148.286 E11.98978
G1 X154.005 Y149.644 E12.09021
G1 X152.96 Y150.489 E12.16842
G1 X152.306 Y150.87 E12.21247
G1 X151.089 Y151.363 E12.28888
G1 X149.784 Y151.66 E12.36677
G1 X148.69 Y151.745 E12.43063
G1 X115.251 Y151.745 E14.37661
G1 X64.251 Y150.745 E17.34512
G1 X62.722 Y150.574 E17.43465
G1 X61.464 Y150.207 E17.51091
G1 X60.694 Y149.87 E17.55982
G1 X59.362 Y148.978 E17.65311
G3 X57.128 Y144.396 I4.080 J-4.825 E17.95858
G1 X56.128 Y103.396 E20.34528
G1 X56.127 Y76.677 E21.90019
G3 X56.370 Y75.073 I6.007 J0.090 E21.99481
G1 X56.844 Y73.869 E22.07011
G3 X57.955 Y72.401 I5.983 J3.373 E22.17748
G1 X58.327 Y72.734 F7200
G1 F3000
G1 X59.519 Y71.793 E22.26586
G1 X61.037 Y71.121 E22.36247
G1 X61.848 Y70.909 E22.41125
G1 X63.09 Y70.764 E22.48402
G1 X96.739 Y70.755 E24.44222
G1 X147.91 Y71.764 E27.42069
G1 X149.152 Y71.909 E27.49346
G3 X151.111 Y72.591 I-1.562 J7.641 E27.61443
G1 X152.334 Y73.419 E27.70038
G3 X154.142 Y76.182 I-3.612 J4.336 E27.89516
G1 X154.372 Y77.616 E27.97968
G1 X155.372 Y118.616 E30.36638
G1 X155.373 Y145.323 E31.92059
G3 X155.145 Y146.804 I-5.454 J-0.082 E32.00800
G1 X154.633 Y148.044 E32.08607
G1 X153.639 Y149.303 E32.17942
G1 X152.684 Y150.072 E32.25077
G1 X152.105 Y150.412 E32.28984
G1 X150.963 Y150.879 E32.36164
G1 X149.74 Y151.162 E32.43469
G1 X148.69 Y151.245 E32.49599
G1 X115.261 Y151.245 E34.44139
G1 X64.261 Y150.245 E37.4099
G1 X62.848 Y150.091 E37.49262
G3 X60.895 Y149.412 I1.598 J-7.744 E37.61319
G1 X59.666 Y148.581 E37.69953
G3 X57.855 Y145.804 I3.603 J-4.329 E37.89515
G1 X57.628 Y144.384 E37.97884
G1 X56.628 Y103.384 E40.36554
G1 X56.627 Y76.677 E41.91975
G3 X56.855 Y75.196 I5.454 J0.082 E42.00716
G1 X57.282 Y74.111 E42.07502
G3 X58.287 Y72.779 I5.462 J3.076 E42.17233
G1 E40.77233 F4800
;WIPE_START
G1 F5760
G1 X58.879 Y72.305 E40.17233
;WIPE_END
G92 E0
G1 X152.558 Y118.302 F7200
G1 E2 F4800
;TYPE:External perimeter
G1 F3000
G1 X152.593 Y118.69 E2.02267
G1 X152.593 Y145.31 E3.57182
G3 X150.966 Y147.876 I-3.139 J-0.191 E3.75662
G3 X148.678 Y148.465 I-2.315 J-4.254 E3.89534
G1 X115.322 Y148.465 E5.83649
G3 X112.378 Y147.391 I-0.025 J-4.504 E6.02269
G3 X111.407 Y145.310 I1.845 J-2.128 E6.16000
G1 X111.407 Y118.69 E7.70915
G3 X113.034 Y116.124 I3.139 J0.191 E7.89395
G3 X115.322 Y115.535 I2.315 J4.254 E8.03267
G1 X148.677 Y115.535 E9.97376
G3 X151.622 Y116.609 I-0.002 J4.579 E10.16003
G3 X152.544 Y118.244 I-1.807 J2.096 E10.27119
G1 X152.258 Y118.549 F7200
G1 X152.064 Y118.385
;TYPE:Perimeter
G1 F3000
G1 X152.093 Y118.712 E10.29029
G1 X152.093 Y145.288 E11.83688
G3 X150.726 Y147.435 I-2.630 J-0.166 E11.99169
G3 X148.656 Y147.965 I-2.085 J-3.836 E12.11716
G1 X115.344 Y147.965 E14.05575
G3 X112.715 Y147.019 I-0.038 J-4.020 E14.22177
G3 X111.907 Y145.288 I1.618 J-1.809 E14.33601
G1 X111.907 Y118.712 E15.8826
G3 X113.274 Y116.565 I2.630 J0.166 E16.03741
G3 X115.344 Y116.035 I2.085 J3.836 E16.16288
G1 X148.655 Y116.035 E18.10141
G3 X151.285 Y116.981 I0.004 J4.117 E18.26750
G3 X152.049 Y118.327 I-1.462 J1.719 E18.35915
G1 X151.569 Y118.468 F7200
G1 F3000
G1 X151.593 Y118.734 E18.37469
G1 X151.593 Y145.266 E19.91872
G3 X150.486 Y146.995 I-2.125 J-0.142 E20.04362
G3 X148.634 Y147.465 I-1.856 J-3.430 E20.15581
G1 X115.366 Y147.465 E22.09184
G3 X113.053 Y146.648 I-0.053 J-3.532 E22.23761
G3 X112.407 Y145.266 I1.272 J-1.436 E22.32894
G1 X112.407 Y118.734 E23.87297
G3 X113.514 Y117.005 I2.125 J0.142 E23.99787
G3 X115.366 Y116.535 I1.856 J3.430 E24.11006
G1 X148.632 Y116.535 E26.04597
G3 X151.145 Y117.563 I0.082 J3.385 E26.20870
G3 X151.555 Y118.410 I-1.385 J1.193 E26.26418
G1 E24.86418 F4800
;WIPE_START
G1 F5760
G3 X151.593 Y119.166 I-3.204 J0.540 E24.26418
;WIPE_END
G92 E0
G1 X150.004 Y117.011 F7200
G1 E2 F4800
;TYPE:Solid infill
;WIDTH:0.561794
G1 F3000
G3 X150.990 Y118.066 I-5.074 J5.731 E2.08446
G3 X151.168 Y118.885 I-1.394 J0.732 E2.13384
G1 X149.321 Y117.038 E2.28639
G1 X149.232 Y117.015 E2.29176
G1 X148.533 Y116.959 E2.33272
G1 X151.168 Y119.595 E2.5504
G1 X151.168 Y120.304 E2.59181
G1 X147.823 Y116.959 E2.86809
G1 X147.114 Y116.959 E2.9095
G1 X151.168 Y121.014 E3.24438
G1 X151.168 Y121.723 E3.28579
G1 X146.404 Y116.959 E3.67927
G1 X145.695 Y116.959 E3.72068
G1 X151.168 Y122.433 E4.17277
G1 X151.168 Y123.142 E4.21418
G1 X144.985 Y116.959 E4.72487
G1 X144.276 Y116.959 E4.76628
G1 X151.168 Y123.852 E5.33557
G1 X151.168 Y124.561 E5.37698
G1 X143.566 Y116.959 E6.00487
G1 X142.857 Y116.959 E6.04628
G1 X151.168 Y125.271 E6.73277
G1 X151.168 Y125.98 E6.77418
G1 X142.147 Y116.959 E7.51927
G1 X141.438 Y116.959 E7.56068
G1 X151.168 Y126.69 E8.36437
G1 X151.168 Y127.399 E8.40578
G1 X140.728 Y116.959 E9.26808
G1 X140.019 Y116.959 E9.30949
G1 X151.168 Y128.109 E10.23039
G1 X151.168 Y128.818 E10.2718
G1 X139.309 Y116.959 E11.2513
G1 X138.6 Y116.959 E11.29271
G1 X151.168 Y129.528 E12.33081
G1 X151.168 Y130.237 E12.37222
G1 X137.89 Y116.959 E13.46892
G1 X137.181 Y116.959 E13.51033
G1 X151.168 Y130.947 E14.66563
G1 X151.168 Y131.656 E14.70704
G1 X136.471 Y116.959 E15.92094
G1 X135.762 Y116.959 E15.96235
G1 X151.168 Y132.366 E17.23485
G1 X151.168 Y133.075 E17.27626
G1 X135.052 Y116.959 E18.60737
G1 X134.343 Y116.959 E18.64878
G1 X151.168 Y133.785 E20.03849
G1 X151.168 Y134.494 E20.0799
G1 X133.633 Y116.959 E21.52821
G1 X132.924 Y116.959 E21.56962
G1 X151.168 Y135.204 E23.07653
G1 X151.168 Y135.913 E23.11794
G1 X132.214 Y116.959 E24.68345
G1 X131.505 Y116.959 E24.72486
G1 X151.168 Y136.623 E26.34897
G1 X151.168 Y137.332 E26.39038
G1 X130.795 Y116.959 E28.07309
G1 X130.086 Y116.959 E28.1145
G1 X151.168 Y138.042 E29.85582
G1 X151.168 Y138.752 E29.89729
G1 X129.376 Y116.959 E31.69725
G1 X128.666 Y116.959 E31.73872
G1 X151.168 Y139.461 E33.59728
G1 X151.168 Y140.171 E33.63875
G1 X127.957 Y116.959 E35.55591
G1 X127.247 Y116.959 E35.59738
G1 X151.168 Y140.88 E37.57314
G1 X151.168 Y141.59 E37.61461
G1 X126.538 Y116.959 E39.64897
G1 X125.828 Y116.959 E39.69044
G1 X151.168 Y142.299 E41.78341
G1 X151.168 Y143.009 E41.82488
G1 X125.119 Y116.959 E43.97645
G1 X124.409 Y116.959 E44.01792
G1 X151.168 Y143.718 E46.22809
G1 X151.168 Y144.428 E46.26956
G1 X123.7 Y116.959 E48.53833
G1 X122.99 Y116.959 E48.5798
G1 X151.168 Y145.137 E50.90717
G3 X151.066 Y145.744 I-1.394 J0.078 E50.94334
G1 X122.281 Y116.959 E53.32085
G1 X121.571 Y116.959 E53.36232
G1 X150.798 Y146.186 E55.77633
G3 X150.417 Y146.515 I-1.130 J-0.924 E55.80583
G1 X120.862 Y116.959 E58.24698
G1 X120.152 Y116.959 E58.28845
G1 X149.956 Y146.763 E60.75012
G3 X149.420 Y146.936 I-0.801 J-1.565 E60.78311
G1 X119.443 Y116.959 E63.25907
G1 X118.733 Y116.959 E63.30054
G1 X148.798 Y147.024 E65.78377
G1 X148.105 Y147.041 E65.82426
G1 X118.024 Y116.959 E68.30885
G1 X117.314 Y116.959 E68.35032
G1 X147.395 Y147.041 E70.83491
G1 X146.686 Y147.041 E70.87632
G1 X116.605 Y116.959 E73.36091
G1 X115.895 Y116.959 E73.40238
G1 X145.976 Y147.041 E75.88697
G1 X145.267 Y147.041 E75.92838
G1 X115.202 Y116.976 E78.41161
G2 X114.580 Y117.064 I-0.049 J1.893 E78.44841
G1 X144.557 Y147.041 E80.92437
G1 X143.848 Y147.041 E80.96578
G1 X114.044 Y117.237 E83.42745
G2 X113.583 Y117.485 I0.303 J1.116 E83.45820
G1 X143.138 Y147.041 E85.89935
G1 X142.429 Y147.041 E85.94076
G1 X113.202 Y117.814 E88.35477
G2 X112.934 Y118.256 I0.644 J0.693 E88.38523
G1 X141.719 Y147.041 E90.76274
G1 X141.01 Y147.041 E90.80415
G1 X112.832 Y118.863 E93.13152
G1 X112.832 Y119.572 E93.17293
G1 X140.3 Y147.041 E95.4417
G1 X139.591 Y147.041 E95.48311
G1 X112.832 Y120.282 E97.69328
G1 X112.832 Y120.991 E97.73469
G1 X138.881 Y147.041 E99.88626
G1 X138.172 Y147.041 E99.92767
G1 X112.832 Y121.701 E102.02064
G1 X112.832 Y122.411 E102.06211
G1 X137.462 Y147.041 E104.09643
G1 X136.752 Y147.041 E104.1379
G1 X112.832 Y123.12 E106.11362
G1 X112.832 Y123.83 E106.15509
G1 X136.043 Y147.041 E108.07221
G1 X135.333 Y147.041 E108.11368
G1 X112.832 Y124.539 E109.9722
G1 X112.832 Y125.249 E110.01367
G1 X134.624 Y147.041 E111.81359
G1 X133.914 Y147.041 E111.85506
G1 X112.832 Y125.958 E113.59638
G1 X112.832 Y126.668 E113.63785
G1 X133.205 Y147.041 E115.32056
G1 X132.495 Y147.041 E115.36203
G1 X112.832 Y127.377 E116.98614
G1 X112.832 Y128.087 E117.02761
G1 X131.786 Y147.041 E118.59312
G1 X131.076 Y147.041 E118.63459
G1 X112.832 Y128.796 E120.1415
G1 X112.832 Y129.506 E120.18297
G1 X130.367 Y147.041 E121.63128
G1 X129.657 Y147.041 E121.67275
G1 X112.832 Y130.215 E123.06246
G1 X112.832 Y130.925 E123.10393
G1 X128.948 Y147.041 E124.43504
G1 X128.238 Y147.041 E124.47651
G1 X112.832 Y131.634 E125.74901
G1 X112.832 Y132.344 E125.79048
G1 X127.529 Y147.041 E127.00438
G1 X126.819 Y147.041 E127.04585
G1 X112.832 Y133.053 E128.20115
G1 X112.832 Y133.763 E128.24262
G1 X126.11 Y147.041 E129.33932
G1 X125.4 Y147.041 E129.38079
G1 X112.832 Y134.472 E130.41889
G1 X112.832 Y135.182 E130.46036
G1 X124.691 Y147.041 E131.43986
G1 X123.981 Y147.041 E131.48133
G1 X112.832 Y135.891 E132.40223
G1 X112.832 Y136.601 E132.4437
G1 X123.272 Y147.041 E133.306
G1 X122.562 Y147.041 E133.34747
G1 X112.832 Y137.31 E134.15116
G1 X112.832 Y138.02 E134.19263
G1 X121.853 Y147.041 E134.93772
G1 X121.143 Y147.041 E134.97919
G1 X112.832 Y138.729 E135.66568
G1 X112.832 Y139.439 E135.70715
G1 X120.434 Y147.041 E136.33504
G1 X119.724 Y147.041 E136.37651
G1 X112.832 Y140.148 E136.9458
G1 X112.832 Y140.858 E136.98727
G1 X119.015 Y147.041 E137.49796
G1 X118.305 Y147.041 E137.53943
G1 X112.832 Y141.568 E137.99147
G1 X112.832 Y142.277 E138.03288
G1 X117.595 Y147.041 E138.42632
G1 X116.886 Y147.041 E138.46773
G1 X112.832 Y142.987 E138.80257
G1 X112.832 Y143.696 E138.84398
G1 X116.176 Y147.041 E139.12022
G1 X115.467 Y147.041 E139.16163
G1 X112.832 Y144.406 E139.37927
G1 X112.832 Y145.115 E139.42068
G1 X114.679 Y146.962 E139.57323
G3 X113.339 Y146.332 I0.342 J-2.467 E139.66077
G1 X112.679 Y145.672 E139.71528
G1 E138.31528 F4800
;WIPE_START
G1 F5760
G1 X113.215 Y146.208 E137.71528
;WIPE_END
G92 E0
G1 X151.558 Y77.302 F7200
G1 E2 F4800
;TYPE:External perimeter
;WIDTH:0.56
G1 F3000
G1 X151.593 Y77.69 E2.02267
G1 X151.593 Y104.31 E3.57182
G3 X149.966 Y106.876 I-3.139 J-0.191 E3.75662
G3 X147.678 Y107.465 I-2.315 J-4.254 E3.89534
G1 X114.322 Y107.465 E5.83649
G3 X111.378 Y106.391 I-0.025 J-4.504 E6.02269
G3 X110.407 Y104.310 I1.845 J-2.128 E6.16000
G1 X110.407 Y77.69 E7.70915
G3 X112.034 Y75.124 I3.139 J0.191 E7.89395
G3 X114.322 Y74.535 I2.315 J4.254 E8.03267
G1 X147.677 Y74.535 E9.97376
G3 X150.622 Y75.609 I-0.002 J4.579 E10.16003
G3 X151.544 Y77.244 I-1.807 J2.096 E10.27119
G1 X151.258 Y77.549 F7200
G1 X151.064 Y77.385
;TYPE:Perimeter
G1 F3000
G1 X151.093 Y77.712 E10.29029
G1 X151.093 Y104.288 E11.83688
G3 X149.726 Y106.435 I-2.630 J-0.166 E11.99169
G3 X147.656 Y106.965 I-2.085 J-3.836 E12.11716
G1 X114.344 Y106.965 E14.05575
G3 X111.715 Y106.019 I-0.038 J-4.020 E14.22177
G3 X110.907 Y104.288 I1.618 J-1.809 E14.33601
G1 X110.907 Y77.712 E15.8826
G3 X112.274 Y75.565 I2.630 J0.166 E16.03741
G3 X114.344 Y75.035 I2.085 J3.836 E16.16288
G1 X147.655 Y75.035 E18.10141
G3 X150.285 Y75.981 I0.004 J4.117 E18.26750
G3 X151.049 Y77.327 I-1.462 J1.719 E18.35915
G1 X150.569 Y77.468 F7200
G1 F3000
G1 X150.593 Y77.734 E18.37469
G1 X150.593 Y104.266 E19.91872
G3 X149.486 Y105.995 I-2.125 J-0.142 E20.04362
G3 X147.634 Y106.465 I-1.856 J-3.430 E20.15581
G1 X114.366 Y106.465 E22.09184
G3 X112.053 Y105.648 I-0.053 J-3.532 E22.23761
G3 X111.407 Y104.266 I1.272 J-1.436 E22.32894
G1 X111.407 Y77.734 E23.87297
G3 X112.514 Y76.005 I2.125 J0.142 E23.99787
G3 X114.366 Y75.535 I1.856 J3.430 E24.11006
G1 X147.632 Y75.535 E26.04597
G3 X150.145 Y76.563 I0.082 J3.385 E26.20870
G3 X150.555 Y77.410 I-1.385 J1.193 E26.26418
G1 E24.86418 F4800
;WIPE_START
G1 F5760
G3 X150.593 Y78.166 I-3.204 J0.540 E24.26418
;WIPE_END
G92 E0
G1 X149.004 Y76.011 F7200
G1 E2 F4800
;TYPE:Solid infill
;WIDTH:0.561794
G1 F3000
G3 X149.990 Y77.066 I-5.074 J5.731 E2.08446
G3 X150.168 Y77.885 I-1.394 J0.732 E2.13384
G1 X148.321 Y76.038 E2.28639
G1 X148.232 Y76.015 E2.29176
G1 X147.533 Y75.959 E2.33272
G1 X150.168 Y78.595 E2.5504
G1 X150.168 Y79.304 E2.59181
G1 X146.823 Y75.959 E2.86809
G1 X146.114 Y75.959 E2.9095
G1 X150.168 Y80.014 E3.24438
G1 X150.168 Y80.723 E3.28579
G1 X145.404 Y75.959 E3.67927
G1 X144.695 Y75.959 E3.72068
G1 X150.168 Y81.433 E4.17277
G1 X150.168 Y82.142 E4.21418
G1 X143.985 Y75.959 E4.72487
G1 X143.276 Y75.959 E4.76628
G1 X150.168 Y82.852 E5.33557
G1 X150.168 Y83.561 E5.37698
G1 X142.566 Y75.959 E6.00487
G1 X141.857 Y75.959 E6.04628
G1 X150.168 Y84.271 E6.73277
G1 X150.168 Y84.98 E6.77418
G1 X141.147 Y75.959 E7.51927
G1 X140.438 Y75.959 E7.56068
G1 X150.168 Y85.69 E8.36437
G1 X150.168 Y86.399 E8.40578
G1 X139.728 Y75.959 E9.26808
G1 X139.019 Y75.959 E9.30949
G1 X150.168 Y87.109 E10.23039
