; HEADER_BLOCK_START
; generated by AnycubicSlicerNext 1.3.9.3 on 2026-05-10 at 21:30:50
; total layer number: 668
; filament_density: 1.24
; filament_diameter: 1.75
; max_z_height: 133.64
; exclude_object: 0
; model_instances: 1
; source_info: {"models":[{"file_source":0,"mo_file_id":-1,"name":"Tennis_net_phone_mount_id_0_copy_0"}],"models_from":0,"plate_index":1,"slice_paras_process":1,"software_version":"AnycubicSlicerNext 1.3.9.3 20260131153104"}
; paint_info = [{"material_type":"PLA","paint_color":[105,164,255],"paint_index":0}]
; project_info = {"flush_multiplier":1.0,"flush_volumes_chan_multipliers":[1.0,1.0,1.0,1.0],"flush_volumes_matrix":[0.0],"flush_volumes_vector":[140.0,140.0]}
; flush_multiplier_calculate_by_acnext: 1
; test_mode: 0
; HEADER_BLOCK_END

; THUMBNAIL_BLOCK_START
; THUMBNAIL_BLOCK_END

; external perimeters extrusion width = 0.42mm
; perimeters extrusion width = 0.45mm
; infill extrusion width = 0.45mm
; solid infill extrusion width = 0.42mm
; top infill extrusion width = 0.42mm
; support material extrusion width = 0.40mm
; first layer extrusion width = 0.50mm

; EXECUTABLE_BLOCK_START
M201 X2000 Y2000 Z800 E2000
M203 X300 Y300 Z8 E100
M204 P2000 R2000 T2000
M205 X10.00 Y10.00 Z2.00 E5.00
;TYPE:Custom
G90 ; use absolute coordinates
M83 ; extruder relative mode
M104 S220 ; set extruder temp
M140 S60 ; set bed temp
M190 S60 ; wait for bed temp
M109 S220 ; wait for extruder temp
G28                                        ; move X/Y/Z to min endstops
G1 Z0.28                                   ; lift nozzle a bit 
G92 E0 
G1 Y3 F1800                                    ; zero the extruded length 
G1 X60  E25 F500                       ; Extrude 25mm of filament in a 5cm line. 
G92 E0                                     ; zero the extruded length again 
G1 E-2 F500                                ; Retract a little 
G1 X70 F4000                              ; Quickly wipe away from the filament line
M117
G90
G21
M83 ; use relative distances for extrusion
; EXECUTABLE_BLOCK_HEAD
; filament start gcode
M75 ; The first extruder is ready.
M106 S0
;LAYER_CHANGE
;Z:0.24
;HEIGHT:0.24
; BEFORE_LAYER_CHANGE 0 @ 0.24mm
G92 E0
; AFTER_LAYER_CHANGE 0 @ 0.24mm
M204 S500
G1 E-.8 F3600
G1 X44.875 Y71.375 F18000
G1 Z.24
G1 E.8 F3600
;TYPE:Skirt
;WIDTH:0.5
G1 F3000
G1 X177.562 Y71.375 E5.81916
G1 X179.135 Y72.027 E.07466
G1 X191.015 Y83.906 E.73678
G1 X191.629 Y85.073 E.05784
G1 X191.474 Y86.383 E.05784
G1 X191.015 Y87.052 E.03558
G1 X128.365 Y149.702 E3.88565
G1 X126.792 Y150.353 E.07466
G1 X91.979 Y150.353 E1.52677
G1 X90.406 Y149.702 E.07466
G1 X27.757 Y87.052 E3.88565
G1 X27.142 Y85.885 E.05784
G1 X27.297 Y84.575 E.05784
G1 X27.757 Y83.906 E.03558
G1 X39.636 Y72.027 E.73678
G1 X41.209 Y71.375 E.07466
G1 X44.835 Y71.375 E.15902
; printing object "Tennis net phone mount" id:0 copy 0
G1 E-.8 F3600
G1 X102.109 Y73.925 F18000
G1 E.8 F3600
;TYPE:Outer wall
G1 F2400
G1 X102.109 Y147.804 E3.24004
G1 X92.114 Y147.804 E.43834
G1 X29.789 Y85.479 E3.86549
G1 X41.343 Y73.925 E.71662
G1 X102.089 Y73.925 E2.66405
G1 X101.66 Y74.373 F18000
;TYPE:Inner wall
G1 F2400
G1 X101.66 Y147.355 E3.2007
G1 X92.299 Y147.355 E.41052
G1 X30.423 Y85.479 E3.83767
G1 X41.529 Y74.373 E.68881
G1 X101.64 Y74.373 E2.63623
G1 E-.8 F3600
G1 X101.526 Y75.416 F18000
G1 E.8 F3600
;TYPE:Bottom surface
;WIDTH:0.500763
G1 F3000
G1 X100.819 Y74.71 E.04389
G1 X100.184 Y74.71 E.02791
G1 X101.324 Y75.849 E.07082
G1 X101.324 Y76.485 E.02791
G1 X99.548 Y74.71 E.11029
G1 X98.913 Y74.71 E.02791
G1 X101.324 Y77.12 E.14977
G1 X101.324 Y77.756 E.02791
G1 X98.278 Y74.71 E.18924
G1 X97.642 Y74.71 E.02791
G1 X101.324 Y78.391 E.22871
G1 X101.324 Y79.026 E.02791
G1 X97.007 Y74.71 E.26818
G1 X96.372 Y74.71 E.02791
G1 X101.324 Y79.662 E.30766
G1 X101.324 Y80.297 E.02791
G1 X95.736 Y74.71 E.34713
G1 X95.101 Y74.71 E.02791
G1 X101.324 Y80.932 E.3866
G1 X101.324 Y81.568 E.02791
G1 X94.466 Y74.71 E.42607
G1 X93.83 Y74.71 E.02791
G1 X101.324 Y82.203 E.46555
G1 X101.324 Y82.838 E.02791
G1 X93.195 Y74.71 E.50502
G1 X92.56 Y74.71 E.02791
G1 X101.324 Y83.474 E.54449
G1 X101.324 Y84.109 E.02791
G1 X91.924 Y74.71 E.58396
G1 X91.289 Y74.71 E.02791
G1 X101.324 Y84.744 E.62344
G1 X101.324 Y85.38 E.02791
G1 X90.654 Y74.71 E.66291
G1 X90.018 Y74.71 E.02791
G1 X101.324 Y86.015 E.70238
G1 X101.324 Y86.65 E.02791
G1 X89.383 Y74.71 E.74185
G1 X88.747 Y74.71 E.02791
G1 X101.324 Y87.286 E.78133
G1 X101.324 Y87.921 E.02791
G1 X88.112 Y74.71 E.8208
G1 X87.477 Y74.71 E.02791
G1 X101.324 Y88.556 E.86027
G1 X101.324 Y89.192 E.02791
G1 X86.841 Y74.71 E.89974
G1 X86.206 Y74.71 E.02791
G1 X101.324 Y89.827 E.93922
G1 X101.324 Y90.462 E.02791
G1 X85.571 Y74.71 E.97869
G1 X84.935 Y74.71 E.02791
G1 X101.324 Y91.098 E1.01816
G1 X101.324 Y91.733 E.02791
G1 X84.3 Y74.71 E1.05764
G1 X83.665 Y74.71 E.02791
G1 X101.324 Y92.369 E1.09711
G1 X101.324 Y93.004 E.02791
G1 X83.029 Y74.71 E1.13658
G1 X82.394 Y74.71 E.02791
G1 X101.324 Y93.639 E1.17605
G1 X101.324 Y94.275 E.02791
G1 X81.759 Y74.71 E1.21553
G1 X81.123 Y74.71 E.02791
G1 X101.324 Y94.91 E1.255
G1 X101.324 Y95.545 E.02791
G1 X80.488 Y74.71 E1.29447
G1 X79.853 Y74.71 E.02791
G1 X101.324 Y96.181 E1.33394
G1 X101.324 Y96.816 E.02791
G1 X79.217 Y74.71 E1.37342
G1 X78.582 Y74.71 E.02791
G1 X101.324 Y97.451 E1.41289
G1 X101.324 Y98.087 E.02791
G1 X77.947 Y74.71 E1.45236
G1 X77.311 Y74.71 E.02791
G1 X101.324 Y98.722 E1.49183
G1 X101.324 Y99.357 E.02791
G1 X76.676 Y74.71 E1.53131
G1 X76.041 Y74.71 E.02791
G1 X101.324 Y99.993 E1.57078
G1 X101.324 Y100.628 E.02791
G1 X75.405 Y74.71 E1.61025
G1 X74.77 Y74.71 E.02791
G1 X101.324 Y101.263 E1.64972
G1 X101.324 Y101.899 E.02791
G1 X74.134 Y74.71 E1.6892
G1 X73.499 Y74.71 E.02791
G1 X101.324 Y102.534 E1.72867
G1 X101.324 Y103.169 E.02791
G1 X72.864 Y74.71 E1.76814
G1 X72.228 Y74.71 E.02791
G1 X101.324 Y103.805 E1.80761
G1 X101.324 Y104.44 E.02791
G1 X71.593 Y74.71 E1.84709
G1 X70.958 Y74.71 E.02791
G1 X101.324 Y105.075 E1.88656
G1 X101.324 Y105.711 E.02791
G1 X70.322 Y74.71 E1.92603
G1 X69.687 Y74.71 E.02791
G1 X101.324 Y106.346 E1.9655
G1 X101.324 Y106.982 E.02791
G1 X69.052 Y74.71 E2.00498
G1 X68.416 Y74.71 E.02791
G1 X101.324 Y107.617 E2.04445
G1 X101.324 Y108.252 E.02791
G1 X67.781 Y74.71 E2.08392
G1 X67.146 Y74.71 E.02791
G1 X101.324 Y108.888 E2.12339
G1 X101.324 Y109.523 E.02791
G1 X66.51 Y74.71 E2.16287
G1 X65.875 Y74.71 E.02791
G1 X101.324 Y110.158 E2.20234
G1 X101.324 Y110.794 E.02791
G1 X65.24 Y74.71 E2.24181
G1 X64.604 Y74.71 E.02791
G1 X101.324 Y111.429 E2.28128
G1 X101.324 Y112.064 E.02791
G1 X63.969 Y74.71 E2.32076
G1 X63.334 Y74.71 E.02791
G1 X101.324 Y112.7 E2.36023
G1 X101.324 Y113.335 E.02791
G1 X62.698 Y74.71 E2.3997
G1 X62.063 Y74.71 E.02791
G1 X101.324 Y113.97 E2.43917
G1 X101.324 Y114.606 E.02791
G1 X61.428 Y74.71 E2.47865
G1 X60.792 Y74.71 E.02791
G1 X101.324 Y115.241 E2.51812
G1 X101.324 Y115.876 E.02791
G1 X60.157 Y74.71 E2.55759
G1 X59.521 Y74.71 E.02791
G1 X101.324 Y116.512 E2.59706
G1 X101.324 Y117.147 E.02791
G1 X58.886 Y74.71 E2.63654
G1 X58.251 Y74.71 E.02791
G1 X101.324 Y117.782 E2.67601
G1 X101.324 Y118.418 E.02791
G1 X57.615 Y74.71 E2.71548
G1 X56.98 Y74.71 E.02791
G1 X101.324 Y119.053 E2.75495
G1 X101.324 Y119.688 E.02791
G1 X56.345 Y74.71 E2.79443
G1 X55.709 Y74.71 E.02791
G1 X101.324 Y120.324 E2.8339
G1 X101.324 Y120.959 E.02791
G1 X55.074 Y74.71 E2.87337
G1 X54.439 Y74.71 E.02791
G1 X101.324 Y121.595 E2.91284
G1 X101.324 Y122.23 E.02791
G1 X53.803 Y74.71 E2.95232
G1 X53.168 Y74.71 E.02791
G1 X101.324 Y122.865 E2.99179
G1 X101.324 Y123.501 E.02791
G1 X52.533 Y74.71 E3.03126
G1 X51.897 Y74.71 E.02791
G1 X101.324 Y124.136 E3.07073
G1 X101.324 Y124.771 E.02791
G1 X51.262 Y74.71 E3.11021
G1 X50.627 Y74.71 E.02791
G1 X101.324 Y125.407 E3.14968
G1 X101.324 Y126.042 E.02791
G1 X49.991 Y74.71 E3.18915
G1 X49.356 Y74.71 E.02791
G1 X101.324 Y126.677 E3.22862
G1 X101.324 Y127.313 E.02791
G1 X48.721 Y74.71 E3.2681
G1 X48.085 Y74.71 E.02791
G1 X101.324 Y127.948 E3.30757
G1 X101.324 Y128.583 E.02791
G1 X47.45 Y74.71 E3.34704
G1 X46.815 Y74.71 E.02791
G1 X101.324 Y129.219 E3.38651
G1 X101.324 Y129.854 E.02791
G1 X46.179 Y74.71 E3.42599
G1 X45.544 Y74.71 E.02791
G1 X101.324 Y130.489 E3.46546
G1 X101.324 Y131.125 E.02791
G1 X44.908 Y74.71 E3.50493
G1 X44.273 Y74.71 E.02791
G1 X101.324 Y131.76 E3.5444
G1 X101.324 Y132.395 E.02791
G1 X43.638 Y74.71 E3.58388
G1 X43.002 Y74.71 E.02791
G1 X101.324 Y133.031 E3.62335
G1 X101.324 Y133.666 E.02791
G1 X42.367 Y74.71 E3.66282
G1 X41.732 Y74.71 E.02791
G1 X101.324 Y134.302 E3.70229
G1 X101.324 Y134.937 E.02791
G1 X41.382 Y74.996 E3.724
G1 X41.065 Y75.313 E.01974
G1 X101.324 Y135.572 E3.74373
G1 X101.324 Y136.208 E.02791
G1 X40.747 Y75.631 E3.76347
G1 X40.429 Y75.949 E.01974
G1 X101.324 Y136.843 E3.78321
G1 X101.324 Y137.478 E.02791
G1 X40.112 Y76.266 E3.80294
G1 X39.794 Y76.584 E.01974
G1 X101.324 Y138.114 E3.82268
G1 X101.324 Y138.749 E.02791
G1 X39.476 Y76.902 E3.84241
G1 X39.159 Y77.219 E.01974
G1 X101.324 Y139.384 E3.86215
G1 X101.324 Y140.02 E.02791
G1 X38.841 Y77.537 E3.88189
G1 X38.523 Y77.855 E.01974
G1 X101.324 Y140.655 E3.90162
G1 X101.324 Y141.29 E.02791
G1 X38.206 Y78.172 E3.92136
G1 X37.888 Y78.49 E.01974
G1 X101.324 Y141.926 E3.9411
G1 X101.324 Y142.561 E.02791
G1 X37.57 Y78.808 E3.96083
G1 X37.253 Y79.125 E.01974
G1 X101.324 Y143.196 E3.98057
G1 X101.324 Y143.832 E.02791
G1 X36.935 Y79.443 E4.0003
G1 X36.617 Y79.761 E.01974
G1 X101.324 Y144.467 E4.02004
G1 X101.324 Y145.102 E.02791
G1 X36.3 Y80.078 E4.03978
G1 X35.982 Y80.396 E.01974
G1 X101.324 Y145.738 E4.05951
G1 X101.324 Y146.373 E.02791
G1 X35.664 Y80.714 E4.07925
G1 X35.347 Y81.031 E.01974
G1 X101.324 Y147.019 E4.09931
G1 X100.699 Y147.019 E.02745
G1 X35.029 Y81.349 E4.0799
G1 X34.711 Y81.667 E.01974
G1 X100.063 Y147.019 E4.06016
G1 X99.428 Y147.019 E.02791
G1 X34.394 Y81.984 E4.04042
G1 X34.076 Y82.302 E.01974
G1 X98.793 Y147.019 E4.02069
G1 X98.157 Y147.019 E.02791
G1 X33.758 Y82.62 E4.00095
G1 X33.441 Y82.937 E.01974
G1 X97.522 Y147.019 E3.98122
G1 X96.887 Y147.019 E.02791
G1 X33.123 Y83.255 E3.96148
G1 X32.805 Y83.573 E.01974
G1 X96.251 Y147.019 E3.94174
G1 X95.616 Y147.019 E.02791
G1 X32.488 Y83.89 E3.92201
G1 X32.17 Y84.208 E.01974
G1 X94.981 Y147.019 E3.90227
G1 X94.345 Y147.019 E.02791
G1 X31.852 Y84.526 E3.88253
G1 X31.535 Y84.843 E.01974
G1 X93.71 Y147.019 E3.8628
G1 X93.075 Y147.019 E.02791
G1 X31.217 Y85.161 E3.84306
G1 X30.899 Y85.479 E.01974
G1 X92.641 Y147.221 E3.83586
G1 E-.8 F3600
G1 X116.663 Y73.925 F18000
G1 E.8 F3600
;TYPE:Outer wall
;WIDTH:0.5
G1 F2400
G1 X177.428 Y73.925 E2.66492
G1 X177.681 Y74.178 E.01573
G1 X188.982 Y85.479 E.70089
G1 X126.658 Y147.804 E3.86549
G1 X116.663 Y147.804 E.43834
G1 X116.663 Y73.945 E3.23917
G1 X117.111 Y74.373 F18000
;TYPE:Inner wall
G1 F2400
G1 X177.242 Y74.373 E2.63711
G1 X177.364 Y74.495 E.00759
G1 X188.348 Y85.479 E.68122
G1 X126.472 Y147.355 E3.83767
G1 X117.111 Y147.355 E.41052
G1 X117.111 Y74.393 E3.19983
G1 E-.8 F3600
G1 X176.9 Y74.508 F18000
G1 E.8 F3600
;TYPE:Bottom surface
;WIDTH:0.500568
G1 F3000
G1 X187.872 Y85.479 E.68134
G1 X187.554 Y85.797 E.01972
G1 X176.467 Y74.71 E.68853
G1 X175.832 Y74.71 E.02789
G1 X187.237 Y86.114 E.70825
G1 X186.919 Y86.432 E.01972
G1 X175.197 Y74.71 E.72796
G1 X174.562 Y74.71 E.02789
G1 X186.602 Y86.749 E.74768
G1 X186.284 Y87.067 E.01972
G1 X173.927 Y74.71 E.7674
G1 X173.292 Y74.71 E.02789
G1 X185.967 Y87.385 E.78712
G1 X185.649 Y87.702 E.01972
G1 X172.657 Y74.71 E.80684
G1 X172.022 Y74.71 E.02789
G1 X185.332 Y88.02 E.82656
G1 X185.014 Y88.337 E.01972
G1 X171.387 Y74.71 E.84628
G1 X170.752 Y74.71 E.02789
G1 X184.697 Y88.655 E.866
G1 X184.379 Y88.972 E.01972
G1 X170.116 Y74.71 E.88572
G1 X169.481 Y74.71 E.02789
G1 X184.062 Y89.29 E.90544
G1 X183.744 Y89.607 E.01972
G1 X168.846 Y74.71 E.92516
G1 X168.211 Y74.71 E.02789
G1 X183.426 Y89.925 E.94488
G1 X183.109 Y90.242 E.01972
G1 X167.576 Y74.71 E.96459
G1 X166.941 Y74.71 E.02789
G1 X182.791 Y90.56 E.98431
G1 X182.474 Y90.877 E.01972
G1 X166.306 Y74.71 E1.00403
G1 X165.671 Y74.71 E.02789
G1 X182.156 Y91.195 E1.02375
G1 X181.839 Y91.512 E.01972
G1 X165.036 Y74.71 E1.04347
G1 X164.401 Y74.71 E.02789
G1 X181.521 Y91.83 E1.06319
G1 X181.204 Y92.148 E.01972
G1 X163.766 Y74.71 E1.08291
G1 X163.131 Y74.71 E.02789
G1 X180.886 Y92.465 E1.10263
G1 X180.569 Y92.783 E.01972
G1 X162.496 Y74.71 E1.12235
G1 X161.86 Y74.71 E.02789
G1 X180.251 Y93.1 E1.14207
G1 X179.934 Y93.418 E.01972
G1 X161.225 Y74.71 E1.16179
G1 X160.59 Y74.71 E.02789
G1 X179.616 Y93.735 E1.1815
G1 X179.299 Y94.053 E.01972
G1 X159.955 Y74.71 E1.20122
G1 X159.32 Y74.71 E.02789
G1 X178.981 Y94.37 E1.22094
G1 X178.663 Y94.688 E.01972
G1 X158.685 Y74.71 E1.24066
G1 X158.05 Y74.71 E.02789
G1 X178.346 Y95.005 E1.26038
G1 X178.028 Y95.323 E.01972
G1 X157.415 Y74.71 E1.2801
G1 X156.78 Y74.71 E.02789
G1 X177.711 Y95.64 E1.29982
G1 X177.393 Y95.958 E.01972
G1 X156.145 Y74.71 E1.31954
G1 X155.51 Y74.71 E.02789
G1 X177.076 Y96.276 E1.33926
G1 X176.758 Y96.593 E.01972
G1 X154.875 Y74.71 E1.35898
G1 X154.24 Y74.71 E.02789
G1 X176.441 Y96.911 E1.3787
G1 X176.123 Y97.228 E.01972
G1 X153.605 Y74.71 E1.39842
G1 X152.969 Y74.71 E.02789
G1 X175.806 Y97.546 E1.41813
G1 X175.488 Y97.863 E.01972
G1 X152.334 Y74.71 E1.43785
G1 X151.699 Y74.71 E.02789
G1 X175.171 Y98.181 E1.45757
G1 X174.853 Y98.498 E.01972
G1 X151.064 Y74.71 E1.47729
G1 X150.429 Y74.71 E.02789
G1 X174.535 Y98.816 E1.49701
G1 X174.218 Y99.133 E.01972
G1 X149.794 Y74.71 E1.51673
G1 X149.159 Y74.71 E.02789
G1 X173.9 Y99.451 E1.53645
G1 X173.583 Y99.768 E.01972
G1 X148.524 Y74.71 E1.55617
G1 X147.889 Y74.71 E.02789
G1 X173.265 Y100.086 E1.57589
G1 X172.948 Y100.404 E.01972
G1 X147.254 Y74.71 E1.59561
G1 X146.619 Y74.71 E.02789
G1 X172.63 Y100.721 E1.61533
G1 X172.313 Y101.039 E.01972
G1 X145.984 Y74.71 E1.63504
G1 X145.349 Y74.71 E.02789
G1 X171.995 Y101.356 E1.65476
G1 X171.678 Y101.674 E.01972
G1 X144.714 Y74.71 E1.67448
G1 X144.078 Y74.71 E.02789
G1 X171.36 Y101.991 E1.6942
G1 X171.043 Y102.309 E.01972
G1 X143.443 Y74.71 E1.71392
G1 X142.808 Y74.71 E.02789
G1 X170.725 Y102.626 E1.73364
G1 X170.408 Y102.944 E.01972
G1 X142.173 Y74.71 E1.75336
G1 X141.538 Y74.71 E.02789
G1 X170.09 Y103.261 E1.77308
G1 X169.772 Y103.579 E.01972
G1 X140.903 Y74.71 E1.7928
G1 X140.268 Y74.71 E.02789
G1 X169.455 Y103.896 E1.81252
G1 X169.137 Y104.214 E.01972
G1 X139.633 Y74.71 E1.83224
G1 X138.998 Y74.71 E.02789
G1 X168.82 Y104.531 E1.85196
G1 X168.502 Y104.849 E.01972
G1 X138.363 Y74.71 E1.87167
G1 X137.728 Y74.71 E.02789
G1 X168.185 Y105.167 E1.89139
G1 X167.867 Y105.484 E.01972
G1 X137.093 Y74.71 E1.91111
G1 X136.458 Y74.71 E.02789
G1 X167.55 Y105.802 E1.93083
G1 X167.232 Y106.119 E.01972
G1 X135.823 Y74.71 E1.95055
G1 X135.187 Y74.71 E.02789
G1 X166.915 Y106.437 E1.97027
G1 X166.597 Y106.754 E.01972
G1 X134.552 Y74.71 E1.98999
G1 X133.917 Y74.71 E.02789
G1 X166.28 Y107.072 E2.00971
G1 X165.962 Y107.389 E.01972
G1 X133.282 Y74.71 E2.02943
G1 X132.647 Y74.71 E.02789
G1 X165.644 Y107.707 E2.04915
G1 X165.327 Y108.024 E.01972
G1 X132.012 Y74.71 E2.06887
G1 X131.377 Y74.71 E.02789
G1 X165.009 Y108.342 E2.08858
G1 X164.692 Y108.659 E.01972
G1 X130.742 Y74.71 E2.1083
G1 X130.107 Y74.71 E.02789
G1 X164.374 Y108.977 E2.12802
G1 X164.057 Y109.295 E.01972
G1 X129.472 Y74.71 E2.14774
G1 X128.837 Y74.71 E.02789
G1 X163.739 Y109.612 E2.16746
G1 X163.422 Y109.93 E.01972
G1 X128.202 Y74.71 E2.18718
G1 X127.567 Y74.71 E.02789
G1 X163.104 Y110.247 E2.2069
G1 X162.787 Y110.565 E.01972
G1 X126.932 Y74.71 E2.22662
G1 X126.296 Y74.71 E.02789
G1 X162.469 Y110.882 E2.24634
G1 X162.152 Y111.2 E.01972
G1 X125.661 Y74.71 E2.26606
G1 X125.026 Y74.71 E.02789
G1 X161.834 Y111.517 E2.28578
G1 X161.516 Y111.835 E.01972
G1 X124.391 Y74.71 E2.3055
G1 X123.756 Y74.71 E.02789
G1 X161.199 Y112.152 E2.32521
G1 X160.881 Y112.47 E.01972
G1 X123.121 Y74.71 E2.34493
G1 X122.486 Y74.71 E.02789
G1 X160.564 Y112.787 E2.36465
G1 X160.246 Y113.105 E.01972
G1 X121.851 Y74.71 E2.38437
G1 X121.216 Y74.71 E.02789
G1 X159.929 Y113.422 E2.40409
G1 X159.611 Y113.74 E.01972
G1 X120.581 Y74.71 E2.42381
