; HEADER_BLOCK_START
; generated by AnycubicSlicerNext 1.3.9.3 on 2026-03-16 at 11:54:38
; total layer number: 33
; filament_density: 1.24
; filament_diameter: 1.75
; max_z_height: 6.64
; exclude_object: 0
; model_instances: 2
; source_info: {"models":[{"file_source":0,"mo_file_id":-1,"name":"AAA_Dispenser_inserts_v2.stl_2_id_0_copy_0"},{"file_source":0,"mo_file_id":-1,"name":"AAA_Dispenser_inserts_v2.stl_2_id_1_copy_0"}],"models_from":0,"plate_index":1,"slice_paras_process":1,"software_version":"AnycubicSlicerNext 1.3.9.3 20260131153104"}
; paint_info = [{"material_type":"PLA","paint_color":[105,164,255],"paint_index":0}]
; project_info = {"flush_multiplier":1.0,"flush_volumes_chan_multipliers":[1.0,1.0,1.0,1.0],"flush_volumes_matrix":[0.0],"flush_volumes_vector":[140.0,140.0]}
; flush_multiplier_calculate_by_acnext: 1
; test_mode: 0
; HEADER_BLOCK_END

; THUMBNAIL_BLOCK_START
; THUMBNAIL_BLOCK_END

; external perimeters extrusion width = 0.42mm
; perimeters extrusion width = 0.45mm
; infill extrusion width = 0.45mm
; solid infill extrusion width = 0.42mm
; top infill extrusion width = 0.42mm
; support material extrusion width = 0.40mm
; first layer extrusion width = 0.50mm

; external perimeters extrusion width = 0.42mm
; perimeters extrusion width = 0.45mm
; infill extrusion width = 0.45mm
; solid infill extrusion width = 0.42mm
; top infill extrusion width = 0.42mm
; support material extrusion width = 0.40mm
; first layer extrusion width = 0.50mm

; EXECUTABLE_BLOCK_START
M201 X2000 Y2000 Z800 E2000
M203 X300 Y300 Z8 E100
M204 P2000 R2000 T2000
M205 X10.00 Y10.00 Z2.00 E5.00
;TYPE:Custom
G90 ; use absolute coordinates
M83 ; extruder relative mode
M104 S220 ; set extruder temp
M140 S60 ; set bed temp
M190 S60 ; wait for bed temp
M109 S220 ; wait for extruder temp
G28                                        ; move X/Y/Z to min endstops
G1 Z0.28                                   ; lift nozzle a bit 
G92 E0 
G1 Y3 F1800                                    ; zero the extruded length 
G1 X60  E25 F500                       ; Extrude 25mm of filament in a 5cm line. 
G92 E0                                     ; zero the extruded length again 
G1 E-2 F500                                ; Retract a little 
G1 X70 F4000                              ; Quickly wipe away from the filament line
M117
G90
G21
M83 ; use relative distances for extrusion
; EXECUTABLE_BLOCK_HEAD
; filament start gcode
M75 ; The first extruder is ready.
M106 S0
;LAYER_CHANGE
;Z:0.24
;HEIGHT:0.24
; BEFORE_LAYER_CHANGE 0 @ 0.24mm
G92 E0
; AFTER_LAYER_CHANGE 0 @ 0.24mm
M204 S500
G1 E-.8 F3600
G1 X65.204 Y62.129 F18000
G1 Z.24
G1 E.8 F3600
;TYPE:Skirt
;WIDTH:0.5
G1 F3000
G1 X65.256 Y61.974 E.00718
G1 X66.37 Y61.048 E.06353
G1 X67.449 Y60.817 E.04838
G1 X103.576 Y60.707 E1.58437
G1 X154.356 Y62.955 E2.22919
G1 X155.731 Y63.409 E.06353
G1 X156.668 Y64.513 E.06353
G1 X156.909 Y65.535 E.04601
G1 X159.642 Y146.422 E3.54942
G1 X159.297 Y147.829 E.06353
G1 X157.742 Y149.071 E.08731
G1 X124.23 Y159.162 E1.53485
G1 X123.318 Y159.304 E.04051
G1 X122.239 Y159.3 E.0473
G1 X96.349 Y157.779 E1.13739
G1 X95.8 Y157.693 E.02437
G1 X62.241 Y146.847 E1.54672
G1 X61.036 Y146.044 E.06353
G1 X60.396 Y144.159 E.08731
G1 X64.789 Y63.345 E3.54942
G1 X65.191 Y62.166 E.0546
G1 X65.623 Y62.327 F18000
G1 F3000
G1 X65.695 Y62.133 E.00909
G1 X66.774 Y61.373 E.05784
G1 X67.451 Y61.265 E.03006
G1 X103.556 Y61.155 E1.58344
G1 X154.336 Y63.403 E2.22919
G1 X155.577 Y63.849 E.05784
G1 X156.46 Y65.55 E.08405
G1 X159.194 Y146.437 E3.54942
G1 X158.846 Y147.709 E.05784
G1 X157.612 Y148.642 E.06782
G1 X124.101 Y158.733 E1.53485
G1 X123.317 Y158.855 E.0348
G1 X122.265 Y158.852 E.04613
G1 X95.894 Y157.255 E1.15865
G1 X62.38 Y146.42 E1.54473
G1 X61.302 Y145.66 E.05784
G1 X60.843 Y144.183 E.06782
G1 X65.237 Y63.369 E3.54942
G1 X65.609 Y62.364 E.04699
; printing object "AAA Dispenser inserts v2.stl_2" id:0 copy 0
G1 E-.8 F3600
G1 X152.95 Y144.592 F18000
G1 E.8 F3600
;TYPE:Outer wall
G1 F2400
G1 X154.731 Y144.634 E.07813
G1 X155.245 Y145.167 E.03246
G1 X155.569 Y145.476 E.01967
G1 X155.901 Y145.752 E.01891
G1 X156.374 Y146.248 E.03005
G1 X155.995 Y146.239 E.01662
G1 X155.007 Y146.15 E.0435
G1 X154.008 Y146.117 E.04382
G1 X126.262 Y145.46 E1.21721
G1 X125.413 Y145.498 E.03725
G1 X124.567 Y145.653 E.03774
G1 X123.749 Y145.921 E.03774
G1 X122.975 Y146.297 E.03774
G1 X122.26 Y146.775 E.03774
G1 X121.616 Y147.346 E.03774
G1 X121.055 Y147.999 E.03774
G1 X120.588 Y148.721 E.03774
G1 X120.224 Y149.501 E.03774
G1 X119.968 Y150.323 E.03774
G1 X119.829 Y151.161 E.03725
G1 X119.527 Y154.269 E.13698
G1 X120.264 Y154.775 E.03922
G1 X120.97 Y155.138 E.03483
G1 X121.716 Y155.403 E.03469
G1 X122.49 Y155.567 E.03471
G1 X123.245 Y155.623 E.03321
G1 X123.413 Y155.664 E.00757
G1 X123.476 Y155.714 E.00351
G1 X123.542 Y155.836 E.0061
G1 X123.534 Y156.112 E.01209
G1 X123.471 Y156.221 E.00551
G1 X123.419 Y156.263 E.00294
G1 X123.284 Y156.306 E.00624
G1 X122.417 Y156.307 E.038
G1 X121.549 Y156.191 E.0384
G1 X120.704 Y155.961 E.0384
G1 X119.893 Y155.617 E.03866
G1 X119.143 Y155.175 E.03815
G1 X118.455 Y154.634 E.0384
G1 X117.845 Y154.006 E.0384
G1 X117.324 Y153.302 E.0384
G1 X116.901 Y152.535 E.0384
G1 X116.584 Y151.719 E.0384
G1 X116.379 Y150.867 E.0384
G1 X116.289 Y149.996 E.0384
G1 X116.315 Y149.11 E.03888
G1 X116.661 Y145.57 E.15598
G1 X118.565 Y65.106 E3.52984
G1 X118.739 Y65.11 E.00766
G1 X153.905 Y65.942 E1.54265
G1 X152.065 Y143.684 E3.41039
G1 X152.93 Y144.591 E.05497
G1 X152.809 Y145.037 F18000
;TYPE:Inner wall
G1 F2400
G1 X154.536 Y145.078 E.07575
G1 X155.141 Y145.706 E.03825
G1 X126.257 Y145.012 E1.2671
G1 X125.363 Y145.051 E.03926
G1 X124.456 Y145.217 E.04042
G1 X123.58 Y145.504 E.04042
G1 X122.751 Y145.907 E.04042
G1 X121.985 Y146.419 E.04042
G1 X121.295 Y147.03 E.04042
G1 X120.695 Y147.73 E.04042
G1 X120.195 Y148.504 E.04042
G1 X119.804 Y149.339 E.04042
G1 X119.531 Y150.219 E.04042
G1 X119.384 Y151.102 E.03926
G1 X119.05 Y154.531 E.15111
G1 X118.756 Y154.3 E.01643
G1 X118.188 Y153.715 E.03577
G1 X117.702 Y153.059 E.03577
G1 X117.309 Y152.345 E.03577
G1 X117.013 Y151.584 E.03577
G1 X116.822 Y150.791 E.03577
G1 X116.738 Y149.98 E.03577
G1 X116.763 Y149.139 E.03691
G1 X117.109 Y145.597 E.15605
G1 X119.002 Y65.565 E3.51089
G1 X153.446 Y66.38 E1.51097
G1 X151.612 Y143.859 E3.39886
G1 X152.735 Y145.035 E.0713
G1 X152.789 Y145.036 E.00241
G1 E-.8 F3600
G1 X152.712 Y145.336 F18000
G1 E.8 F3600
;TYPE:Gap infill
;WIDTH:0.210902
G1 F2400
G1 X154.517 Y145.381 E.02815
G1 E-.8 F3600
G1 X155.659 Y145.879 F18000
G1 E.8 F3600
;WIDTH:0.118077
G1 F2400
G1 X155.776 Y145.994 E.00107
G1 E-.8 F3600
G1 X123.307 Y155.881 F18000
G1 E.8 F3600
;WIDTH:0.233368
G1 F2400
G1 X123.257 Y155.924 E.00117
;WIDTH:0.265868
G1 X123.206 Y155.966 E.00138
;WIDTH:0.297922
G1 X122.826 Y155.951 E.00916
;WIDTH:0.330295
G1 X122.428 Y155.933 E.01087
;WIDTH:0.361543
G1 X122.029 Y155.865 E.01229
;WIDTH:0.393377
G1 X121.595 Y155.787 E.01471
;WIDTH:0.421894
G1 X121.221 Y155.669 E.01422
;WIDTH:0.453341
G1 X120.788 Y155.528 E.01789
;WIDTH:0.478597
G1 X120.444 Y155.368 E.01585
;WIDTH:0.509215
G1 X120.016 Y155.159 E.02133
;WIDTH:0.516601
G1 X119.262 Y154.675 E.04075
G1 E-.8 F3600
G1 X152.376 Y66.489 F18000
G1 E.8 F3600
;TYPE:Bottom surface
;WIDTH:0.50166
G1 F3000
G1 X153.09 Y67.203 E.04445
G1 X153.075 Y67.825 E.02738
G1 X151.931 Y66.681 E.07125
G1 X151.279 Y66.665 E.02871
G1 X153.06 Y68.447 E.11092
G1 X153.046 Y69.069 E.02738
G1 X150.627 Y66.65 E.1506
G1 X149.974 Y66.634 E.02871
G1 X153.031 Y69.691 E.19027
G1 X153.016 Y70.313 E.02738
G1 X149.322 Y66.619 E.22995
G1 X148.67 Y66.603 E.02871
G1 X153.002 Y70.935 E.26962
G1 X152.987 Y71.556 E.02738
G1 X148.018 Y66.588 E.3093
G1 X147.366 Y66.573 E.02871
G1 X152.972 Y72.178 E.34897
G1 X152.957 Y72.8 E.02738
G1 X146.714 Y66.557 E.38865
G1 X146.062 Y66.542 E.02871
G1 X152.943 Y73.422 E.42832
G1 X152.928 Y74.044 E.02738
G1 X145.41 Y66.526 E.468
G1 X144.758 Y66.511 E.02871
G1 X152.913 Y74.666 E.50767
G1 X152.899 Y75.288 E.02738
G1 X144.106 Y66.495 E.54734
G1 X143.454 Y66.48 E.02871
G1 X152.884 Y75.91 E.58702
G1 X152.869 Y76.532 E.02738
G1 X142.802 Y66.465 E.62669
G1 X142.15 Y66.449 E.02871
G1 X152.854 Y77.154 E.66637
G1 X152.84 Y77.775 E.02738
G1 X141.498 Y66.434 E.70604
G1 X140.846 Y66.418 E.02871
G1 X152.825 Y78.397 E.74572
G1 X152.81 Y79.019 E.02738
G1 X140.194 Y66.403 E.78539
G1 X139.542 Y66.387 E.02871
G1 X152.796 Y79.641 E.82507
G1 X152.781 Y80.263 E.02738
G1 X138.89 Y66.372 E.86474
G1 X138.238 Y66.357 E.02871
G1 X152.766 Y80.885 E.90442
G1 X152.751 Y81.507 E.02738
G1 X137.586 Y66.341 E.94409
G1 X136.934 Y66.326 E.02871
G1 X152.737 Y82.129 E.98377
G1 X152.722 Y82.751 E.02738
G1 X136.282 Y66.31 E1.02344
G1 X135.629 Y66.295 E.02871
G1 X152.707 Y83.373 E1.06312
G1 X152.693 Y83.994 E.02738
G1 X134.977 Y66.279 E1.10279
G1 X134.325 Y66.264 E.02871
G1 X152.678 Y84.616 E1.14247
G1 X152.663 Y85.238 E.02738
G1 X133.673 Y66.249 E1.18214
G1 X133.021 Y66.233 E.02871
G1 X152.648 Y85.86 E1.22181
G1 X152.634 Y86.482 E.02738
G1 X132.369 Y66.218 E1.26149
G1 X131.717 Y66.202 E.02871
G1 X152.619 Y87.104 E1.30116
G1 X152.604 Y87.726 E.02738
G1 X131.065 Y66.187 E1.34084
G1 X130.413 Y66.171 E.02871
G1 X152.59 Y88.348 E1.38051
G1 X152.575 Y88.97 E.02738
G1 X129.761 Y66.156 E1.42019
G1 X129.109 Y66.14 E.02871
G1 X152.56 Y89.592 E1.45986
G1 X152.545 Y90.213 E.02738
G1 X128.457 Y66.125 E1.49954
G1 X127.805 Y66.11 E.02871
G1 X152.531 Y90.835 E1.53921
G1 X152.516 Y91.457 E.02738
G1 X127.153 Y66.094 E1.57889
G1 X126.501 Y66.079 E.02871
G1 X152.501 Y92.079 E1.61856
G1 X152.487 Y92.701 E.02738
G1 X125.849 Y66.063 E1.65824
G1 X125.197 Y66.048 E.02871
G1 X152.472 Y93.323 E1.69791
G1 X152.457 Y93.945 E.02738
G1 X124.545 Y66.032 E1.73759
G1 X123.893 Y66.017 E.02871
G1 X152.442 Y94.567 E1.77726
G1 X152.428 Y95.189 E.02738
G1 X123.241 Y66.002 E1.81694
G1 X122.589 Y65.986 E.02871
G1 X152.413 Y95.811 E1.85661
G1 X152.398 Y96.432 E.02738
G1 X121.937 Y65.971 E1.89628
G1 X121.284 Y65.955 E.02871
G1 X152.384 Y97.054 E1.93596
G1 X152.369 Y97.676 E.02738
G1 X120.632 Y65.94 E1.97563
G1 X119.98 Y65.924 E.02871
G1 X152.354 Y98.298 E2.01531
G1 X152.339 Y98.92 E.02738
G1 X119.331 Y65.911 E2.05484
G1 X119.316 Y66.533 E.02738
G1 X152.325 Y99.542 E2.05484
G1 X152.31 Y100.164 E.02738
G1 X119.301 Y67.155 E2.05484
G1 X119.287 Y67.777 E.02738
G1 X152.295 Y100.786 E2.05484
G1 X152.281 Y101.408 E.02738
G1 X119.272 Y68.399 E2.05484
G1 X119.257 Y69.021 E.02738
G1 X152.266 Y102.03 E2.05484
G1 X152.251 Y102.651 E.02738
G1 X119.242 Y69.643 E2.05484
G1 X119.228 Y70.265 E.02738
G1 X152.236 Y103.273 E2.05484
G1 X152.222 Y103.895 E.02738
G1 X119.213 Y70.887 E2.05484
G1 X119.198 Y71.509 E.02738
G1 X152.207 Y104.517 E2.05484
G1 X152.192 Y105.139 E.02738
G1 X119.184 Y72.13 E2.05484
G1 X119.169 Y72.752 E.02738
G1 X152.177 Y105.761 E2.05484
G1 X152.163 Y106.383 E.02738
G1 X119.154 Y73.374 E2.05484
G1 X119.139 Y73.996 E.02738
G1 X152.148 Y107.005 E2.05484
G1 X152.133 Y107.627 E.02738
G1 X119.125 Y74.618 E2.05484
G1 X119.11 Y75.24 E.02738
G1 X152.119 Y108.249 E2.05484
G1 X152.104 Y108.871 E.02738
G1 X119.095 Y75.862 E2.05484
G1 X119.081 Y76.484 E.02738
G1 X152.089 Y109.492 E2.05484
G1 X152.074 Y110.114 E.02738
G1 X119.066 Y77.106 E2.05484
G1 X119.051 Y77.728 E.02738
G1 X152.06 Y110.736 E2.05484
G1 X152.045 Y111.358 E.02738
G1 X119.036 Y78.349 E2.05484
G1 X119.022 Y78.971 E.02738
G1 X152.03 Y111.98 E2.05484
G1 X152.016 Y112.602 E.02738
G1 X119.007 Y79.593 E2.05484
G1 X118.992 Y80.215 E.02738
G1 X152.001 Y113.224 E2.05484
G1 X151.986 Y113.846 E.02738
G1 X118.978 Y80.837 E2.05484
G1 X118.963 Y81.459 E.02738
G1 X151.971 Y114.468 E2.05484
G1 X151.957 Y115.09 E.02738
G1 X118.948 Y82.081 E2.05484
G1 X118.933 Y82.703 E.02738
G1 X151.942 Y115.711 E2.05484
G1 X151.927 Y116.333 E.02738
G1 X118.919 Y83.325 E2.05484
G1 X118.904 Y83.947 E.02738
G1 X151.913 Y116.955 E2.05484
G1 X151.898 Y117.577 E.02738
G1 X118.889 Y84.568 E2.05484
G1 X118.875 Y85.19 E.02738
G1 X151.883 Y118.199 E2.05484
G1 X151.868 Y118.821 E.02738
G1 X118.86 Y85.812 E2.05484
G1 X118.845 Y86.434 E.02738
G1 X151.854 Y119.443 E2.05484
G1 X151.839 Y120.065 E.02738
G1 X118.83 Y87.056 E2.05484
G1 X118.816 Y87.678 E.02738
G1 X151.824 Y120.687 E2.05484
G1 X151.81 Y121.309 E.02738
G1 X118.801 Y88.3 E2.05484
G1 X118.786 Y88.922 E.02738
G1 X151.795 Y121.93 E2.05484
G1 X151.78 Y122.552 E.02738
G1 X118.772 Y89.544 E2.05484
G1 X118.757 Y90.166 E.02738
G1 X151.765 Y123.174 E2.05484
G1 X151.751 Y123.796 E.02738
G1 X118.742 Y90.787 E2.05484
G1 X118.727 Y91.409 E.02738
G1 X151.736 Y124.418 E2.05484
G1 X151.721 Y125.04 E.02738
G1 X118.713 Y92.031 E2.05484
G1 X118.698 Y92.653 E.02738
G1 X151.707 Y125.662 E2.05484
G1 X151.692 Y126.284 E.02738
G1 X118.683 Y93.275 E2.05484
G1 X118.668 Y93.897 E.02738
G1 X151.677 Y126.906 E2.05484
G1 X151.662 Y127.528 E.02738
G1 X118.654 Y94.519 E2.05484
G1 X118.639 Y95.141 E.02738
G1 X151.648 Y128.149 E2.05484
G1 X151.633 Y128.771 E.02738
G1 X118.624 Y95.763 E2.05484
G1 X118.61 Y96.385 E.02738
G1 X151.618 Y129.393 E2.05484
G1 X151.604 Y130.015 E.02738
G1 X118.595 Y97.006 E2.05484
G1 X118.58 Y97.628 E.02738
G1 X151.589 Y130.637 E2.05484
G1 X151.574 Y131.259 E.02738
G1 X118.565 Y98.25 E2.05484
G1 X118.551 Y98.872 E.02738
G1 X151.559 Y131.881 E2.05484
G1 X151.545 Y132.503 E.02738
G1 X118.536 Y99.494 E2.05484
G1 X118.521 Y100.116 E.02738
G1 X151.53 Y133.125 E2.05484
G1 X151.515 Y133.747 E.02738
G1 X118.507 Y100.738 E2.05484
G1 X118.492 Y101.36 E.02738
G1 X151.501 Y134.368 E2.05484
G1 X151.486 Y134.99 E.02738
G1 X118.477 Y101.982 E2.05484
G1 X118.462 Y102.604 E.02738
G1 X151.471 Y135.612 E2.05484
G1 X151.456 Y136.234 E.02738
G1 X118.448 Y103.225 E2.05484
G1 X118.433 Y103.847 E.02738
G1 X151.442 Y136.856 E2.05484
G1 X151.427 Y137.478 E.02738
G1 X118.418 Y104.469 E2.05484
G1 X118.404 Y105.091 E.02738
G1 X151.412 Y138.1 E2.05484
G1 X151.398 Y138.722 E.02738
G1 X118.389 Y105.713 E2.05484
G1 X118.374 Y106.335 E.02738
G1 X151.383 Y139.344 E2.05484
G1 X151.368 Y139.966 E.02738
G1 X118.359 Y106.957 E2.05484
G1 X118.345 Y107.579 E.02738
G1 X151.353 Y140.587 E2.05484
G1 X151.339 Y141.209 E.02738
G1 X118.33 Y108.201 E2.05484
G1 X118.315 Y108.823 E.02738
G1 X151.324 Y141.831 E2.05484
G1 X151.309 Y142.453 E.02738
G1 X118.301 Y109.444 E2.05484
G1 X118.286 Y110.066 E.02738
G1 X151.295 Y143.075 E2.05484
G1 X151.28 Y143.697 E.02738
G1 X118.271 Y110.688 E2.05484
G1 X118.256 Y111.31 E.02738
G1 X152.246 Y145.3 E2.1159
G1 X151.594 Y145.284 E.02872
G1 X118.242 Y111.932 E2.07621
G1 X118.227 Y112.554 E.02738
G1 X150.942 Y145.269 E2.03652
G1 X150.289 Y145.253 E.02872
G1 X118.212 Y113.176 E1.99683
G1 X118.198 Y113.798 E.02738
G1 X149.637 Y145.237 E1.95714
G1 X148.985 Y145.221 E.02872
G1 X118.183 Y114.42 E1.91745
G1 X118.168 Y115.042 E.02738
G1 X148.332 Y145.206 E1.87776
G1 X147.68 Y145.19 E.02872
G1 X118.153 Y115.664 E1.83807
G1 X118.139 Y116.285 E.02738
G1 X147.028 Y145.174 E1.79838
G1 X146.375 Y145.159 E.02872
G1 X118.124 Y116.907 E1.75869
G1 X118.109 Y117.529 E.02738
G1 X145.723 Y145.143 E1.719
G1 X145.071 Y145.127 E.02872
G1 X118.095 Y118.151 E1.67931
G1 X118.08 Y118.773 E.02738
G1 X144.419 Y145.112 E1.63962
G1 X143.766 Y145.096 E.02872
G1 X118.065 Y119.395 E1.59993
G1 X118.05 Y120.017 E.02738
G1 X143.114 Y145.08 E1.56024
G1 X142.462 Y145.065 E.02872
G1 X118.036 Y120.639 E1.52055
G1 X118.021 Y121.261 E.02738
G1 X141.809 Y145.049 E1.48086
G1 X141.157 Y145.033 E.02872
G1 X118.006 Y121.883 E1.44117
G1 X117.992 Y122.504 E.02738
G1 X140.505 Y145.018 E1.40148
G1 X139.853 Y145.002 E.02872
G1 X117.977 Y123.126 E1.36179
G1 X117.962 Y123.748 E.02738
G1 X139.2 Y144.986 E1.3221
G1 X138.548 Y144.971 E.02872
G1 X117.947 Y124.37 E1.28241
G1 X117.933 Y124.992 E.02738
G1 X137.896 Y144.955 E1.24272
G1 X137.243 Y144.939 E.02872
G1 X117.918 Y125.614 E1.20303
G1 X117.903 Y126.236 E.02738
G1 X136.591 Y144.924 E1.16334
G1 X135.939 Y144.908 E.02872
G1 X117.889 Y126.858 E1.12365
G1 X117.874 Y127.48 E.02738
G1 X135.287 Y144.892 E1.08396
G1 X134.634 Y144.877 E.02872
G1 X117.859 Y128.102 E1.04427
G1 X117.844 Y128.723 E.02738
G1 X133.982 Y144.861 E1.00458
