; HEADER_BLOCK_START
; generated by AnycubicSlicerNext 1.3.9.3 on 2026-03-07 at 13:23:34
; total layer number: 44
; filament_density: 1.24
; filament_diameter: 1.75
; max_z_height: 8.84
; exclude_object: 0
; model_instances: 1
; source_info: {"models":[{"file_source":0,"mo_file_id":-1,"name":"CasefinityBaseV1.stl_id_0_copy_0"}],"models_from":0,"plate_index":1,"slice_paras_process":1,"software_version":"AnycubicSlicerNext 1.3.9.3 20260131153104"}
; paint_info = [{"material_type":"PLA","paint_color":[105,164,255],"paint_index":0}]
; project_info = {"flush_multiplier":1.0,"flush_volumes_chan_multipliers":[1.0,1.0,1.0,1.0],"flush_volumes_matrix":[0.0],"flush_volumes_vector":[140.0,140.0]}
; flush_multiplier_calculate_by_acnext: 1
; test_mode: 0
; HEADER_BLOCK_END

; THUMBNAIL_BLOCK_START
; THUMBNAIL_BLOCK_END

; external perimeters extrusion width = 0.42mm
; perimeters extrusion width = 0.45mm
; infill extrusion width = 0.45mm
; solid infill extrusion width = 0.42mm
; top infill extrusion width = 0.42mm
; support material extrusion width = 0.40mm
; first layer extrusion width = 0.50mm

; EXECUTABLE_BLOCK_START
M201 X2000 Y2000 Z800 E2000
M203 X300 Y300 Z8 E100
M204 P2000 R2000 T2000
M205 X10.00 Y10.00 Z2.00 E5.00
;TYPE:Custom
G90 ; use absolute coordinates
M83 ; extruder relative mode
M104 S220 ; set extruder temp
M140 S60 ; set bed temp
M190 S60 ; wait for bed temp
M109 S220 ; wait for extruder temp
G28                                        ; move X/Y/Z to min endstops
G1 Z0.28                                   ; lift nozzle a bit 
G92 E0 
G1 Y3 F1800                                    ; zero the extruded length 
G1 X60  E25 F500                       ; Extrude 25mm of filament in a 5cm line. 
G92 E0                                     ; zero the extruded length again 
G1 E-2 F500                                ; Retract a little 
G1 X70 F4000                              ; Quickly wipe away from the filament line
M117
G90
G21
M83 ; use relative distances for extrusion
; EXECUTABLE_BLOCK_HEAD
; filament start gcode
M75 ; The first extruder is ready.
M106 S0
;LAYER_CHANGE
;Z:0.24
;HEIGHT:0.24
; BEFORE_LAYER_CHANGE 0 @ 0.24mm
G92 E0
; AFTER_LAYER_CHANGE 0 @ 0.24mm
M204 S500
G1 E-.8 F3600
G1 X69.853 Y45.851 F18000
G1 Z.24
G1 E.8 F3600
;TYPE:Skirt
;WIDTH:0.5
G1 F3000
G1 X69.853 Y42.65 E.14038
G1 X70.014 Y40.531 E.09318
G1 X70.257 Y39.313 E.05449
G1 X70.649 Y37.996 E.06024
G1 X71.225 Y36.606 E.06599
G1 X72.249 Y34.819 E.09031
G1 X73.523 Y33.202 E.09031
G1 X74.92 Y31.872 E.08457
G1 X76.598 Y30.678 E.09032
G1 X78.433 Y29.744 E.09031
G1 X80.385 Y29.089 E.09032
G1 X81.861 Y28.795 E.06598
G1 X83.85 Y28.653 E.08745
G1 X136.216 Y28.653 E2.29655
G1 X137.587 Y28.727 E.06024
G1 X138.945 Y28.935 E.06024
G1 X140.15 Y29.237 E.05449
G1 X141.446 Y29.694 E.06024
G1 X143.402 Y30.678 E.09605
G1 X144.54 Y31.447 E.06024
G1 X145.598 Y32.323 E.06024
G1 X146.565 Y33.299 E.06024
G1 X147.431 Y34.365 E.06024
G1 X148.189 Y35.511 E.06024
G1 X148.775 Y36.606 E.05449
G1 X149.306 Y37.873 E.06024
G1 X149.711 Y39.185 E.06024
G1 X150.086 Y41.343 E.09605
G1 X150.147 Y42.65 E.05737
G1 X150.147 Y177.35 E5.90741
G1 X149.986 Y179.469 E.09318
G1 X149.743 Y180.687 E.05449
G1 X149.351 Y182.004 E.06024
G1 X148.525 Y183.89 E.09032
G1 X147.621 Y185.365 E.07586
G1 X146.477 Y186.798 E.08043
G1 X144.979 Y188.211 E.09031
G1 X143.289 Y189.389 E.09031
G1 X141.446 Y190.306 E.09031
G1 X139.615 Y190.911 E.08458
G1 X137.587 Y191.273 E.09031
G1 X136.15 Y191.347 E.06311
G1 X83.784 Y191.347 E2.29655
G1 X81.509 Y191.147 E.10018
G1 X80.385 Y190.911 E.05034
G1 X79.196 Y190.551 E.05449
G1 X77.31 Y189.725 E.09031
G1 X75.565 Y188.631 E.09032
G1 X73.999 Y187.294 E.09031
G1 X72.647 Y185.741 E.09031
G1 X71.537 Y184.006 E.09032
G1 X70.694 Y182.127 E.09032
G1 X70.135 Y180.145 E.09031
G1 X69.873 Y178.102 E.09032
G1 X69.853 Y45.891 E5.79826
G1 X70.301 Y45.891 F18000
G1 F3000
G1 X70.301 Y42.65 E.14214
G1 X70.456 Y40.608 E.08981
G1 X70.694 Y39.411 E.05353
G1 X71.075 Y38.137 E.05831
G1 X71.626 Y36.808 E.06309
G1 X72.615 Y35.078 E.08742
G1 X73.848 Y33.511 E.08742
G1 X75.297 Y32.142 E.08742
G1 X76.838 Y31.057 E.08264
G1 X78.615 Y30.154 E.08742
G1 X80.505 Y29.521 E.08742
G1 X81.916 Y29.24 E.06309
G1 X83.85 Y29.101 E.08504
G1 X136.205 Y29.102 E2.29607
G1 X137.532 Y29.172 E.05831
G1 X138.847 Y29.373 E.05831
G1 X140.031 Y29.669 E.05353
G1 X141.284 Y30.112 E.05831
G1 X143.162 Y31.057 E.0922
G1 X144.265 Y31.8 E.05831
G1 X145.289 Y32.648 E.05831
G1 X146.225 Y33.592 E.05831
G1 X147.065 Y34.623 E.05831
G1 X147.799 Y35.732 E.05831
G1 X148.374 Y36.808 E.05353
G1 X148.888 Y38.034 E.05831
G1 X149.279 Y39.305 E.05831
G1 X149.638 Y41.376 E.0922
G1 X149.699 Y42.65 E.05592
G1 X149.699 Y177.35 E5.90741
G1 X149.544 Y179.392 E.08981
G1 X149.306 Y180.589 E.05353
G1 X148.925 Y181.863 E.05831
G1 X148.124 Y183.688 E.08742
G1 X147.255 Y185.107 E.07297
G1 X146.152 Y186.489 E.07753
G1 X144.703 Y187.858 E.08742
G1 X143.068 Y188.999 E.08742
G1 X141.284 Y189.888 E.08742
G1 X139.389 Y190.506 E.08742
G1 X137.532 Y190.828 E.08264
G1 X136.15 Y190.899 E.0607
G1 X83.85 Y190.899 E2.29367
G1 X81.808 Y190.744 E.08981
G1 X80.505 Y190.479 E.05831
G1 X79.337 Y190.125 E.05353
G1 X77.512 Y189.324 E.08742
G1 X75.823 Y188.265 E.08742
G1 X74.309 Y186.969 E.08742
G1 X73 Y185.465 E.08742
G1 X71.927 Y183.785 E.08742
G1 X71.112 Y181.966 E.08742
G1 X70.573 Y180.047 E.08742
G1 X70.321 Y178.069 E.08742
G1 X70.301 Y45.931 E5.79507
; printing object "CasefinityBaseV1.stl" id:0 copy 0
G1 E-.8 F3600
G1 X73.494 Y181.058 F18000
G1 E.8 F3600
;TYPE:Outer wall
G1 F2400
G1 X73.238 Y180.233 E.03787
G1 X73.061 Y179.494 E.03332
G1 X72.969 Y178.964 E.0236
G1 X72.903 Y178.428 E.02368
G1 X72.864 Y177.89 E.02368
G1 X72.85 Y177.346 E.02385
G1 X72.85 Y69.587 E4.72589
G1 X72.825 Y68.577 E.04432
G1 X72.775 Y68.081 E.02185
G1 X72.775 Y47.143 E.91827
G1 X72.785 Y46.654 E.02141
G1 X72.828 Y46.158 E.02188
G1 X72.847 Y45.648 E.02236
G1 X72.85 Y42.654 E.1313
G1 X72.864 Y42.11 E.02386
G1 X72.903 Y41.572 E.02368
G1 X72.969 Y41.036 E.02368
G1 X73.062 Y40.504 E.02368
G1 X73.18 Y39.977 E.02368
G1 X73.324 Y39.457 E.02368
G1 X73.493 Y38.944 E.02368
G1 X73.688 Y38.441 E.02368
G1 X73.906 Y37.949 E.0236
G1 X74.257 Y37.275 E.03332
G1 X74.705 Y36.537 E.03787
G1 X75.015 Y36.098 E.02358
G1 X75.347 Y35.672 E.02368
G1 X75.7 Y35.263 E.02368
G1 X76.072 Y34.872 E.02368
G1 X76.463 Y34.5 E.02368
G1 X76.872 Y34.147 E.02368
G1 X77.298 Y33.815 E.02368
G1 X77.739 Y33.504 E.02368
G1 X78.195 Y33.215 E.02368
G1 X78.665 Y32.949 E.02368
G1 X79.147 Y32.706 E.02368
G1 X79.641 Y32.488 E.02368
G1 X80.144 Y32.293 E.02368
G1 X80.657 Y32.124 E.02368
G1 X81.177 Y31.98 E.02368
G1 X81.704 Y31.862 E.02368
G1 X82.236 Y31.769 E.02368
G1 X82.772 Y31.703 E.02368
G1 X83.31 Y31.664 E.02368
G1 X83.854 Y31.65 E.02385
G1 X136.367 Y31.656 E2.30301
G1 X137.23 Y31.704 E.03793
G1 X137.764 Y31.769 E.02358
G1 X138.296 Y31.862 E.02368
G1 X138.823 Y31.98 E.02368
G1 X139.343 Y32.124 E.02368
G1 X139.856 Y32.293 E.02368
G1 X140.359 Y32.488 E.02368
G1 X140.853 Y32.706 E.02368
G1 X141.335 Y32.949 E.02368
G1 X141.805 Y33.215 E.02368
G1 X142.261 Y33.504 E.02368
G1 X142.703 Y33.815 E.02368
G1 X143.128 Y34.147 E.02368
G1 X143.537 Y34.5 E.02368
G1 X143.928 Y34.872 E.02368
G1 X144.3 Y35.263 E.02368
G1 X144.653 Y35.672 E.02368
G1 X144.985 Y36.098 E.02368
G1 X145.295 Y36.537 E.0236
G1 X145.692 Y37.185 E.03332
G1 X146.094 Y37.949 E.03787
G1 X146.312 Y38.441 E.02358
G1 X146.507 Y38.944 E.02368
G1 X146.676 Y39.457 E.02368
G1 X146.82 Y39.977 E.02368
G1 X146.938 Y40.504 E.02368
G1 X147.031 Y41.036 E.02368
G1 X147.097 Y41.572 E.02368
G1 X147.136 Y42.108 E.02357
G1 X147.153 Y45.648 E.15528
G1 X147.172 Y46.158 E.02234
G1 X147.215 Y46.654 E.02188
G1 X147.225 Y47.143 E.02141
G1 X147.225 Y68.081 E.91827
G1 X147.175 Y68.577 E.02185
G1 X147.15 Y69.587 E.04432
G1 X147.15 Y177.346 E4.72589
G1 X147.136 Y177.89 E.02385
G1 X147.097 Y178.428 E.02368
G1 X147.031 Y178.964 E.02368
G1 X146.938 Y179.496 E.02368
G1 X146.82 Y180.023 E.02368
G1 X146.676 Y180.543 E.02368
G1 X146.507 Y181.054 E.0236
G1 X146.224 Y181.759 E.03332
G1 X145.85 Y182.537 E.03787
G1 X145.586 Y183.003 E.0235
G1 X145.17 Y183.64 E.03332
G1 X144.651 Y184.33 E.03787
G1 X144.3 Y184.737 E.02358
G1 X143.928 Y185.128 E.02368
G1 X143.537 Y185.5 E.02368
G1 X143.129 Y185.852 E.0236
G1 X142.524 Y186.311 E.03332
G1 X141.803 Y186.786 E.03787
G1 X141.335 Y187.051 E.02358
G1 X140.853 Y187.294 E.02368
G1 X140.359 Y187.512 E.02368
G1 X139.856 Y187.707 E.02368
G1 X139.343 Y187.876 E.02368
G1 X138.825 Y188.019 E.02358
G1 X137.979 Y188.193 E.03787
G1 X137.226 Y188.297 E.03332
G1 X136.69 Y188.336 E.0236
G1 X136.146 Y188.35 E.02385
G1 X83.854 Y188.35 E2.29332
G1 X83.31 Y188.336 E.02385
G1 X82.772 Y188.297 E.02368
G1 X82.236 Y188.231 E.02368
G1 X81.704 Y188.138 E.02368
G1 X81.177 Y188.02 E.02368
G1 X80.657 Y187.876 E.02368
G1 X80.144 Y187.707 E.02368
G1 X79.641 Y187.512 E.02368
G1 X79.147 Y187.294 E.02368
G1 X78.665 Y187.051 E.02368
G1 X78.195 Y186.785 E.02368
G1 X77.739 Y186.496 E.02368
G1 X77.298 Y186.185 E.02368
G1 X76.872 Y185.853 E.02368
G1 X76.463 Y185.5 E.02368
G1 X76.072 Y185.128 E.02367
G1 X75.7 Y184.737 E.02368
G1 X75.347 Y184.328 E.02368
G1 X75.016 Y183.904 E.0236
G1 X74.587 Y183.277 E.03332
G1 X74.148 Y182.533 E.03787
G1 X73.906 Y182.053 E.02358
G1 X73.688 Y181.559 E.02368
G1 X73.501 Y181.076 E.0227
G1 E-.8 F3600
G1 X73.253 Y46.458 F18000
G1 E.8 F3600
;TYPE:Inner wall
G1 F2400
G1 X73.295 Y45.656 E.0352
G1 X73.312 Y42.132 E.15455
G1 X73.35 Y41.616 E.02271
G1 X73.413 Y41.102 E.02271
G1 X73.502 Y40.592 E.02271
G1 X73.615 Y40.086 E.02271
G1 X73.753 Y39.587 E.02271
G1 X73.916 Y39.095 E.02271
G1 X74.102 Y38.612 E.02271
G1 X74.31 Y38.143 E.0225
G1 X74.648 Y37.495 E.03205
G1 X75.081 Y36.783 E.03656
G1 X75.375 Y36.365 E.02243
G1 X75.694 Y35.956 E.02271
G1 X76.032 Y35.564 E.02271
G1 X76.389 Y35.189 E.02271
G1 X76.764 Y34.832 E.02271
G1 X77.157 Y34.494 E.02271
G1 X77.565 Y34.175 E.02271
G1 X77.988 Y33.877 E.02271
G1 X78.426 Y33.6 E.02271
G1 X78.876 Y33.345 E.02271
G1 X79.339 Y33.112 E.02271
G1 X79.812 Y32.902 E.02271
G1 X80.295 Y32.716 E.02271
G1 X80.787 Y32.553 E.02271
G1 X81.286 Y32.415 E.02271
G1 X81.792 Y32.302 E.02271
G1 X82.302 Y32.213 E.02271
G1 X82.816 Y32.15 E.02271
G1 X83.332 Y32.112 E.02271
G1 X83.859 Y32.099 E.02313
G1 X136.355 Y32.104 E2.30223
G1 X137.191 Y32.151 E.03672
G1 X137.698 Y32.213 E.02243
G1 X138.208 Y32.302 E.02271
G1 X138.714 Y32.415 E.02271
G1 X139.213 Y32.553 E.02271
G1 X139.705 Y32.716 E.02271
G1 X140.188 Y32.902 E.02271
G1 X140.661 Y33.112 E.02271
G1 X141.124 Y33.345 E.02271
G1 X141.574 Y33.6 E.02271
G1 X142.012 Y33.877 E.02271
G1 X142.435 Y34.175 E.02271
G1 X142.843 Y34.494 E.02271
G1 X143.236 Y34.832 E.02271
G1 X143.611 Y35.189 E.02271
G1 X143.968 Y35.564 E.02271
G1 X144.306 Y35.957 E.02271
G1 X144.625 Y36.365 E.02271
G1 X144.92 Y36.784 E.0225
G1 X145.302 Y37.407 E.03205
G1 X145.691 Y38.145 E.03656
G1 X145.898 Y38.612 E.02243
G1 X146.084 Y39.095 E.02271
G1 X146.247 Y39.587 E.02271
G1 X146.385 Y40.086 E.02271
G1 X146.498 Y40.592 E.02271
G1 X146.587 Y41.102 E.02271
G1 X146.65 Y41.616 E.02271
G1 X146.688 Y42.125 E.02241
G1 X146.705 Y45.658 E.15491
G1 X146.747 Y46.458 E.03514
G1 X146.195 Y46.402 E.02435
G1 X145.163 Y46.377 E.04528
G1 X75.343 Y46.377 E3.06201
G1 X74.331 Y46.381 E.04438
G1 X73.799 Y46.403 E.02336
G1 X73.272 Y46.456 E.02321
G1 E-.8 F3600
G1 X146.9 Y67.876 F18000
G1 E.8 F3600
;TYPE:Outer wall
G1 F2400
G1 X146.9 Y46.924 E.91888
G1 X146.167 Y46.85 E.03231
G1 X145.157 Y46.825 E.0443
G1 X74.342 Y46.829 E3.10569
G1 X73.831 Y46.85 E.02241
G1 X73.1 Y46.924 E.03222
G1 X73.1 Y67.876 E.91888
G1 X73.831 Y67.95 E.03222
G1 X74.342 Y67.971 E.02241
G1 X75.344 Y67.975 E.04397
G1 X145.157 Y67.975 E3.06173
G1 X146.167 Y67.95 E.0443
G1 X146.88 Y67.878 E.03143
G1 X146.748 Y68.342 F18000
;TYPE:Inner wall
G1 F2400
G1 X146.727 Y68.549 E.0091
G1 X146.701 Y69.581 E.04531
G1 X146.701 Y177.341 E4.72589
G1 X146.688 Y177.868 E.02313
G1 X146.65 Y178.384 E.02271
G1 X146.587 Y178.898 E.02271
G1 X146.498 Y179.408 E.02271
G1 X146.385 Y179.914 E.02271
G1 X146.247 Y180.413 E.02271
G1 X146.086 Y180.9 E.0225
G1 X145.813 Y181.578 E.03205
G1 X145.452 Y182.329 E.03656
G1 X145.202 Y182.77 E.02221
G1 X144.803 Y183.382 E.03205
G1 X144.302 Y184.048 E.03656
G1 X143.968 Y184.436 E.02243
G1 X143.611 Y184.811 E.02271
G1 X143.236 Y185.168 E.02271
G1 X142.847 Y185.503 E.02249
G1 X142.265 Y185.944 E.03205
G1 X141.569 Y186.403 E.03656
G1 X141.124 Y186.655 E.02243
G1 X140.661 Y186.888 E.02271
G1 X140.188 Y187.098 E.02271
G1 X139.705 Y187.284 E.02271
G1 X139.213 Y187.447 E.02271
G1 X138.72 Y187.583 E.02243
G1 X137.903 Y187.751 E.03656
G1 X137.179 Y187.851 E.03205
G1 X136.668 Y187.888 E.02249
G1 X136.141 Y187.901 E.02313
G1 X83.859 Y187.901 E2.29284
G1 X83.332 Y187.888 E.02313
G1 X82.816 Y187.85 E.02271
G1 X82.302 Y187.787 E.02271
G1 X81.792 Y187.698 E.02271
G1 X81.286 Y187.585 E.02271
G1 X80.787 Y187.447 E.02271
G1 X80.295 Y187.284 E.02271
G1 X79.812 Y187.098 E.02271
G1 X79.339 Y186.888 E.02271
G1 X78.876 Y186.655 E.02271
G1 X78.426 Y186.4 E.02271
G1 X77.988 Y186.123 E.02271
G1 X77.565 Y185.825 E.02271
G1 X77.156 Y185.506 E.02271
G1 X76.764 Y185.168 E.02271
G1 X76.389 Y184.811 E.02271
G1 X76.032 Y184.436 E.02271
G1 X75.694 Y184.044 E.02271
G1 X75.378 Y183.639 E.0225
G1 X74.966 Y183.036 E.03205
G1 X74.542 Y182.318 E.03656
G1 X74.312 Y181.861 E.02243
G1 X74.102 Y181.388 E.02271
G1 X73.918 Y180.91 E.02243
G1 X73.671 Y180.114 E.03656
G1 X73.501 Y179.404 E.03205
G1 X73.413 Y178.898 E.0225
G1 X73.35 Y178.384 E.02271
G1 X73.312 Y177.868 E.02271
G1 X73.299 Y177.341 E.02313
G1 X73.299 Y69.581 E4.72589
G1 X73.273 Y68.549 E.04531
G1 X73.252 Y68.342 E.0091
G1 X73.799 Y68.397 E.0241
G1 X74.331 Y68.419 E.02336
G1 X75.343 Y68.423 E.04438
G1 X145.163 Y68.423 E3.06201
G1 X146.195 Y68.398 E.04528
G1 X146.728 Y68.344 E.02349
G1 E-.8 F3600
G1 X146.572 Y69.378 F18000
G1 E.8 F3600
;TYPE:Bottom surface
;WIDTH:0.501377
G1 F3000
G1 X145.935 Y68.741 E.03962
G1 X145.314 Y68.756 E.02732
G1 X146.365 Y69.807 E.06538
G1 X146.365 Y70.443 E.02799
G1 X144.682 Y68.76 E.10474
G1 X144.045 Y68.76 E.02799
G1 X146.365 Y71.079 E.14432
G1 X146.365 Y71.716 E.02799
G1 X143.409 Y68.76 E.1839
G1 X142.773 Y68.76 E.02799
G1 X146.365 Y72.352 E.22348
G1 X146.365 Y72.988 E.02799
G1 X142.137 Y68.76 E.26306
G1 X141.501 Y68.76 E.02799
G1 X146.365 Y73.624 E.30264
G1 X146.365 Y74.26 E.02799
G1 X140.864 Y68.76 E.34222
G1 X140.228 Y68.76 E.02799
G1 X146.365 Y74.897 E.3818
G1 X146.365 Y75.533 E.02799
G1 X139.592 Y68.76 E.42138
G1 X138.956 Y68.76 E.02799
G1 X146.365 Y76.169 E.46096
G1 X146.365 Y76.805 E.02799
G1 X138.319 Y68.76 E.50054
G1 X137.683 Y68.76 E.02799
G1 X146.365 Y77.442 E.54012
G1 X146.365 Y78.078 E.02799
G1 X137.047 Y68.76 E.5797
G1 X136.411 Y68.76 E.02799
G1 X146.365 Y78.714 E.61928
G1 X146.365 Y79.35 E.02799
G1 X135.775 Y68.76 E.65886
G1 X135.138 Y68.76 E.02799
G1 X146.365 Y79.986 E.69844
G1 X146.365 Y80.623 E.02799
G1 X134.502 Y68.76 E.73802
G1 X133.866 Y68.76 E.02799
G1 X146.365 Y81.259 E.7776
G1 X146.365 Y81.895 E.02799
G1 X133.23 Y68.76 E.81718
G1 X132.594 Y68.76 E.02799
G1 X146.365 Y82.531 E.85676
G1 X146.365 Y83.167 E.02799
G1 X131.957 Y68.76 E.89634
G1 X131.321 Y68.76 E.02799
G1 X146.365 Y83.804 E.93592
G1 X146.365 Y84.44 E.02799
G1 X130.685 Y68.76 E.9755
G1 X130.049 Y68.76 E.02799
G1 X146.365 Y85.076 E1.01508
G1 X146.365 Y85.712 E.02799
G1 X129.412 Y68.76 E1.05466
G1 X128.776 Y68.76 E.02799
G1 X146.365 Y86.349 E1.09424
G1 X146.365 Y86.985 E.02799
G1 X128.14 Y68.76 E1.13382
G1 X127.504 Y68.76 E.02799
G1 X146.365 Y87.621 E1.1734
G1 X146.365 Y88.257 E.02799
G1 X126.868 Y68.76 E1.21298
G1 X126.231 Y68.76 E.02799
G1 X146.365 Y88.893 E1.25256
G1 X146.365 Y89.53 E.02799
G1 X125.595 Y68.76 E1.29214
G1 X124.959 Y68.76 E.02799
G1 X146.365 Y90.166 E1.33172
G1 X146.365 Y90.802 E.02799
G1 X124.323 Y68.76 E1.37131
G1 X123.687 Y68.76 E.02799
G1 X146.365 Y91.438 E1.41089
G1 X146.365 Y92.074 E.02799
G1 X123.05 Y68.76 E1.45047
G1 X122.414 Y68.76 E.02799
G1 X146.365 Y92.711 E1.49005
G1 X146.365 Y93.347 E.02799
G1 X121.778 Y68.76 E1.52963
G1 X121.142 Y68.76 E.02799
