; HEADER_BLOCK_START
; generated by AnycubicSlicerNext 1.3.9.3 on 2026-03-07 at 20:35:37
; total layer number: 51
; filament_density: 1.24
; filament_diameter: 1.75
; max_z_height: 10.24
; exclude_object: 0
; model_instances: 1
; source_info: {"models":[{"file_source":0,"mo_file_id":-1,"name":"CasefinityBaseV2.stl_id_0_copy_0"}],"models_from":0,"plate_index":1,"slice_paras_process":1,"software_version":"AnycubicSlicerNext 1.3.9.3 20260131153104"}
; paint_info = [{"material_type":"PLA","paint_color":[105,164,255],"paint_index":0}]
; project_info = {"flush_multiplier":1.0,"flush_volumes_chan_multipliers":[1.0,1.0,1.0,1.0],"flush_volumes_matrix":[0.0],"flush_volumes_vector":[140.0,140.0]}
; flush_multiplier_calculate_by_acnext: 1
; test_mode: 0
; HEADER_BLOCK_END

; THUMBNAIL_BLOCK_START
; THUMBNAIL_BLOCK_END

; external perimeters extrusion width = 0.42mm
; perimeters extrusion width = 0.45mm
; infill extrusion width = 0.45mm
; solid infill extrusion width = 0.42mm
; top infill extrusion width = 0.42mm
; support material extrusion width = 0.40mm
; first layer extrusion width = 0.50mm

; EXECUTABLE_BLOCK_START
M201 X2000 Y2000 Z800 E2000
M203 X300 Y300 Z8 E100
M204 P2000 R2000 T2000
M205 X10.00 Y10.00 Z2.00 E5.00
;TYPE:Custom
G90 ; use absolute coordinates
M83 ; extruder relative mode
M104 S220 ; set extruder temp
M140 S60 ; set bed temp
M190 S60 ; wait for bed temp
M109 S220 ; wait for extruder temp
G28                                        ; move X/Y/Z to min endstops
G1 Z0.28                                   ; lift nozzle a bit 
G92 E0 
G1 Y3 F1800                                    ; zero the extruded length 
G1 X60  E25 F500                       ; Extrude 25mm of filament in a 5cm line. 
G92 E0                                     ; zero the extruded length again 
G1 E-2 F500                                ; Retract a little 
G1 X70 F4000                              ; Quickly wipe away from the filament line
M117
G90
G21
M83 ; use relative distances for extrusion
; EXECUTABLE_BLOCK_HEAD
; filament start gcode
M75 ; The first extruder is ready.
M106 S0
;LAYER_CHANGE
;Z:0.24
;HEIGHT:0.24
; BEFORE_LAYER_CHANGE 0 @ 0.24mm
G92 E0
; AFTER_LAYER_CHANGE 0 @ 0.24mm
M204 S500
G1 E-.8 F3600
G1 X70.141 Y46.127 F18000
G1 Z.24
G1 E.8 F3600
;TYPE:Skirt
;WIDTH:0.5
G1 F3000
G1 X70.14 Y36.7 E.41343
G1 X70.277 Y35.251 E.06385
G1 X70.706 Y33.791 E.06671
G1 X71.211 Y32.767 E.05007
G1 X71.861 Y31.828 E.05006
G1 X72.641 Y30.995 E.05007
G1 X73.371 Y30.4 E.0413
G1 X74.3 Y29.826 E.04791
G1 X75.348 Y29.372 E.05007
G1 X76.322 Y29.103 E.04433
G1 X77.454 Y28.953 E.05007
G1 X142.149 Y28.941 E2.83729
G1 X143.549 Y29.077 E.06169
G1 X145.009 Y29.506 E.06671
G1 X146.356 Y30.212 E.06671
G1 X147.54 Y31.167 E.06671
G1 X148.515 Y32.335 E.06671
G1 X149.142 Y33.442 E.05581
G1 X149.642 Y34.878 E.06671
G1 X149.853 Y36.385 E.06671
G1 X149.86 Y183.3 E6.44312
G1 X149.697 Y184.878 E.06957
G1 X149.243 Y186.33 E.06671
G1 X148.721 Y187.345 E.05007
G1 X148.139 Y188.172 E.04433
G1 X147.359 Y189.005 E.05007
G1 X146.629 Y189.6 E.04129
G1 X145.7 Y190.174 E.04791
G1 X144.652 Y190.628 E.05006
G1 X143.549 Y190.923 E.05007
G1 X142.546 Y191.047 E.04434
G1 X77.9 Y191.06 E2.83512
G1 X76.322 Y190.897 E.06958
G1 X74.87 Y190.443 E.06671
G1 X73.967 Y189.989 E.04433
G1 X73.028 Y189.339 E.05006
G1 X72.195 Y188.559 E.05007
G1 X71.485 Y187.665 E.05006
G1 X71.026 Y186.9 E.03914
G1 X70.572 Y185.852 E.05007
G1 X70.277 Y184.749 E.05006
G1 X70.147 Y183.615 E.05007
G1 X70.141 Y46.167 E6.02794
G1 X70.589 Y46.167 F18000
G1 F3000
G1 X70.589 Y36.7 E.41518
G1 X70.719 Y35.327 E.06048
G1 X71.125 Y33.953 E.06285
G1 X71.601 Y32.988 E.04718
G1 X72.214 Y32.104 E.04717
G1 X72.95 Y31.32 E.04717
G1 X73.629 Y30.767 E.0384
G1 X74.502 Y30.227 E.04502
G1 X75.488 Y29.798 E.04717
G1 X76.42 Y29.54 E.0424
G1 X77.487 Y29.401 E.04717
G1 X142.149 Y29.39 E2.83584
G1 X143.473 Y29.519 E.05832
G1 X144.847 Y29.925 E.06286
G1 X146.116 Y30.591 E.06286
G1 X147.231 Y31.492 E.06285
G1 X148.148 Y32.593 E.06285
G1 X148.732 Y33.624 E.05195
G1 X149.205 Y34.977 E.06285
G1 X149.405 Y36.396 E.06285
G1 X149.411 Y183.3 E6.44264
G1 X149.26 Y184.78 E.06524
G1 X148.833 Y186.148 E.06285
G1 X148.343 Y187.105 E.04717
G1 X147.786 Y187.896 E.0424
G1 X147.05 Y188.68 E.04718
G1 X146.371 Y189.233 E.0384
G1 X145.498 Y189.773 E.04502
G1 X144.512 Y190.202 E.04717
G1 X143.473 Y190.481 E.04717
G1 X142.513 Y190.599 E.0424
G1 X77.9 Y190.611 E2.83368
G1 X76.42 Y190.46 E.06524
G1 X75.052 Y190.033 E.06285
G1 X74.188 Y189.599 E.0424
G1 X73.304 Y188.986 E.04717
G1 X72.52 Y188.25 E.04718
G1 X71.852 Y187.407 E.04717
G1 X71.427 Y186.698 E.03625
G1 X70.998 Y185.711 E.04718
G1 X70.719 Y184.673 E.04717
G1 X70.595 Y183.604 E.04718
G1 X70.589 Y46.207 E6.02571
; printing object "CasefinityBaseV2.stl" id:0 copy 0
G1 E-.8 F3600
G1 X143.022 Y187.971 F18000
G1 E.8 F3600
;TYPE:Outer wall
G1 F2400
G1 X142.567 Y188.039 E.02019
G1 X142.093 Y188.062 E.0208
G1 X77.663 Y188.056 E2.82563
G1 X76.971 Y187.97 E.03059
G1 X76.515 Y187.856 E.02063
G1 X76.081 Y187.701 E.02023
G1 X75.655 Y187.5 E.02063
G1 X75.252 Y187.258 E.02063
G1 X74.881 Y186.983 E.02023
G1 X74.533 Y186.667 E.02063
G1 X74.219 Y186.321 E.02049
G1 X73.939 Y185.943 E.02063
G1 X73.702 Y185.547 E.02023
G1 X73.501 Y185.122 E.02063
G1 X73.343 Y184.682 E.02049
G1 X73.23 Y184.229 E.02049
G1 X73.161 Y183.767 E.0205
G1 X73.138 Y183.293 E.0208
G1 X73.144 Y36.466 E6.43924
G1 X73.19 Y36.001 E.02049
G1 X73.281 Y35.543 E.02049
G1 X73.416 Y35.097 E.02046
G1 X73.617 Y34.621 E.02262
G1 X73.815 Y34.252 E.01837
G1 X74.075 Y33.863 E.02052
G1 X74.372 Y33.502 E.0205
G1 X74.702 Y33.172 E.02046
G1 X75.102 Y32.848 E.02262
G1 X75.452 Y32.616 E.01839
G1 X75.864 Y32.395 E.02051
G1 X76.296 Y32.217 E.02049
G1 X76.743 Y32.081 E.02049
G1 X77.201 Y31.99 E.02049
G1 X77.667 Y31.944 E.02054
G1 X142.337 Y31.944 E2.83614
G1 X143.029 Y32.03 E.03059
G1 X143.485 Y32.144 E.02063
G1 X143.919 Y32.299 E.02023
G1 X144.347 Y32.502 E.02076
G1 X144.937 Y32.875 E.03059
G1 X145.3 Y33.174 E.02063
G1 X145.626 Y33.5 E.02022
G1 X145.925 Y33.863 E.02063
G1 X146.184 Y34.252 E.02049
G1 X146.498 Y34.875 E.03059
G1 X146.657 Y35.318 E.02063
G1 X146.77 Y35.771 E.02049
G1 X146.839 Y36.233 E.02049
G1 X146.862 Y36.707 E.0208
G1 X146.862 Y183.296 E6.42881
G1 X146.856 Y183.531 E.01029
G1 X146.771 Y184.226 E.03073
G1 X146.656 Y184.685 E.02076
G1 X146.405 Y185.336 E.03059
G1 X146.061 Y185.943 E.03059
G1 X145.628 Y186.498 E.03086
G1 X145.12 Y186.982 E.0308
G1 X144.546 Y187.386 E.03077
G1 X143.922 Y187.699 E.03061
G1 X143.482 Y187.857 E.02049
G1 X143.042 Y187.967 E.01992
G1 E-.8 F3600
G1 X146.419 Y45.881 F18000
G1 E.8 F3600
G1 F2400
G1 X73.581 Y45.881 E3.19442
G1 X73.581 Y67.519 E.94896
G1 X146.419 Y67.519 E3.19442
G1 X146.419 Y45.901 E.94811
G1 E-.8 F3600
G1 X143.094 Y45.432 F18000
G1 E.8 F3600
;TYPE:Inner wall
G1 F2400
G1 X73.592 Y45.433 E3.04807
G1 X73.592 Y36.488 E.39227
G1 X73.634 Y36.067 E.01856
G1 X73.716 Y35.652 E.01856
G1 X73.839 Y35.249 E.01846
G1 X74.022 Y34.815 E.02066
G1 X74.2 Y34.484 E.01651
G1 X74.436 Y34.131 E.01862
G1 X74.704 Y33.804 E.01856
G1 X75.002 Y33.506 E.01846
G1 X75.368 Y33.21 E.02066
G1 X75.682 Y33.001 E.01652
G1 X76.056 Y32.801 E.0186
G1 X76.447 Y32.639 E.01856
G1 X76.852 Y32.516 E.01856
G1 X77.267 Y32.434 E.01856
G1 X77.691 Y32.392 E.01869
G1 X78.401 Y32.386 E.03112
G1 X142.32 Y32.392 E2.80324
G1 X142.941 Y32.47 E.02746
G1 X143.553 Y32.639 E.02783
G1 X144.141 Y32.9 E.02821
G1 X144.669 Y33.236 E.02746
G1 X145.15 Y33.65 E.02783
G1 X145.564 Y34.131 E.02783
G1 X145.799 Y34.483 E.01856
G1 X146.003 Y34.864 E.01894
G1 X146.227 Y35.448 E.02746
G1 X146.33 Y35.859 E.01856
G1 X146.392 Y36.277 E.01856
G1 X146.414 Y36.718 E.01935
G1 X146.414 Y45.432 E.38217
G1 X143.114 Y45.432 E.14472
G1 E-.8 F3600
G1 X142.941 Y187.53 F18000
G1 E.8 F3600
G1 F2400
G1 X142.523 Y187.592 E.01856
G1 X142.082 Y187.614 E.01935
G1 X77.68 Y187.608 E2.82442
G1 X77.059 Y187.53 E.02746
G1 X76.64 Y187.425 E.01894
G1 X76.257 Y187.288 E.01781
G1 X75.867 Y187.104 E.01894
G1 X75.33 Y186.765 E.02783
G1 X74.85 Y186.35 E.02783
G1 X74.566 Y186.036 E.01856
G1 X74.2 Y185.518 E.02783
G1 X73.915 Y184.95 E.02783
G1 X73.773 Y184.552 E.01856
G1 X73.67 Y184.141 E.01856
G1 X73.608 Y183.723 E.01856
G1 X73.586 Y183.282 E.01935
G1 X73.591 Y67.968 E5.05722
G1 X146.414 Y67.968 E3.19371
G1 X146.414 Y183.29 E5.0576
G1 X146.365 Y183.941 E.02862
G1 X146.225 Y184.56 E.02783
G1 X145.999 Y185.144 E.02746
G1 X145.795 Y185.525 E.01894
G1 X145.429 Y186.043 E.02783
G1 X145.156 Y186.344 E.01781
G1 X144.832 Y186.638 E.01918
G1 X144.639 Y186.785 E.01065
G1 X144.141 Y187.1 E.02585
G1 X143.75 Y187.284 E.01894
G1 X143.352 Y187.427 E.01856
G1 X142.961 Y187.525 E.01768
G1 E-.8 F3600
G1 X145.37 Y68.102 F18000
G1 E.8 F3600
;TYPE:Bottom surface
;WIDTH:0.501304
G1 F3000
G1 X146.077 Y68.81 E.04401
G1 X146.077 Y69.446 E.02798
G1 X144.935 Y68.304 E.07103
G1 X144.299 Y68.304 E.02798
G1 X146.077 Y70.082 E.11059
G1 X146.077 Y70.718 E.02798
G1 X143.663 Y68.304 E.15016
G1 X143.027 Y68.304 E.02798
G1 X146.077 Y71.354 E.18973
G1 X146.077 Y71.99 E.02798
G1 X142.391 Y68.304 E.2293
G1 X141.755 Y68.304 E.02798
G1 X146.077 Y72.627 E.26886
G1 X146.077 Y73.263 E.02798
G1 X141.119 Y68.304 E.30843
G1 X140.483 Y68.304 E.02798
G1 X146.077 Y73.899 E.348
G1 X146.077 Y74.535 E.02798
G1 X139.847 Y68.304 E.38757
G1 X139.21 Y68.304 E.02798
G1 X146.077 Y75.171 E.42714
G1 X146.077 Y75.807 E.02798
G1 X138.574 Y68.304 E.4667
G1 X137.938 Y68.304 E.02798
G1 X146.077 Y76.443 E.50627
G1 X146.077 Y77.079 E.02798
G1 X137.302 Y68.304 E.54584
G1 X136.666 Y68.304 E.02798
G1 X146.077 Y77.716 E.58541
G1 X146.077 Y78.352 E.02798
G1 X136.03 Y68.304 E.62497
G1 X135.394 Y68.304 E.02798
G1 X146.077 Y78.988 E.66454
G1 X146.077 Y79.624 E.02798
G1 X134.758 Y68.304 E.70411
G1 X134.122 Y68.304 E.02798
G1 X146.077 Y80.26 E.74368
G1 X146.077 Y80.896 E.02798
G1 X133.485 Y68.304 E.78324
G1 X132.849 Y68.304 E.02798
G1 X146.077 Y81.532 E.82281
G1 X146.077 Y82.168 E.02798
G1 X132.213 Y68.304 E.86238
G1 X131.577 Y68.304 E.02798
G1 X146.077 Y82.804 E.90195
G1 X146.077 Y83.441 E.02798
G1 X130.941 Y68.304 E.94151
G1 X130.305 Y68.304 E.02798
G1 X146.077 Y84.077 E.98108
G1 X146.077 Y84.713 E.02798
G1 X129.669 Y68.304 E1.02065
G1 X129.033 Y68.304 E.02798
G1 X146.077 Y85.349 E1.06022
G1 X146.077 Y85.985 E.02798
G1 X128.396 Y68.304 E1.09979
G1 X127.76 Y68.304 E.02798
G1 X146.077 Y86.621 E1.13935
G1 X146.077 Y87.257 E.02798
G1 X127.124 Y68.304 E1.17892
G1 X126.488 Y68.304 E.02798
G1 X146.077 Y87.893 E1.21849
G1 X146.077 Y88.529 E.02798
G1 X125.852 Y68.304 E1.25806
G1 X125.216 Y68.304 E.02798
G1 X146.077 Y89.166 E1.29762
G1 X146.077 Y89.802 E.02798
G1 X124.58 Y68.304 E1.33719
G1 X123.944 Y68.304 E.02798
G1 X146.077 Y90.438 E1.37676
G1 X146.077 Y91.074 E.02798
G1 X123.308 Y68.304 E1.41633
G1 X122.671 Y68.304 E.02798
G1 X146.077 Y91.71 E1.45589
G1 X146.077 Y92.346 E.02798
G1 X122.035 Y68.304 E1.49546
G1 X121.399 Y68.304 E.02798
G1 X146.077 Y92.982 E1.53503
G1 X146.077 Y93.618 E.02798
G1 X120.763 Y68.304 E1.5746
G1 X120.127 Y68.304 E.02798
G1 X146.077 Y94.254 E1.61416
G1 X146.077 Y94.891 E.02798
G1 X119.491 Y68.304 E1.65373
G1 X118.855 Y68.304 E.02798
G1 X146.077 Y95.527 E1.6933
G1 X146.077 Y96.163 E.02798
G1 X118.219 Y68.304 E1.73287
G1 X117.583 Y68.304 E.02798
G1 X146.077 Y96.799 E1.77244
G1 X146.077 Y97.435 E.02798
G1 X116.946 Y68.304 E1.812
G1 X116.31 Y68.304 E.02798
G1 X146.077 Y98.071 E1.85157
G1 X146.077 Y98.707 E.02798
G1 X115.674 Y68.304 E1.89114
G1 X115.038 Y68.304 E.02798
G1 X146.077 Y99.343 E1.93071
G1 X146.077 Y99.979 E.02798
G1 X114.402 Y68.304 E1.97027
G1 X113.766 Y68.304 E.02798
G1 X146.077 Y100.616 E2.00984
G1 X146.077 Y101.252 E.02798
G1 X113.13 Y68.304 E2.04941
G1 X112.494 Y68.304 E.02798
G1 X146.077 Y101.888 E2.08898
G1 X146.077 Y102.524 E.02798
G1 X111.858 Y68.304 E2.12854
G1 X111.221 Y68.304 E.02798
G1 X146.077 Y103.16 E2.16811
G1 X146.077 Y103.796 E.02798
G1 X110.585 Y68.304 E2.20768
G1 X109.949 Y68.304 E.02798
G1 X146.077 Y104.432 E2.24725
G1 X146.077 Y105.068 E.02798
G1 X109.313 Y68.304 E2.28681
G1 X108.677 Y68.304 E.02798
G1 X146.077 Y105.705 E2.32638
G1 X146.077 Y106.341 E.02798
G1 X108.041 Y68.304 E2.36595
G1 X107.405 Y68.304 E.02798
G1 X146.077 Y106.977 E2.40552
G1 X146.077 Y107.613 E.02798
G1 X106.769 Y68.304 E2.44509
G1 X106.133 Y68.304 E.02798
G1 X146.077 Y108.249 E2.48465
G1 X146.077 Y108.885 E.02798
G1 X105.496 Y68.304 E2.52422
G1 X104.86 Y68.304 E.02798
G1 X146.077 Y109.521 E2.56379
G1 X146.077 Y110.157 E.02798
G1 X104.224 Y68.304 E2.60336
G1 X103.588 Y68.304 E.02798
G1 X146.077 Y110.793 E2.64292
G1 X146.077 Y111.43 E.02798
G1 X102.952 Y68.304 E2.68249
G1 X102.316 Y68.304 E.02798
G1 X146.077 Y112.066 E2.72206
G1 X146.077 Y112.702 E.02798
G1 X101.68 Y68.304 E2.76163
G1 X101.044 Y68.304 E.02798
G1 X146.077 Y113.338 E2.80119
G1 X146.077 Y113.974 E.02798
G1 X100.408 Y68.304 E2.84076
G1 X99.771 Y68.304 E.02798
G1 X146.077 Y114.61 E2.88033
G1 X146.077 Y115.246 E.02798
G1 X99.135 Y68.304 E2.9199
G1 X98.499 Y68.304 E.02798
G1 X146.077 Y115.882 E2.95946
G1 X146.077 Y116.518 E.02798
G1 X97.863 Y68.304 E2.99903
G1 X97.227 Y68.304 E.02798
G1 X146.077 Y117.155 E3.0386
G1 X146.077 Y117.791 E.02798
G1 X96.591 Y68.304 E3.07817
G1 X95.955 Y68.304 E.02798
G1 X146.077 Y118.427 E3.11774
G1 X146.077 Y119.063 E.02798
G1 X95.319 Y68.304 E3.1573
G1 X94.682 Y68.304 E.02798
G1 X146.077 Y119.699 E3.19687
G1 X146.077 Y120.335 E.02798
G1 X94.046 Y68.304 E3.23644
G1 X93.41 Y68.304 E.02798
G1 X146.077 Y120.971 E3.27601
G1 X146.077 Y121.607 E.02798
G1 X92.774 Y68.304 E3.31557
G1 X92.138 Y68.304 E.02798
G1 X146.077 Y122.243 E3.35514
G1 X146.077 Y122.88 E.02798
G1 X91.502 Y68.304 E3.39471
G1 X90.866 Y68.304 E.02798
G1 X146.077 Y123.516 E3.43428
G1 X146.077 Y124.152 E.02798
G1 X90.23 Y68.304 E3.47384
G1 X89.594 Y68.304 E.02798
G1 X146.077 Y124.788 E3.51341
G1 X146.077 Y125.424 E.02798
G1 X88.957 Y68.304 E3.55298
G1 X88.321 Y68.304 E.02798
G1 X146.077 Y126.06 E3.59255
G1 X146.077 Y126.696 E.02798
G1 X87.685 Y68.304 E3.63211
G1 X87.049 Y68.304 E.02798
G1 X146.077 Y127.332 E3.67168
G1 X146.077 Y127.968 E.02798
G1 X86.413 Y68.304 E3.71125
G1 X85.777 Y68.304 E.02798
G1 X146.077 Y128.605 E3.75082
G1 X146.077 Y129.241 E.02798
G1 X85.141 Y68.304 E3.79039
G1 X84.505 Y68.304 E.02798
G1 X146.077 Y129.877 E3.82995
G1 X146.077 Y130.513 E.02798
G1 X83.869 Y68.304 E3.86952
G1 X83.232 Y68.304 E.02798
G1 X146.077 Y131.149 E3.90909
G1 X146.077 Y131.785 E.02798
G1 X82.596 Y68.304 E3.94866
G1 X81.96 Y68.304 E.02798
G1 X146.077 Y132.421 E3.98822
G1 X146.077 Y133.057 E.02798
G1 X81.324 Y68.304 E4.02779
G1 X80.688 Y68.304 E.02798
G1 X146.077 Y133.693 E4.06736
G1 X146.077 Y134.33 E.02798
G1 X80.052 Y68.304 E4.10693
G1 X79.416 Y68.304 E.02798
G1 X146.077 Y134.966 E4.14649
G1 X146.077 Y135.602 E.02798
G1 X78.78 Y68.304 E4.18606
G1 X78.144 Y68.304 E.02798
G1 X146.077 Y136.238 E4.22563
G1 X146.077 Y136.874 E.02798
G1 X77.507 Y68.304 E4.2652
G1 X76.871 Y68.304 E.02798
G1 X146.077 Y137.51 E4.30476
G1 X146.077 Y138.146 E.02798
G1 X76.235 Y68.304 E4.34433
G1 X75.599 Y68.304 E.02798
G1 X146.077 Y138.782 E4.3839
G1 X146.077 Y139.419 E.02798
G1 X74.963 Y68.304 E4.42347
G1 X74.327 Y68.304 E.02798
G1 X146.077 Y140.055 E4.46304
G1 X146.077 Y140.691 E.02798
G1 X73.927 Y68.541 E4.48788
G1 X73.927 Y69.177 E.02798
G1 X146.077 Y141.327 E4.48788
G1 X146.077 Y141.963 E.02798
G1 X73.927 Y69.813 E4.48788
G1 X73.927 Y70.449 E.02798
G1 X146.077 Y142.599 E4.48789
G1 X146.077 Y143.235 E.02798
G1 X73.927 Y71.085 E4.48789
G1 X73.927 Y71.721 E.02798
G1 X146.077 Y143.871 E4.48789
G1 X146.077 Y144.507 E.02798
G1 X73.927 Y72.357 E4.48789
G1 X73.927 Y72.993 E.02798
G1 X146.077 Y145.144 E4.48789
G1 X146.077 Y145.78 E.02798
G1 X73.927 Y73.63 E4.48789
G1 X73.927 Y74.266 E.02798
G1 X146.077 Y146.416 E4.4879
G1 X146.077 Y147.052 E.02798
G1 X73.927 Y74.902 E4.4879
G1 X73.927 Y75.538 E.02798
G1 X146.077 Y147.688 E4.4879
G1 X146.077 Y148.324 E.02798
G1 X73.927 Y76.174 E4.4879
G1 X73.927 Y76.81 E.02798
G1 X146.077 Y148.96 E4.4879
G1 X146.077 Y149.596 E.02798
G1 X73.927 Y77.446 E4.4879
G1 X73.927 Y78.082 E.02798
G1 X146.077 Y150.232 E4.48791
