; Postprocessed by [ArcWelder](https://github.com/FormerLurker/ArcWelderLib)
; Copyright(C) 2021 - Brad Hochgesang
; Version: 1.2.0, Branch: master, BuildDate: 2021-11-21T20:04:00Z
; resolution=0.05mm
; path_tolerance=5.0%
; max_radius=9999.00mm
; default_xyz_precision=3
; default_e_precision=5
; extrusion_rate_variance=5.0%

; generated by AnycubicSlicer 1.4.4 on 2026-02-19 at 13:22:11 UTC




; 

; external perimeters extrusion width = 0.42mm
; perimeters extrusion width = 0.45mm
; infill extrusion width = 0.45mm
; solid infill extrusion width = 0.50mm
; top infill extrusion width = 0.42mm
; support material extrusion width = 0.42mm
; first layer extrusion width = 0.56mm

; external perimeters extrusion width = 0.42mm
; perimeters extrusion width = 0.45mm
; infill extrusion width = 0.45mm
; solid infill extrusion width = 0.50mm
; top infill extrusion width = 0.42mm
; support material extrusion width = 0.42mm
; first layer extrusion width = 0.56mm

; external perimeters extrusion width = 0.42mm
; perimeters extrusion width = 0.45mm
; infill extrusion width = 0.45mm
; solid infill extrusion width = 0.50mm
; top infill extrusion width = 0.42mm
; support material extrusion width = 0.42mm
; first layer extrusion width = 0.56mm

; external perimeters extrusion width = 0.42mm
; perimeters extrusion width = 0.45mm
; infill extrusion width = 0.45mm
; solid infill extrusion width = 0.50mm
; top infill extrusion width = 0.42mm
; support material extrusion width = 0.42mm
; first layer extrusion width = 0.56mm

M201 X2500 Y2500 Z800 E2500 ; sets maximum accelerations, mm/sec^2
M203 X250 Y250 Z8 E80 ; sets maximum feedrates, mm / sec
M204 S2500 T2500 ; sets acceleration (S) and retract acceleration (R), mm/sec^2
M205 X10.00 Y10.00 Z2.00 E10.00 ; sets the jerk limits, mm/sec
M205 S0 T0 ; sets the minimum extruding and travel feed rate, mm/sec
;TYPE:Custom
G90 ; use absolute coordinates
M83 ; extruder relative mode
M104 S215 ; set extruder temp
M140 S60 ; set bed temp
M190 S60 ; wait for bed temp
M109 S215 ; wait for extruder temp
G28                                        ; move X/Y/Z to min endstops
G1 Z0.28                                   ; lift nozzle a bit 
G92 E0 
G1 Y3 F1800                                    ; zero the extruded length 
G1 X60  E25 F500                       ; Extrude 25mm of filament in a 5cm line. 
G92 E0                                     ; zero the extruded length again 
G1 E-2 F500                                ; Retract a little 
G1 X70 F4000                              ; Quickly wipe away from the filament line
M117
G21 ; set units to millimeters
G90 ; use absolute coordinates
M82 ; use absolute distances for extrusion
G92 E0
M107
;LAYER_CHANGE
;Z:0.28
;HEIGHT:0.28
; BEFORE_LAYER_CHANGE 0 @ 0.28mm
G1 E-2 F4800
G92 E0
G1 Z.28 F7200
; AFTER_LAYER_CHANGE 0 @ 0.28mm
G1 X85.291 Y75.321
G1 E2 F4800
;TYPE:Skirt/Brim
;WIDTH:0.56
G1 F3000
G1 X87.308 Y74.542 E2.12583
G1 X157.644 Y74.56 E6.21903
G1 X159.168 Y74.806 E6.30887
G3 X160.640 Y75.398 I-1.835 J6.688 E6.40135
G1 X161.924 Y76.293 E6.49243
G1 X162.557 Y76.926 E6.54453
G1 X163.452 Y78.21 E6.63561
G1 X164.035 Y79.649 E6.72596
G1 X164.288 Y81.196 E6.81718
G1 X164.289 Y133.877 E9.88295
G1 X164.06 Y135.362 E9.97039
G1 X153.032 Y169.142 E12.03832
G1 X152.197 Y170.432 E12.12775
G1 X150.18 Y171.211 E12.25358
G1 X80.18 Y171.211 E16.32723
G1 X78.954 Y171.092 E16.39891
G1 X77.454 Y170.647 E16.48996
G1 X76.09 Y169.879 E16.58106
G1 X75.565 Y169.46 E16.62015
G1 X74.513 Y168.301 E16.71124
G1 X73.745 Y166.938 E16.80228
G1 X73.305 Y165.458 E16.89213
G1 X73.18 Y164.211 E16.96506
G1 X73.199 Y111.876 E20.01069
G1 X73.429 Y110.39 E20.0982
G1 X84.457 Y76.61 E22.16613
G1 X85.259 Y75.371 E22.25202
G1 X85.685 Y75.663 F7200
G1 F3000
G1 X85.722 Y75.61 E22.25578
G1 X87.308 Y75.041 E22.35384
G1 X157.588 Y75.057 E26.44378
G1 X159.004 Y75.278 E26.52718
G3 X160.374 Y75.821 I-1.673 J6.220 E26.61308
G1 X161.57 Y76.646 E26.69763
G1 X162.203 Y77.28 E26.74977
G1 X163.029 Y78.476 E26.83436
G1 X163.564 Y79.814 E26.91822
G1 X163.792 Y81.254 E27.00306
G1 X163.793 Y133.821 E30.06219
G1 X163.585 Y135.207 E30.14375
G1 X152.557 Y168.987 E32.21168
G1 X151.767 Y170.143 E32.29316
G1 X150.18 Y170.711 E32.39125
G1 X80.18 Y170.711 E36.4649
G1 X79.01 Y170.595 E36.53332
G1 X77.619 Y170.175 E36.61788
G1 X76.356 Y169.455 E36.70248
G1 X75.919 Y169.106 E36.73503
G1 X74.936 Y168.035 E36.81963
G1 X74.217 Y166.773 E36.90416
G1 X73.801 Y165.401 E36.98759
G1 X73.68 Y164.211 E37.0572
G1 X73.696 Y111.931 E40.09963
G1 X73.904 Y110.545 E40.18119
G1 X84.932 Y76.766 E42.24907
G1 X85.652 Y75.712 E42.32335
G1 E40.92335 F4800
;WIPE_START
G1 F5760
G1 X85.722 Y75.61 E40.82541
G1 X86.319 Y75.396 E40.32335
;WIPE_END
G92 E0
G1 X156.588 Y82.261 F7200
G1 E2 F4800
;TYPE:External perimeter
G1 F3000
G1 X140.424 Y82.261 E2.94066
G1 X136.588 Y78.425 E3.25636
G1 X136.588 Y77.821 E3.29151
G1 X157.293 Y77.821 E4.49644
G3 X161.028 Y81.558 I-0.002 J3.737 E4.83744
G1 X161.028 Y133.526 E7.86171
G3 X157.293 Y137.261 I-3.723 J0.012 E8.20266
G1 X136.588 Y137.261 E9.40759
G1 X136.588 Y136.657 E9.44274
G1 X140.424 Y132.821 E9.75844
G1 X156.588 Y132.821 E10.6991
G1 X156.588 Y82.321 E13.63794
G1 X156.63 Y81.864 F7200
G1 X157.088 Y81.761
;TYPE:Perimeter
G1 F3000
G1 X140.631 Y81.761 E14.59565
G1 X137.191 Y78.321 E14.87876
G1 X157.265 Y78.321 E16.04697
G3 X160.528 Y81.586 I0.009 J3.254 E16.34538
G1 X160.528 Y133.498 E19.3664
G3 X157.265 Y136.761 I-3.231 J0.032 E19.66477
G1 X137.191 Y136.761 E20.83298
G1 X140.631 Y133.321 E21.11609
G1 X157.088 Y133.321 E22.0738
G1 X157.088 Y81.821 E25.07084
G1 X157.588 Y81.262 F7200
G1 F3000
G1 X140.838 Y81.262 E26.04561
G1 X138.398 Y78.821 E26.24646
G1 X157.236 Y78.821 E27.34274
G3 X160.029 Y81.615 I0.052 J2.741 E27.59866
G1 X160.029 Y133.47 E30.61636
G3 X157.236 Y136.262 I-2.743 J0.049 E30.87218
G1 X138.398 Y136.262 E31.96846
G1 X140.838 Y133.821 E32.16931
G1 X157.588 Y133.821 E33.14408
G1 X157.588 Y81.322 E36.19926
G1 E34.79926 F4800
;WIPE_START
G1 F5760
G1 X156.83 Y81.319 E34.19926
;WIPE_END
G92 E0
G1 X158.181 Y79.205 F7200
G1 E2 F4800
;TYPE:Solid infill
;WIDTH:0.56159
G1 F3000
G1 X159.096 Y80.12 E2.07554
G3 X159.564 Y81.297 I-1.469 J1.266 E2.15056
G1 X157.551 Y79.284 E2.31676
G2 X156.804 Y79.246 I-0.543 J3.303 E2.36050
G1 X159.604 Y82.046 E2.59167
G1 X159.604 Y82.755 E2.63306
G1 X156.095 Y79.246 E2.92277
G1 X155.385 Y79.246 E2.96422
G1 X156.976 Y80.837 E3.09558
G1 X156.267 Y80.837 E3.13697
G1 X154.676 Y79.246 E3.26833
G1 X153.967 Y79.246 E3.30972
G1 X155.557 Y80.837 E3.44103
G1 X154.848 Y80.837 E3.48242
G1 X153.258 Y79.246 E3.61373
G1 X152.548 Y79.246 E3.65518
G1 X154.139 Y80.837 E3.78654
G1 X153.43 Y80.837 E3.82793
G1 X151.839 Y79.246 E3.95929
G1 X151.13 Y79.246 E4.00068
G1 X152.721 Y80.837 E4.13204
G1 X152.011 Y80.837 E4.17349
G1 X150.421 Y79.246 E4.3048
G1 X149.712 Y79.246 E4.34619
G1 X151.302 Y80.837 E4.4775
G1 X150.593 Y80.837 E4.51889
G1 X149.002 Y79.246 E4.65025
G1 X148.293 Y79.246 E4.69164
G1 X149.884 Y80.837 E4.823
G1 X149.174 Y80.837 E4.86445
G1 X147.584 Y79.246 E4.99576
G1 X146.875 Y79.246 E5.03715
G1 X148.465 Y80.837 E5.16846
G1 X147.756 Y80.837 E5.20985
G1 X146.165 Y79.246 E5.34121
G1 X145.456 Y79.246 E5.3826
G1 X147.047 Y80.837 E5.51396
G1 X146.337 Y80.837 E5.55541
G1 X144.747 Y79.246 E5.68672
G1 X144.038 Y79.246 E5.72811
G1 X145.628 Y80.837 E5.85942
G1 X144.919 Y80.837 E5.90081
G1 X143.329 Y79.246 E6.03212
G1 X142.619 Y79.246 E6.07357
G1 X144.21 Y80.837 E6.20493
G1 X143.501 Y80.837 E6.24632
G1 X141.91 Y79.246 E6.37768
G1 X141.201 Y79.246 E6.41907
G1 X142.791 Y80.837 E6.55038
G1 X142.082 Y80.837 E6.59177
G1 X140.492 Y79.246 E6.72308
G1 X139.782 Y79.246 E6.76453
G1 X141.598 Y81.062 E6.91446
G1 E5.51446 F4800
;WIPE_START
G1 F5760
G1 X141.062 Y80.526 E4.91446
;WIPE_END
G92 E0
G1 X157.788 Y81.649 F7200
G1 E2 F4800
G1 F3000
G1 X159.604 Y83.464 E2.14989
G1 X159.604 Y84.174 E2.19134
G1 X158.013 Y82.583 E2.3227
G1 X158.013 Y83.292 E2.36409
G1 X159.604 Y84.883 E2.49545
G1 X159.604 Y85.592 E2.53684
G1 X158.013 Y84.002 E2.66815
G1 X158.013 Y84.711 E2.70954
G1 X159.604 Y86.301 E2.84085
G1 X159.604 Y87.011 E2.8823
G1 X158.013 Y85.42 E3.01366
G1 X158.013 Y86.129 E3.05505
G1 X159.604 Y87.72 E3.18641
G1 X159.604 Y88.429 E3.2278
G1 X158.013 Y86.838 E3.35916
G1 X158.013 Y87.548 E3.40061
G1 X159.604 Y89.138 E3.53192
G1 X159.604 Y89.847 E3.57331
G1 X158.013 Y88.257 E3.70462
G1 X158.013 Y88.966 E3.74601
G1 X159.604 Y90.557 E3.87737
G1 X159.604 Y91.266 E3.91876
G1 X158.013 Y89.675 E4.05012
G1 X158.013 Y90.385 E4.09157
G1 X159.604 Y91.975 E4.22288
G1 X159.604 Y92.684 E4.26427
G1 X158.013 Y91.094 E4.39558
G1 X158.013 Y91.803 E4.43697
G1 X159.604 Y93.394 E4.56833
G1 X159.604 Y94.103 E4.60972
G1 X158.013 Y92.512 E4.74108
G1 X158.013 Y93.222 E4.78253
G1 X159.604 Y94.812 E4.91384
G1 X159.604 Y95.521 E4.95523
G1 X158.013 Y93.931 E5.08654
G1 X158.013 Y94.64 E5.12793
G1 X159.604 Y96.23 E5.25924
G1 X159.604 Y96.94 E5.30069
G1 X158.013 Y95.349 E5.43205
G1 X158.013 Y96.058 E5.47344
G1 X159.604 Y97.649 E5.6048
G1 X159.604 Y98.358 E5.64619
G1 X158.013 Y96.768 E5.7775
G1 X158.013 Y97.477 E5.81889
G1 X159.604 Y99.067 E5.9502
G1 X159.604 Y99.777 E5.99165
G1 X158.013 Y98.186 E6.12301
G1 X158.013 Y98.895 E6.1644
G1 X159.604 Y100.486 E6.29576
G1 X159.604 Y101.195 E6.33715
G1 X158.013 Y99.605 E6.46846
G1 X158.013 Y100.314 E6.50985
G1 X159.604 Y101.904 E6.64116
G1 X159.604 Y102.614 E6.68261
G1 X158.013 Y101.023 E6.81397
G1 X158.013 Y101.732 E6.85536
G1 X159.604 Y103.323 E6.98672
G1 X159.604 Y104.032 E7.02811
G1 X158.013 Y102.442 E7.15942
G1 X158.013 Y103.151 E7.20081
G1 X159.604 Y104.741 E7.33212
G1 X159.604 Y105.45 E7.37351
G1 X158.013 Y103.86 E7.50482
G1 X158.013 Y104.569 E7.54621
G1 X159.604 Y106.16 E7.67757
G1 X159.604 Y106.869 E7.71896
G1 X158.013 Y105.278 E7.85032
G1 X158.013 Y105.988 E7.89177
G1 X159.604 Y107.578 E8.02308
G1 X159.604 Y108.287 E8.06447
G1 X158.013 Y106.697 E8.19578
G1 X158.013 Y107.406 E8.23717
G1 X159.604 Y108.997 E8.36853
G1 X159.604 Y109.706 E8.40992
G1 X158.013 Y108.115 E8.54128
G1 X158.013 Y108.825 E8.58273
G1 X159.604 Y110.415 E8.71404
G1 X159.604 Y111.124 E8.75543
G1 X158.013 Y109.534 E8.88674
G1 X158.013 Y110.243 E8.92813
G1 X159.604 Y111.834 E9.05949
G1 X159.604 Y112.543 E9.10088
G1 X158.013 Y110.952 E9.23224
G1 X158.013 Y111.661 E9.27363
G1 X159.604 Y113.252 E9.40499
G1 X159.604 Y113.961 E9.44638
G1 X158.013 Y112.371 E9.57769
G1 X158.013 Y113.08 E9.61908
G1 X159.604 Y114.67 E9.75039
G1 X159.604 Y115.38 E9.79184
G1 X158.013 Y113.789 E9.9232
G1 X158.013 Y114.498 E9.96459
G1 X159.604 Y116.089 E10.09595
G1 X159.604 Y116.798 E10.13734
G1 X158.013 Y115.208 E10.26865
G1 X158.013 Y115.917 E10.31004
G1 X159.604 Y117.507 E10.44135
G1 X159.604 Y118.217 E10.4828
G1 X158.013 Y116.626 E10.61416
G1 X158.013 Y117.335 E10.65555
G1 X159.604 Y118.926 E10.78691
G1 X159.604 Y119.635 E10.8283
G1 X158.013 Y118.045 E10.95961
G1 X158.013 Y118.754 E11.001
G1 X159.604 Y120.344 E11.13231
G1 X159.604 Y121.054 E11.17376
G1 X158.013 Y119.463 E11.30512
G1 X158.013 Y120.172 E11.34651
G1 X159.604 Y121.763 E11.47787
G1 X159.604 Y122.472 E11.51926
G1 X158.013 Y120.881 E11.65062
G1 X158.013 Y121.591 E11.69207
G1 X159.604 Y123.181 E11.82338
G1 X159.604 Y123.89 E11.86477
G1 X158.013 Y122.3 E11.99608
G1 X158.013 Y123.009 E12.03747
G1 X159.604 Y124.6 E12.16883
G1 X159.604 Y125.309 E12.21022
G1 X158.013 Y123.718 E12.34158
G1 X158.013 Y124.428 E12.38303
G1 X159.604 Y126.018 E12.51434
G1 X159.604 Y126.727 E12.55573
G1 X158.013 Y125.137 E12.68704
G1 X158.013 Y125.846 E12.72843
G1 X159.604 Y127.437 E12.85979
G1 X159.604 Y128.146 E12.90118
G1 X158.013 Y126.555 E13.03254
G1 X158.013 Y127.265 E13.07399
G1 X159.604 Y128.855 E13.2053
G1 X159.604 Y129.564 E13.24669
G1 X158.013 Y127.974 E13.378
G1 X158.013 Y128.683 E13.41939
G1 X159.604 Y130.274 E13.55075
G1 X159.604 Y130.983 E13.59214
G1 X158.013 Y129.392 E13.7235
G1 X158.013 Y130.101 E13.76489
G1 X159.604 Y131.692 E13.89625
G1 X159.604 Y132.401 E13.93764
G1 X158.013 Y130.811 E14.06895
G1 X158.013 Y131.52 E14.11034
G1 X159.604 Y133.11 E14.24165
G3 X159.566 Y133.782 I-2.990 J0.168 E14.28101
G1 X158.013 Y132.229 E14.40923
G1 X158.013 Y132.938 E14.45062
G1 X159.429 Y134.354 E14.56753
G3 X159.186 Y134.820 I-1.120 J-0.288 E14.59840
G1 X158.013 Y133.648 E14.6952
G1 X158.013 Y134.246 E14.73011
G1 X157.902 Y134.246 E14.73659
G1 X158.858 Y135.202 E14.81552
G3 X158.451 Y135.504 I-0.864 J-0.739 E14.84528
G1 X157.193 Y134.246 E14.94914
G1 X156.484 Y134.246 E14.99053
G1 X157.957 Y135.719 E15.11214
G3 X157.350 Y135.821 I-0.519 J-1.233 E15.14825
G1 X155.775 Y134.246 E15.27828
G1 X155.066 Y134.246 E15.31967
G1 X156.656 Y135.837 E15.45098
G1 X155.947 Y135.837 E15.49237
G1 X154.356 Y134.246 E15.62373
G1 X153.647 Y134.246 E15.66512
G1 X155.238 Y135.837 E15.79648
G1 X154.528 Y135.837 E15.83793
G1 X152.938 Y134.246 E15.96924
G1 X152.229 Y134.246 E16.01063
G1 X153.819 Y135.837 E16.14194
G1 X153.11 Y135.837 E16.18333
G1 X151.519 Y134.246 E16.31469
G1 X150.81 Y134.246 E16.35608
G1 X152.401 Y135.837 E16.48744
G1 X151.691 Y135.837 E16.52889
G1 X150.101 Y134.246 E16.6602
G1 X149.392 Y134.246 E16.70159
G1 X150.982 Y135.837 E16.8329
G1 X150.273 Y135.837 E16.87429
G1 X148.682 Y134.246 E17.00565
G1 X147.973 Y134.246 E17.04704
G1 X149.564 Y135.837 E17.1784
G1 X148.854 Y135.837 E17.21985
G1 X147.264 Y134.246 E17.35116
G1 X146.555 Y134.246 E17.39255
G1 X148.145 Y135.837 E17.52386
G1 X147.436 Y135.837 E17.56525
G1 X145.846 Y134.246 E17.69656
G1 X145.136 Y134.246 E17.73801
G1 X146.727 Y135.837 E17.86937
G1 X146.018 Y135.837 E17.91076
G1 X144.427 Y134.246 E18.04212
G1 X143.718 Y134.246 E18.08351
G1 X145.308 Y135.837 E18.21482
G1 X144.599 Y135.837 E18.25621
G1 X143.009 Y134.246 E18.38752
G1 X142.299 Y134.246 E18.42897
G1 X143.89 Y135.837 E18.56033
G1 X143.181 Y135.837 E18.60172
G1 X141.59 Y134.246 E18.73308
G1 X141.014 Y134.246 E18.76671
G1 X140.948 Y134.313 E18.7722
G1 X142.471 Y135.837 E18.89798
G1 X141.762 Y135.837 E18.93937
G1 X140.593 Y134.668 E19.03588
G1 X140.238 Y135.022 E19.06515
G1 X141.053 Y135.837 E19.13244
G1 X140.344 Y135.837 E19.17383
G1 X139.884 Y135.377 E19.21181
G1 X139.529 Y135.731 E19.24108
G1 X139.859 Y136.062 E19.26837
G1 E17.86837 F4800
;WIPE_START
G1 F5760
G1 X139.529 Y135.731 E17.49835
G1 X139.735 Y135.526 E17.26837
;WIPE_END
G92 E0
G1 X129.9 Y112.931 F7200
G1 E2 F4800
;TYPE:External perimeter
;WIDTH:0.56
G1 F3000
G1 X129.9 Y163.491 E4.94234
G1 X146.064 Y163.491 E5.883
G1 X149.9 Y167.327 E6.1987
G1 X149.9 Y167.931 E6.23385
G1 X129.196 Y167.931 E7.43872
G3 X125.460 Y164.195 I-0.001 J-3.735 E7.77975
G1 X125.46 Y112.227 E10.80402
G3 X129.196 Y108.491 I3.729 J-0.007 E11.14504
G1 X149.9 Y108.491 E12.34991
G1 X149.9 Y109.095 E12.38506
G1 X146.064 Y112.931 E12.70076
G1 X129.96 Y112.931 E13.63793
G1 X129.501 Y112.957 F7200
G1 X129.4 Y112.431
;TYPE:Perimeter
G1 F3000
G1 X129.4 Y163.991 E16.63846
G1 X145.857 Y163.991 E17.59617
G1 X149.297 Y167.431 E17.87928
G1 X129.224 Y167.431 E19.04743
G3 X125.960 Y164.166 I-0.016 J-3.248 E19.34593
G1 X125.96 Y112.255 E22.36689
G3 X129.224 Y108.991 I3.237 J-0.027 E22.66528
G1 X149.297 Y108.991 E23.83343
G1 X145.857 Y112.431 E24.11654
G1 X129.46 Y112.431 E25.07076
G1 X128.9 Y111.932 F7200
G1 F3000
G1 X128.9 Y164.491 E28.12943
G1 X145.65 Y164.491 E29.1042
G1 X148.09 Y166.932 E29.30505
G1 X129.252 Y166.932 E30.40133
G3 X126.460 Y164.138 I-0.049 J-2.743 E30.65721
G1 X126.46 Y112.283 E33.67491
G3 X129.252 Y109.491 I2.744 J-0.048 E33.93070
G1 X148.09 Y109.491 E35.02698
G1 X145.65 Y111.932 E35.22783
G1 X128.96 Y111.932 E36.1991
G1 E34.7991 F4800
;WIPE_START
G1 F5760
G1 X128.959 Y112.69 E34.1991
;WIPE_END
G92 E0
G1 X146.629 Y109.691 F7200
G1 E2 F4800
;TYPE:Solid infill
;WIDTH:0.56159
G1 F3000
G1 X146.959 Y110.021 E2.02725
G1 X146.605 Y110.376 E2.05652
G1 X146.145 Y109.916 E2.0945
G1 X145.436 Y109.916 E2.13589
G1 X146.25 Y110.731 E2.20314
G1 X145.896 Y111.085 E2.23237
G1 X144.726 Y109.916 E2.32893
G1 X144.017 Y109.916 E2.37032
G1 X145.541 Y111.44 E2.49614
G1 X145.474 Y111.507 E2.50167
G1 X144.898 Y111.507 E2.5353
G1 X143.308 Y109.916 E2.66661
G1 X142.599 Y109.916 E2.708
