; Postprocessed by [ArcWelder](https://github.com/FormerLurker/ArcWelderLib)
; Copyright(C) 2021 - Brad Hochgesang
; Version: 1.2.0, Branch: master, BuildDate: 2021-11-21T20:04:00Z
; resolution=0.05mm
; path_tolerance=5.0%
; max_radius=9999.00mm
; default_xyz_precision=3
; default_e_precision=5
; extrusion_rate_variance=5.0%

; generated by AnycubicSlicer 1.4.4 on 2025-06-28 at 11:57:42 UTC




; 

; external perimeters extrusion width = 0.42mm
; perimeters extrusion width = 0.45mm
; infill extrusion width = 0.45mm
; solid infill extrusion width = 0.50mm
; top infill extrusion width = 0.42mm
; first layer extrusion width = 0.56mm

M201 X2500 Y2500 Z800 E2500 ; sets maximum accelerations, mm/sec^2
M203 X250 Y250 Z8 E80 ; sets maximum feedrates, mm / sec
M204 S2500 T2500 ; sets acceleration (S) and retract acceleration (R), mm/sec^2
M205 X10.00 Y10.00 Z2.00 E10.00 ; sets the jerk limits, mm/sec
M205 S0 T0 ; sets the minimum extruding and travel feed rate, mm/sec
;TYPE:Custom
G90 ; use absolute coordinates
M83 ; extruder relative mode
M104 S215 ; set extruder temp
M140 S60 ; set bed temp
M190 S60 ; wait for bed temp
M109 S215 ; wait for extruder temp
G28                                        ; move X/Y/Z to min endstops
G1 Z0.28                                   ; lift nozzle a bit 
G92 E0 
G1 Y3 F1800                                    ; zero the extruded length 
G1 X60  E25 F500                       ; Extrude 25mm of filament in a 5cm line. 
G92 E0                                     ; zero the extruded length again 
G1 E-2 F500                                ; Retract a little 
G1 X70 F4000                              ; Quickly wipe away from the filament line
M117
G21 ; set units to millimeters
G90 ; use absolute coordinates
M82 ; use absolute distances for extrusion
G92 E0
M107
;LAYER_CHANGE
;Z:0.28
;HEIGHT:0.28
; BEFORE_LAYER_CHANGE 0 @ 0.28mm
G1 E-2 F4800
G92 E0
G1 Z.28 F7200
; AFTER_LAYER_CHANGE 0 @ 0.28mm
G1 X79.283 Y104.375
G1 E2 F4800
;TYPE:Skirt/Brim
;WIDTH:0.56
G1 F3000
G1 X79.841 Y104.014 E2.03868
G1 X80.462 Y103.723 E2.07859
G1 X81.097 Y103.506 E2.11764
G1 X81.329 Y103.376 E2.13312
G1 X92.343 Y95.518 E2.92049
G1 X92.861 Y95.169 E2.95684
G1 X93.467 Y94.807 E2.99792
G1 X94.157 Y94.451 E3.0431
G1 X95.141 Y94.032 E3.10534
G1 X95.852 Y93.789 E3.14907
G1 X96.49 Y93.612 E3.1876
G1 X97.139 Y93.469 E3.22627
G1 X97.841 Y93.356 E3.26765
G1 X98.555 Y93.283 E3.30942
G1 X99.228 Y93.253 E3.34862
G1 X99.895 Y93.259 E3.38744
G1 X100.609 Y93.307 E3.42908
G1 X101.63 Y93.449 E3.48907
G1 X102.416 Y93.617 E3.53584
G1 X103.065 Y93.798 E3.57505
G1 X103.715 Y94.02 E3.61502
G1 X104.325 Y94.266 E3.6533
G1 X104.922 Y94.545 E3.69165
G1 X105.504 Y94.855 E3.73002
G1 X106.373 Y95.382 E3.78916
G1 X106.642 Y95.525 E3.80689
G1 X107.268 Y95.799 E3.84666
G1 X107.604 Y95.915 E3.86735
G1 X108.267 Y96.08 E3.90711
G1 X108.899 Y96.169 E3.94425
G2 X111.615 Y95.803 I0.544 J-6.225 E4.10496
G1 X123.609 Y91.438 E4.84774
G3 X126.418 Y90.443 I52.385 J143.427 E5.02146
G1 X126.578 Y90.357 E5.03203
G1 X128.871 Y89.523 E5.17402
G2 X129.216 Y89.396 I-0.046 J-0.657 E5.19563
G1 X131.514 Y88.569 E5.33776
G2 X132.060 Y88.404 I-0.106 J-1.337 E5.37114
G3 X138.295 Y88.229 I3.445 J11.587 E5.73833
G2 X138.918 Y88.420 I0.960 J-2.020 E5.77635
G3 X141.465 Y89.745 I-3.230 J9.319 E5.94393
G1 X142.098 Y90.395 E5.99673
G3 X141.525 Y94.834 I-2.633 J1.917 E6.28363
G1 X140.716 Y95.32 E6.33855
G1 X125.003 Y101.045 E7.31177
G2 X124.535 Y101.835 I0.289 J0.705 E7.36869
G3 X115.799 Y107.325 I-5.726 J0.584 E8.11260
G2 X115.791 Y112.678 I-1.356 J2.674 E8.82278
G3 X124.541 Y118.306 I3.008 J4.940 E9.57546
G2 X125.126 Y119.006 I0.793 J-0.068 E9.63190
G1 X140.78 Y124.711 E10.6015
G1 X141.484 Y125.135 E10.64933
G3 X142.718 Y127.966 I-2.025 J2.567 E10.83622
G1 X142.516 Y128.833 E10.88803
G1 X142.197 Y129.46 E10.92897
G1 X141.587 Y130.16 E10.983
G3 X138.612 Y131.649 I-5.361 J-6.995 E11.17786
G3 X135.091 Y132.068 I-2.783 J-8.383 E11.38588
G3 X131.811 Y131.489 I0.172 J-10.554 E11.58076
G1 X131.525 Y131.435 E11.5977
G1 X129.216 Y130.604 E11.74051
G2 X128.871 Y130.477 I-0.391 J0.530 E11.76212
G1 X126.578 Y129.643 E11.90411
G2 X126.240 Y129.520 I-0.376 J0.508 E11.92526
G1 X123.947 Y128.685 E12.06727
G2 X123.609 Y128.562 I-0.388 J0.539 E12.08840
G1 X111.615 Y124.197 E12.83118
G2 X106.638 Y124.477 I-2.168 J5.830 E13.12951
G3 X100.370 Y126.714 I-7.541 J-11.230 E13.52102
G3 X92.343 Y124.482 I-0.925 J-12.223 E14.01562
G1 X81.329 Y116.624 E14.80299
G1 X81.093 Y116.492 E14.81873
G3 X77.276 Y111.914 I1.211 J-4.890 E15.18948
G1 X77.404 Y110.826 E15.25323
G1 X77.744 Y109.969 E15.30688
G1 X77.552 Y109.619 E15.33011
G1 X77.328 Y108.831 E15.37778
G1 X77.308 Y107.69 E15.44419
G3 X79.239 Y104.415 I4.929 J0.699 E15.67105
G1 X79.57 Y104.789 F7200
G1 F3000
G3 X81.301 Y103.965 I3.108 J4.299 E15.78323
G1 X81.597 Y103.798 E15.80301
G1 X92.63 Y95.927 E16.59172
G3 X106.126 Y95.816 I6.828 J9.622 E17.42755
G2 X111.773 Y96.278 I3.320 J-5.838 E17.76777
G1 X123.759 Y91.915 E18.51007
G2 X124.139 Y91.777 I-0.016 J-0.637 E18.53390
G1 X126.39 Y90.958 E18.6733
G2 X126.770 Y90.819 I-0.021 J-0.647 E18.69715
G1 X129.021 Y90 E18.83655
G2 X129.407 Y89.859 I-0.023 J-0.662 E18.86076
G1 X131.662 Y89.047 E19.00024
G2 X132.203 Y88.883 I-0.061 J-1.174 E19.03338
G3 X138.167 Y88.713 I3.301 J11.119 E19.38460
G2 X138.759 Y88.894 I0.826 J-1.644 E19.42076
G3 X141.173 Y90.152 I-3.090 J8.875 E19.57966
G3 X141.906 Y91.023 I-1.757 J2.222 E19.64621
G3 X141.202 Y94.452 I-2.441 J1.286 E19.86660
G1 X140.523 Y94.858 E19.91264
G1 X124.793 Y100.589 E20.88691
G2 X124.035 Y101.829 I0.513 J1.165 E20.97673
G3 X116.007 Y106.870 I-5.230 J0.584 E21.66286
G2 X116.002 Y113.132 I-1.564 J3.130 E22.48978
G3 X124.040 Y118.331 I2.783 J4.511 E23.18561
G2 X124.935 Y119.468 I1.264 J-0.075 E23.27502
G1 X140.587 Y125.172 E24.24449
G3 X141.797 Y129.158 I-1.109 J2.513 E24.51909
G1 X141.274 Y129.77 E24.56594
G3 X138.466 Y131.169 I-5.032 J-6.583 E24.74973
G3 X135.885 Y131.605 I-2.556 J-7.274 E24.90279
G3 X135.117 Y131.566 I-0.265 J-2.369 E24.94768
G3 X131.956 Y131.006 I0.096 J-9.746 E25.13562
G1 X131.672 Y130.957 E25.15239
G1 X129.407 Y130.141 E25.29249
G2 X129.021 Y130.000 I-0.409 J0.521 E25.31670
G1 X126.77 Y129.181 E25.4561
G2 X126.390 Y129.042 I-0.401 J0.508 E25.47995
G1 X124.139 Y128.223 E25.61935
G2 X123.759 Y128.085 I-0.396 J0.499 E25.64318
G1 X111.773 Y123.722 E26.38548
G2 X106.126 Y124.184 I-2.327 J6.301 E26.72570
G3 X92.630 Y124.073 I-6.668 J-9.736 E27.56152
G1 X81.597 Y116.202 E28.35023
G2 X80.557 Y115.777 I-1.688 J2.646 E28.41584
G3 X77.776 Y111.881 I1.701 J-4.155 E28.70942
G1 X77.896 Y110.923 E28.76561
G1 X78.182 Y110.222 E28.80967
G1 X78.337 Y109.989 E28.82596
G1 X78.024 Y109.449 E28.86228
G1 X77.818 Y108.726 E28.90603
G1 X77.802 Y107.768 E28.96179
G3 X79.525 Y104.829 I4.408 J0.610 E29.16512
G1 X79.854 Y105.204 F7200
G1 F3000
G3 X81.505 Y104.423 I2.898 J3.992 E29.27203
G1 X81.865 Y104.221 E29.29605
G1 X92.918 Y96.336 E30.08618
G3 X105.878 Y96.251 I6.541 J9.217 E30.88909
G2 X111.931 Y96.752 I3.567 J-6.276 E31.25376
G1 X123.906 Y92.394 E31.99536
G2 X124.334 Y92.238 I0.007 J-0.647 E32.02230
G1 X126.537 Y91.436 E32.15873
G2 X126.965 Y91.280 I0.012 J-0.633 E32.18569
G1 X129.168 Y90.479 E32.3221
G2 X129.601 Y90.321 I0.006 J-0.655 E32.34936
G1 X131.807 Y89.526 E32.48582
G2 X132.349 Y89.362 I-0.021 J-1.046 E32.51909
G3 X138.038 Y89.196 I3.157 J10.613 E32.85412
G2 X138.603 Y89.370 I0.743 J-1.408 E32.88867
G3 X140.881 Y90.559 I-2.873 J8.281 E33.03866
G3 X141.725 Y92.369 I-1.393 J1.751 E33.15892
G1 X141.604 Y93.048 E33.19906
G3 X140.330 Y94.397 I-2.132 J-0.738 E33.31002
G1 X124.584 Y100.134 E34.28528
G2 X123.534 Y101.824 I0.713 J1.614 E34.40809
G3 X116.215 Y106.415 I-4.732 J0.585 E35.03639
G2 X116.213 Y113.586 I-1.772 J3.585 E35.98002
G3 X123.567 Y117.558 I2.589 J4.000 E36.57250
G1 X123.539 Y118.366 E36.61955
G2 X124.745 Y119.931 I1.758 J-0.107 E36.74140
G1 X140.391 Y125.633 E37.7105
G3 X140.959 Y129.380 I-0.924 J2.057 E37.97216
G3 X138.319 Y130.688 I-4.669 J-6.105 E38.14483
G3 X135.874 Y131.105 I-2.394 J-6.663 E38.28992
G3 X135.144 Y131.063 I-0.248 J-2.060 E38.33262
G3 X132.368 Y130.643 I0.017 J-9.497 E38.49665
G2 X131.817 Y130.478 I-0.574 J0.914 E38.53043
G1 X129.601 Y129.68 E38.6675
G2 X129.168 Y129.521 I-0.426 J0.490 E38.69479
G1 X126.965 Y128.72 E38.8312
G2 X126.537 Y128.564 I-0.416 J0.477 E38.85816
G1 X124.334 Y127.762 E38.99459
G2 X123.906 Y127.606 I-0.421 J0.491 E39.02153
G1 X111.931 Y123.248 E39.76313
G2 X105.878 Y123.749 I-2.487 J6.774 E40.12780
G3 X92.918 Y123.664 I-6.419 J-9.304 E40.93069
G1 X81.865 Y115.779 E41.72082
G2 X80.757 Y115.318 I-1.835 J2.849 E41.79091
G3 X78.277 Y111.903 I1.501 J-3.698 E42.04951
G1 X78.372 Y111.079 E42.09778
G3 X78.946 Y110.025 I2.307 J0.573 E42.16819
G1 X78.495 Y109.277 E42.21902
G1 X78.308 Y108.621 E42.25872
G3 X79.809 Y105.244 I3.780 J-0.342 E42.48347
G1 X80.137 Y105.62 F7200
G1 F3000
G3 X81.710 Y104.882 I2.653 J3.609 E42.58530
G1 X82.134 Y104.644 E42.6136
G1 X93.206 Y96.745 E43.4051
G3 X105.631 Y96.685 I6.255 J8.814 E44.17512
G2 X112.090 Y97.227 I3.814 J-6.700 E44.56424
G1 X124.049 Y92.874 E45.30486
G2 X124.532 Y92.698 I0.042 J-0.635 E45.33543
G1 X126.68 Y91.916 E45.46846
G2 X127.164 Y91.740 I0.043 J-0.635 E45.49909
G1 X129.311 Y90.958 E45.63206
G2 X129.798 Y90.781 I0.046 J-0.633 E45.66289
G1 X131.951 Y90.005 E45.79607
G2 X132.498 Y89.840 I0.018 J-0.929 E45.82973
G3 X137.906 Y89.679 I3.014 J10.335 E46.14838
G2 X138.448 Y89.846 I0.651 J-1.149 E46.18158
G3 X140.586 Y90.964 I-2.678 J7.725 E46.32242
G3 X141.229 Y92.264 I-1.090 J1.348 E46.40923
G1 X141.118 Y92.926 E46.44829
G3 X140.137 Y93.935 I-1.648 J-0.620 E46.53227
G1 X124.54 Y99.612 E47.49819
G2 X123.034 Y101.820 I0.755 J2.132 E47.66440
G3 X116.424 Y105.961 I-4.251 J0.561 E48.23472
G2 X116.423 Y114.040 I-1.981 J4.039 E49.29505
G3 X123.067 Y117.571 I2.374 J3.549 E49.83001
G2 X123.092 Y118.771 I3.322 J0.531 E49.90011
G2 X124.554 Y120.393 I2.204 J-0.517 E50.03255
G1 X140.195 Y126.094 E51.00136
G3 X140.642 Y128.991 I-0.718 J1.594 E51.20331
G3 X138.442 Y130.157 I-4.820 J-6.437 E51.34875
G2 X137.912 Y130.319 I0.095 J1.257 E51.38120
G3 X135.429 Y130.608 I-2.276 J-8.740 E51.52711
G2 X134.877 Y130.583 I-0.320 J0.958 E51.55958
G3 X132.513 Y130.164 I1.068 J-12.904 E51.69948
G2 X131.959 Y129.998 I-0.535 J0.777 E51.73355
G1 X129.798 Y129.219 E51.86723
G2 X129.311 Y129.042 I-0.441 J0.456 E51.89806
G1 X127.164 Y128.26 E52.03103
G2 X126.680 Y128.084 I-0.441 J0.459 E52.06166
G1 X124.532 Y127.302 E52.19469
G2 X124.049 Y127.126 I-0.441 J0.459 E52.22526
G1 X112.09 Y122.774 E52.96586
G2 X105.631 Y123.315 I-2.647 J7.230 E53.35500
G3 X93.206 Y123.255 I-6.170 J-8.876 E54.12500
G1 X82.134 Y115.357 E54.91647
G2 X80.958 Y114.860 I-1.932 J2.933 E54.99106
G3 X78.777 Y111.920 I1.306 J-3.248 E55.21505
G1 X78.849 Y111.234 E55.25519
G1 X79.078 Y110.672 E55.29051
G1 X79.63 Y109.973 E55.34234
G3 X78.892 Y107.438 I1.460 J-1.800 E55.50536
G3 X80.092 Y105.660 I3.233 J0.888 E55.63234
G1 X80.417 Y106.038 F7200
G1 F3000
G3 X81.901 Y105.345 I2.422 J3.252 E55.72840
G2 X82.424 Y105.051 I-1.167 J-2.689 E55.76335
G1 X93.493 Y97.153 E56.55468
G3 X105.383 Y97.120 I5.968 J8.408 E57.29178
G2 X112.257 Y97.697 I4.059 J-7.124 E57.70595
G1 X124.188 Y93.355 E58.44482
G2 X124.735 Y93.156 I0.081 J-0.628 E58.47969
G1 X126.819 Y92.397 E58.60876
G2 X127.366 Y92.198 I0.081 J-0.628 E58.64363
G1 X129.451 Y91.44 E58.77274
G2 X130.000 Y91.240 I0.080 J-0.634 E58.80772
G1 X132.091 Y90.486 E58.93708
G2 X132.651 Y90.317 I0.058 J-0.821 E58.97169
G3 X135.023 Y89.921 I2.955 J10.399 E59.11195
G2 X135.366 Y89.904 I0.150 J-0.438 E59.13229
G3 X137.771 Y90.161 I0.355 J8.061 E59.27355
G2 X138.297 Y90.323 I0.576 J-0.935 E59.30584
G3 X140.244 Y91.330 I-2.604 J7.421 E59.43375
G3 X139.942 Y93.474 I-0.764 J0.986 E59.58571
G1 X124.359 Y99.146 E60.55077
G2 X122.533 Y101.816 I0.929 J2.595 E60.75172
G3 X117.294 Y105.848 I-3.724 J0.581 E61.22078
G2 X112.006 Y105.634 I-2.827 J4.407 E61.54394
G2 X116.634 Y114.494 I2.437 J4.366 E62.44120
G3 X122.507 Y116.909 I2.140 J3.145 E62.87912
G3 X122.536 Y118.414 I-5.923 J0.867 E62.96693
G2 X124.364 Y120.856 I2.752 J-0.155 E63.15481
G1 X139.997 Y126.554 E64.12312
G3 X140.323 Y128.604 I-0.515 J1.133 E64.26567
G3 X138.292 Y129.679 I-4.480 J-6.007 E64.39990
G2 X137.773 Y129.838 I0.051 J1.092 E64.43174
G3 X135.457 Y130.108 I-2.132 J-8.221 E64.56783
G2 X134.901 Y130.083 I-0.316 J0.828 E64.60064
G3 X132.662 Y129.686 I1.020 J-12.264 E64.73314
G2 X132.098 Y129.516 I-0.510 J0.672 E64.76797
G1 X130 Y128.76 E64.89775
G2 X129.451 Y128.560 I-0.469 J0.434 E64.93273
G1 X127.366 Y127.802 E65.06184
G2 X126.819 Y127.603 I-0.466 J0.429 E65.09671
G1 X124.735 Y126.844 E65.22578
G2 X124.188 Y126.645 I-0.466 J0.429 E65.26065
G1 X112.257 Y122.303 E65.99952
G2 X104.515 Y123.407 I-2.811 J7.985 E66.47278
G3 X93.493 Y122.847 I-5.072 J-8.911 E67.15080
G1 X82.424 Y114.949 E67.94213
G2 X81.156 Y114.401 I-2.110 J3.141 E68.02289
G3 X79.276 Y111.877 I1.105 J-2.785 E68.21557
G3 X80.184 Y110.266 I1.748 J-0.076 E68.32855
G1 X80.715 Y110.031 E68.36234
G1 X79.961 Y109.589 E68.4132
G3 X79.369 Y107.588 I1.109 J-1.416 E68.54240
G3 X80.372 Y106.077 I2.746 J0.734 E68.64975
G1 X80.696 Y106.456 F7200
G1 F3000
G3 X82.097 Y105.806 I2.183 J2.871 E68.74041
G2 X82.706 Y105.463 I-1.294 J-3.009 E68.78113
G1 X93.781 Y97.562 E69.57284
G3 X105.136 Y97.554 I5.683 J8.006 E70.27707
G2 X112.422 Y98.170 I4.308 J-7.562 E70.71614
G1 X124.323 Y93.838 E71.45317
G2 X124.942 Y93.612 I0.124 J-0.621 E71.49300
G1 X126.954 Y92.88 E71.6176
G2 X127.574 Y92.655 I0.126 J-0.620 E71.65748
G1 X129.585 Y91.923 E71.78202
G2 X130.206 Y91.697 I0.125 J-0.624 E71.82196
G1 X132.227 Y90.969 E71.94697
G2 X132.809 Y90.793 I0.093 J-0.742 E71.98314
G3 X135.000 Y90.421 I2.810 J9.913 E72.11272
G2 X135.419 Y90.402 I0.191 J-0.423 E72.13780
G3 X137.633 Y90.643 I0.301 J7.525 E72.26786
G2 X138.150 Y90.801 I0.516 J-0.765 E72.29968
G3 X139.903 Y91.697 I-2.528 J7.109 E72.41452
G3 X139.745 Y93.014 I-0.429 J0.616 E72.50862
G1 X124.178 Y98.679 E73.47266
G2 X122.033 Y101.814 I1.106 J3.058 E73.70847
G3 X118.162 Y105.604 I-3.258 J0.544 E74.07907
G3 X116.855 Y105.058 I0.933 J-4.070 E74.16186
G2 X116.856 Y114.942 I-2.412 J4.942 E75.45756
G3 X120.863 Y115.053 I1.926 J2.836 E75.70737
G3 X122.032 Y118.195 I-2.130 J2.581 E75.91151
G2 X124.173 Y121.319 I3.250 J0.068 E76.14651
G1 X139.796 Y127.012 E77.11417
G3 X139.962 Y128.257 I-0.313 J0.675 E77.20067
G3 X138.145 Y129.200 I-4.247 J-5.961 E77.32017
G2 X137.631 Y129.358 I-0.001 J0.912 E77.35182
G3 X135.490 Y129.608 I-1.982 J-7.684 E77.47762
G2 X134.922 Y129.582 I-0.317 J0.708 E77.51130
G3 X132.815 Y129.209 I0.966 J-11.595 E77.63598
G2 X132.231 Y129.033 I-0.490 J0.570 E77.67226
G1 X130.206 Y128.303 E77.79753
G2 X129.585 Y128.077 I-0.496 J0.398 E77.83747
G1 X127.574 Y127.345 E77.96201
G2 X126.954 Y127.120 I-0.494 J0.395 E78.00189
G1 X124.942 Y126.388 E78.12649
G2 X124.323 Y126.162 I-0.495 J0.395 E78.16632
G1 X112.422 Y121.83 E78.90335
G2 X104.273 Y122.969 I-2.975 J8.435 E79.40114
G3 X93.781 Y122.438 I-4.831 J-8.474 E80.04664
G1 X82.706 Y114.537 E80.83835
G2 X81.353 Y113.941 I-2.268 J3.314 E80.92480
G3 X79.775 Y111.832 I0.906 J-2.323 E81.08617
G3 X80.863 Y110.562 I1.252 J-0.028 E81.19231
G1 X81.336 Y110.545 E81.21985
G1 X81.45 Y110.603 E81.22729
G1 X81.622 Y110.852 E81.2449
G1 X81.635 Y110.98 E81.25239
G2 X81.433 Y111.639 I0.952 J0.652 E81.29292
G2 X83.058 Y111.302 I0.839 J-0.039 E81.46148
G1 X82.911 Y111.003 E81.48087
G1 X82.917 Y110.873 E81.48844
G1 X83.081 Y110.61 E81.50648
G1 X83.201 Y110.547 E81.51437
G1 X83.511 Y110.571 E81.53246
G1 X88.776 Y113.026 E81.87053
G2 X89.373 Y113.304 I0.525 J-0.348 E81.91035
G1 X91.193 Y114.153 E82.02722
G2 X91.790 Y114.431 I0.525 J-0.348 E82.06704
G1 X93.609 Y115.279 E82.18383
G2 X94.207 Y115.558 I0.527 J-0.348 E82.22373
G1 X95.971 Y116.381 E82.33701
G1 X96.296 Y116.685 E82.36291
G3 X97.148 Y116.877 I0.129 J1.415 E82.41435
G2 X98.613 Y117.204 I2.361 J-7.134 E82.50184
G1 X98.975 Y117.373 E82.52509
G1 X99.349 Y117.251 E82.54798
G2 X101.352 Y116.996 I0.072 J-7.426 E82.66581
G2 X102.046 Y116.768 I0.200 J-0.561 E82.71144
