; Postprocessed by [ArcWelder](https://github.com/FormerLurker/ArcWelderLib)
; Copyright(C) 2021 - Brad Hochgesang
; Version: 1.2.0, Branch: master, BuildDate: 2021-11-21T20:04:00Z
; resolution=0.05mm
; path_tolerance=5.0%
; max_radius=9999.00mm
; default_xyz_precision=3
; default_e_precision=5
; extrusion_rate_variance=5.0%

; generated by AnycubicSlicer 1.4.4 on 2025-07-06 at 04:52:54 UTC




; 

; external perimeters extrusion width = 0.42mm
; perimeters extrusion width = 0.45mm
; infill extrusion width = 0.45mm
; solid infill extrusion width = 0.50mm
; top infill extrusion width = 0.42mm
; first layer extrusion width = 0.56mm

; external perimeters extrusion width = 0.42mm
; perimeters extrusion width = 0.45mm
; infill extrusion width = 0.45mm
; solid infill extrusion width = 0.50mm
; top infill extrusion width = 0.42mm
; first layer extrusion width = 0.56mm

; external perimeters extrusion width = 0.42mm
; perimeters extrusion width = 0.45mm
; infill extrusion width = 0.45mm
; solid infill extrusion width = 0.50mm
; top infill extrusion width = 0.42mm
; first layer extrusion width = 0.56mm

M201 X2500 Y2500 Z800 E2500 ; sets maximum accelerations, mm/sec^2
M203 X250 Y250 Z8 E80 ; sets maximum feedrates, mm / sec
M204 S2500 T2500 ; sets acceleration (S) and retract acceleration (R), mm/sec^2
M205 X10.00 Y10.00 Z2.00 E10.00 ; sets the jerk limits, mm/sec
M205 S0 T0 ; sets the minimum extruding and travel feed rate, mm/sec
;TYPE:Custom
G90 ; use absolute coordinates
M83 ; extruder relative mode
M104 S215 ; set extruder temp
M140 S60 ; set bed temp
M190 S60 ; wait for bed temp
M109 S215 ; wait for extruder temp
G28                                        ; move X/Y/Z to min endstops
G1 Z0.28                                   ; lift nozzle a bit 
G92 E0 
G1 Y3 F1800                                    ; zero the extruded length 
G1 X60  E25 F500                       ; Extrude 25mm of filament in a 5cm line. 
G92 E0                                     ; zero the extruded length again 
G1 E-2 F500                                ; Retract a little 
G1 X70 F4000                              ; Quickly wipe away from the filament line
M117
G21 ; set units to millimeters
G90 ; use absolute coordinates
M82 ; use absolute distances for extrusion
G92 E0
M107
;LAYER_CHANGE
;Z:0.28
;HEIGHT:0.28
; BEFORE_LAYER_CHANGE 0 @ 0.28mm
G1 E-2 F4800
G92 E0
G1 Z.28 F7200
; AFTER_LAYER_CHANGE 0 @ 0.28mm
G1 X78.405 Y104.673
G1 E2 F4800
;TYPE:Skirt/Brim
;WIDTH:0.56
G1 F3000
G1 X91.784 Y95.608 E2.94048
G1 X93.246 Y94.804 E3.03758
G1 X94.933 Y94.158 E3.14271
G1 X96.718 Y93.766 E3.24906
G1 X132.557 Y88.463 E5.35742
G1 X134.631 Y88.282 E5.47858
G1 X135.751 Y88.338 E5.54384
G1 X137.202 Y88.59 E5.62954
G3 X140.900 Y90.476 I-2.195 J8.873 E5.87330
G1 X141.489 Y91.304 E5.93243
G1 X141.802 Y92.312 E5.99385
G1 X141.84 Y128.203 E8.08253
G1 X141.666 Y129.218 E8.14246
G1 X141.068 Y130.298 E8.2143
G1 X140.084 Y131.122 E8.28899
G1 X138.544 Y131.923 E8.39001
G3 X133.118 Y132.579 I-3.967 J-10.044 E8.71155
G1 X96.764 Y127.201 E10.85019
G1 X94.884 Y126.786 E10.96223
G1 X93.472 Y126.26 E11.04992
G1 X91.784 Y125.352 E11.16146
G1 X78.405 Y116.287 E12.10194
G3 X77.292 Y115.241 I3.298 J-4.624 E12.19103
G1 X76.639 Y114.162 E12.26443
G1 X76.309 Y113.132 E12.32737
G1 X76.208 Y112.27 E12.37788
G1 X76.218 Y108.539 E12.59501
G3 X77.473 Y105.504 I4.963 J0.275 E12.78960
G1 X78.361 Y104.713 E12.85881
G1 X78.686 Y105.087 F7200
G1 F3000
G1 X91.641 Y96.307 E13.76956
G1 X93.441 Y95.264 E13.89063
G1 X95.067 Y94.64 E13.99198
G1 X96.799 Y94.259 E14.09518
G1 X132.63 Y88.958 E16.20306
G1 X134.631 Y88.782 E16.31996
G1 X135.685 Y88.834 E16.38137
G1 X137.093 Y89.078 E16.46453
G3 X140.548 Y90.830 I-2.102 J8.429 E16.69193
G1 X141.045 Y91.533 E16.74203
G1 X141.309 Y92.394 E16.79444
G1 X141.34 Y128.203 E18.87834
G1 X141.189 Y129.07 E18.92955
G1 X140.677 Y129.985 E18.99057
G1 X139.807 Y130.706 E19.05633
G1 X138.333 Y131.469 E19.15292
G3 X133.170 Y132.082 I-3.759 J-9.608 E19.45877
G1 X96.838 Y126.707 E21.59612
G1 X95.04 Y126.311 E21.70326
G1 X93.692 Y125.811 E21.78693
G1 X92.063 Y124.937 E21.89451
G1 X78.686 Y115.873 E22.83486
G1 X77.675 Y114.92 E22.91571
G1 X77.089 Y113.945 E22.98191
G3 X76.708 Y112.271 I4.145 J-1.824 E23.08227
G1 X76.718 Y108.54 E23.2994
G3 X77.856 Y105.825 I4.478 J0.281 E23.47380
G1 X78.641 Y105.127 E23.53493
G1 E22.13493 F4800
;WIPE_START
G1 F5760
G1 X79.268 Y104.701 E21.53493
;WIPE_END
G92 E0
G1 X117.773 Y117.728 F7200
G1 E2 F4800
;TYPE:External perimeter
G1 F3000
G2 X116.436 Y116.959 I-1.073 J0.318 E2.09891
G3 X116.436 Y104.001 I-2.956 J-6.479 E3.75402
G2 X117.162 Y101.847 I0.261 J-1.111 E3.94969
G2 X105.129 Y106.147 I-3.694 J8.650 E4.76693
G2 X103.962 Y104.752 I-6.765 J4.474 E4.87296
G2 X103.162 Y104.078 I-0.922 J0.283 E4.93713
G2 X101.436 Y103.118 I-4.633 J6.298 E5.05236
G2 X100.433 Y102.791 I-0.756 J0.619 E5.11699
G2 X98.488 Y102.543 I-1.905 J7.189 E5.23139
G2 X97.444 Y102.608 I-0.472 J0.837 E5.29558
G2 X95.530 Y103.105 I0.999 J7.783 E5.41095
G2 X94.625 Y103.511 I-0.121 J0.942 E5.47163
G1 X93.015 Y104.262 E5.57502
G2 X92.268 Y104.610 I-0.007 J0.961 E5.62451
G1 X90.598 Y105.389 E5.73175
G2 X89.852 Y105.737 I-0.008 J0.957 E5.78120
G1 X88.181 Y106.516 E5.88849
G2 X87.435 Y106.864 I-0.006 J0.961 E5.93793
G1 X82.824 Y109.014 E6.234
G2 X80.823 Y107.425 I-1.526 J-0.133 E6.40965
G1 X80.745 Y107.144 E6.42662
G2 X82.121 Y106.512 I-0.959 J-3.901 E6.51516
G1 X93.203 Y98.607 E7.30734
G3 X103.819 Y98.634 I5.289 J7.503 E7.96615
G2 X111.674 Y99.301 I4.648 J-8.157 E8.43950
G1 X123.507 Y94.994 E9.17232
G2 X124.281 Y94.713 I0.092 J-0.952 E9.22176
G1 X126.138 Y94.037 E9.33677
G2 X126.912 Y93.755 I0.090 J-0.957 E9.38621
G1 X128.769 Y93.079 E9.50122
G2 X129.543 Y92.798 I0.092 J-0.952 E9.55067
G1 X131.43 Y92.118 E9.6674
G2 X132.065 Y91.926 I0.084 J-0.868 E9.70688
G3 X133.915 Y91.593 I2.756 J10.008 E9.81640
G2 X134.569 Y91.562 I0.283 J-0.934 E9.85509
G3 X136.513 Y91.829 I0.291 J5.094 E9.97008
G2 X136.978 Y91.944 I0.431 J-0.747 E9.99823
G3 X138.640 Y92.807 I-2.528 J6.900 E10.10747
G1 X122.953 Y98.516 E11.07895
G2 X120.400 Y102.926 I1.442 J3.779 E11.39987
G3 X116.785 Y105.233 I-2.558 J-0.022 E11.69560
G2 X116.785 Y115.727 I-3.306 J5.247 E13.23320
G3 X120.402 Y118.078 I1.058 J2.331 E13.53157
G2 X122.953 Y122.444 I3.933 J0.630 E13.84996
G1 X138.631 Y128.15 E14.82089
G3 X136.991 Y129.011 I-3.981 J-5.591 E14.92898
G2 X136.452 Y129.177 I-0.028 J0.866 E14.96233
G3 X134.580 Y129.398 I-1.770 J-6.954 E15.07231
G2 X133.967 Y129.370 I-0.343 J0.795 E15.10871
G3 X132.062 Y129.033 I0.853 J-10.377 E15.22144
G2 X131.428 Y128.841 I-0.552 J0.679 E15.26086
G1 X129.543 Y128.162 E15.37746
G2 X128.769 Y127.881 I-0.682 J0.671 E15.42691
G1 X126.912 Y127.205 E15.54192
G2 X126.138 Y126.923 I-0.684 J0.675 E15.59137
G1 X124.281 Y126.247 E15.70638
G2 X123.507 Y125.966 I-0.682 J0.671 E15.75582
G1 X111.674 Y121.659 E16.48864
G2 X102.963 Y122.846 I-3.220 J8.926 E17.02028
G3 X93.203 Y122.353 I-4.495 J-7.867 E17.62082
G1 X82.121 Y114.447 E18.41303
G2 X80.745 Y113.816 I-2.403 J3.424 E18.50154
G1 X80.823 Y113.535 E18.51851
G2 X82.825 Y111.946 I0.474 J-1.458 E18.69417
G1 X87.435 Y114.096 E18.99019
G2 X88.181 Y114.444 I0.740 J-0.613 E19.03962
G1 X89.852 Y115.223 E19.14691
G2 X90.598 Y115.571 I0.738 J-0.609 E19.19633
G1 X92.268 Y116.35 E19.30357
G2 X93.015 Y116.698 I0.740 J-0.613 E19.35303
G1 X94.625 Y117.449 E19.45642
G2 X95.530 Y117.855 I0.784 J-0.536 E19.51710
G2 X97.444 Y118.352 I2.885 J-7.176 E19.63248
G2 X98.488 Y118.417 I0.572 J-0.772 E19.69667
G2 X100.433 Y118.169 I0.043 J-7.416 E19.81107
G2 X101.436 Y117.842 I0.247 J-0.946 E19.87570
G2 X103.162 Y116.881 I-2.884 J-7.211 E19.99097
G2 X103.962 Y116.208 I-0.119 J-0.954 E20.05513
G2 X105.129 Y114.812 I-5.905 J-6.122 E20.16120
G2 X117.322 Y119.028 I8.321 J-4.324 E20.98911
G2 X117.792 Y117.785 I-0.572 J-0.926 E21.07186
G1 X117.91 Y117.587 F7200
G1 E19.67186 F4800
;WIPE_START
G1 F5760
G1 X117.711 Y117.541 E19.46833
G2 X117.385 Y117.165 I-0.907 J0.457 E19.07186
;WIPE_END
G92 E0
G1 X118.206 Y104.929 F7200
G1 E2 F4800
;TYPE:Perimeter
G1 F3000
G3 X116.636 Y104.590 I-0.357 J-2.153 E2.09554
G1 X117.38 Y104.392 E2.14034
G2 X117.390 Y101.399 I-0.685 J-1.499 E2.35814
G2 X105.087 Y105.249 I-3.919 J9.060 E3.17553
G2 X104.392 Y104.479 I-4.925 J3.746 E3.23594
G1 X104.331 Y104.324 E3.24563
G2 X103.516 Y103.640 I-1.302 J0.723 E3.30860
G1 X103.361 Y103.609 E3.3178
G2 X101.731 Y102.701 I-4.613 J6.363 E3.42663
G2 X100.422 Y102.277 I-1.045 J0.994 E3.50985
G2 X98.610 Y102.048 I-1.811 J7.047 E3.61640
G1 X98.461 Y101.978 E3.62598
G2 X97.399 Y102.046 I-0.442 J1.424 E3.68895
G1 X97.264 Y102.131 E3.69823
G2 X95.448 Y102.603 I1.054 J7.786 E3.80768
G2 X94.317 Y103.103 I-0.076 J1.356 E3.88248
G1 X92.894 Y103.767 E3.97386
G2 X91.967 Y104.199 I0.078 J1.378 E4.03474
G1 X90.477 Y104.894 E4.13042
G2 X89.550 Y105.326 I0.078 J1.378 E4.19130
G1 X88.06 Y106.021 E4.28698
G2 X87.133 Y106.453 I0.078 J1.378 E4.34786
G1 X83.23 Y108.273 E4.59848
G2 X82.197 Y107.061 I-1.887 J0.562 E4.69385
G1 X93.878 Y98.755 E5.52796
G3 X103.571 Y99.068 I4.611 J7.436 E6.12666
G2 X111.839 Y99.773 I4.896 J-8.587 E6.62491
G1 X123.584 Y95.498 E7.35228
G2 X124.545 Y95.148 I0.045 J-1.371 E7.41318
G1 X126.215 Y94.541 E7.51659
G2 X127.176 Y94.191 I0.042 J-1.379 E7.57747
G1 X128.846 Y93.583 E7.6809
G2 X129.807 Y93.234 I0.041 J-1.385 E7.74176
G1 X131.528 Y92.614 E7.84821
G2 X132.267 Y92.391 I0.074 J-1.091 E7.89398
G3 X133.999 Y92.118 I1.945 J6.709 E7.99654
G2 X134.629 Y92.063 I0.223 J-1.081 E8.03372
G3 X136.598 Y92.405 I0.268 J4.296 E8.15105
G1 X136.861 Y92.434 E8.16645
G1 X137.463 Y92.703 E8.20482
G1 X122.772 Y98.05 E9.11463
G2 X119.899 Y102.916 I1.600 J4.226 E9.46993
G3 X118.264 Y104.916 I-2.051 J-0.008 E9.63233
G1 X118.67 Y104.223 F7200
G1 F3000
G1 X118.482 Y104.068 E9.64651
G2 X118.552 Y101.801 I-1.758 J-1.189 E9.78548
G1 X118.143 Y101.286 E9.82375
G2 X117.001 Y100.709 I-2.060 J2.658 E9.89855
G2 X113.137 Y100.097 I-3.515 J9.688 E10.12756
G1 X113.092 Y99.849 E10.14223
G1 X123.662 Y96.002 E10.79682
G1 X123.717 Y96.004 E10.80002
G2 X124.810 Y95.584 I-0.095 J-1.878 E10.86911
G1 X126.293 Y95.044 E10.96096
G1 X126.348 Y95.047 E10.96417
G2 X127.441 Y94.626 I-0.100 J-1.889 E11.03328
G1 X128.924 Y94.087 E11.12511
G1 X128.979 Y94.089 E11.12831
G1 X129.533 Y93.975 E11.16123
G1 X130.07 Y93.67 E11.19717
G1 X131.626 Y93.11 E11.29341
G2 X132.469 Y92.856 I0.061 J-1.323 E11.34543
G3 X134.415 Y92.634 I1.634 J5.680 E11.46009
G1 X134.683 Y92.565 E11.47619
G3 X135.540 Y92.628 I0.084 J4.713 E11.52624
G1 X135.565 Y92.862 E11.53994
G1 X122.591 Y97.584 E12.34341
G2 X119.398 Y102.905 I1.731 J4.657 E12.73303
G3 X118.717 Y104.186 I-1.521 J0.013 E12.82091
G1 E11.42091 F4800
;WIPE_START
G1 F5760
G1 X118.482 Y104.068 E11.21273
G1 X118.713 Y103.63 E10.82091
;WIPE_END
G92 E0
G1 X109.038 Y101.087 F7200
G1 E2 F4800
G1 F3000
G2 X105.031 Y104.425 I4.310 J9.248 E2.30687
G3 X104.768 Y104.068 I0.310 J-0.504 E2.33310
G1 X104.314 Y103.517 E2.37465
G1 X103.693 Y103.166 E2.41616
G3 X103.314 Y102.967 I0.042 J-0.540 E2.44152
G2 X102.025 Y102.284 I-4.026 J6.040 E2.52652
G1 X101.96 Y102.215 E2.53204
G1 X101.501 Y101.926 E2.56361
G1 X100.851 Y101.756 E2.60271
G3 X99.863 Y101.649 I-0.290 J-1.940 E2.66099
G2 X98.732 Y101.553 I-1.148 J6.818 E2.72710
G1 X98.6 Y101.492 E2.73556
G1 X97.891 Y101.407 E2.77712
G1 X97.199 Y101.581 E2.81864
G1 X97.084 Y101.653 E2.82654
G2 X95.366 Y102.100 I1.173 J8.033 E2.93005
G1 X95.208 Y102.095 E2.93925
G2 X94.009 Y102.695 I0.201 J1.899 E3.01901
G1 X92.773 Y103.272 E3.09839
G1 X92.717 Y103.274 E3.10165
G2 X91.665 Y103.788 I0.266 J1.879 E3.17071
G1 X90.356 Y104.398 E3.25475
G1 X90.3 Y104.401 E3.25801
G2 X89.248 Y104.915 I0.266 J1.879 E3.32707
G1 X87.939 Y105.525 E3.41111
G1 X87.884 Y105.528 E3.41432
G2 X86.832 Y106.042 I0.262 J1.871 E3.48340
G1 X83.486 Y107.602 E3.69824
G2 X83.062 Y107.070 I-1.935 J1.107 E3.73795
G1 X94.146 Y99.177 E4.52982
G3 X102.467 Y98.982 I4.322 J6.807 E5.03858
G2 X108.978 Y100.849 I5.996 J-8.625 E5.43975
G1 X109.024 Y101.029 E5.45056
G1 E4.05056 F4800
;WIPE_START
G1 F5760
G3 X108.382 Y101.432 I-4.972 J-7.207 E3.45056
;WIPE_END
G92 E0
G1 X118.261 Y118.584 F7200
G1 E2 F4800
G1 F3000
G2 X117.340 Y116.557 I-1.545 J-0.521 E2.14200
G1 X116.634 Y116.37 E2.1845
G3 X119.902 Y118.074 I1.192 J1.699 E2.44778
G2 X122.772 Y122.910 I4.422 J0.645 E2.80136
G1 X137.463 Y128.257 E3.71117
G3 X136.506 Y128.583 I-1.134 J-1.762 E3.77045
G3 X135.383 Y128.861 I-1.236 J-2.586 E3.83839
G3 X134.225 Y128.822 I-0.491 J-2.618 E3.90631
G3 X133.538 Y128.823 I-0.345 J-1.272 E3.94662
G3 X132.255 Y128.565 I1.285 J-9.708 E4.02282
G2 X131.518 Y128.343 I-0.664 J0.871 E4.06842
G1 X129.807 Y127.726 E4.17427
G2 X128.846 Y127.377 I-0.915 J1.023 E4.23514
G1 X127.176 Y126.769 E4.33857
G2 X126.215 Y126.419 I-0.919 J1.029 E4.39945
G1 X124.545 Y125.812 E4.50286
G2 X123.584 Y125.462 I-0.916 J1.021 E4.56376
G1 X111.839 Y121.187 E5.29113
G2 X102.715 Y122.412 I-3.384 J9.384 E5.84767
G3 X93.875 Y122.204 I-4.247 J-7.442 E6.38827
G1 X82.197 Y113.899 E7.2222
G2 X83.252 Y112.697 I-0.962 J-1.909 E7.31750
G1 X87.133 Y114.507 E7.56671
G2 X88.060 Y114.939 I1.005 J-0.946 E7.62759
G1 X89.55 Y115.634 E7.72327
G2 X90.477 Y116.066 I1.005 J-0.946 E7.78415
G1 X91.967 Y116.761 E7.87983
G2 X92.894 Y117.193 I1.005 J-0.946 E7.94071
G1 X94.317 Y117.857 E8.03209
G1 X94.467 Y118.031 E8.04546
G2 X95.448 Y118.357 I0.920 J-1.130 E8.10689
G2 X97.264 Y118.829 I2.854 J-7.251 E8.21634
G1 X97.399 Y118.914 E8.22562
G2 X98.461 Y118.982 I0.620 J-1.356 E8.28859
G1 X98.61 Y118.912 E8.29817
G2 X100.422 Y118.683 I0.007 J-7.226 E8.40472
G2 X101.731 Y118.259 I0.264 J-1.418 E8.48793
G2 X103.361 Y117.351 I-2.924 J-7.165 E8.59677
G1 X103.516 Y117.32 E8.60597
G2 X104.331 Y116.636 I-0.487 J-1.407 E8.66894
G1 X104.392 Y116.481 E8.67863
G2 X105.082 Y115.718 I-4.275 J-4.559 E8.73854
G2 X117.610 Y119.441 I8.361 J-5.196 E9.57035
G2 X118.243 Y118.641 I-0.848 J-1.321 E9.63054
G1 E8.23054 F4800
;WIPE_START
G1 F5760
G2 X118.326 Y117.893 I-1.340 J-0.527 E7.63054
;WIPE_END
G92 E0
G1 X109.044 Y119.869 F7200
G1 E2 F4800
G1 F3000
G1 X108.986 Y120.111 E2.01448
G2 X102.467 Y121.977 I-0.509 J10.542 E2.41608
G3 X94.142 Y121.780 I-3.999 J-6.998 E2.92513
G1 X83.062 Y113.891 E3.71667
G2 X83.486 Y113.358 I-1.587 J-1.698 E3.75641
G1 X86.832 Y114.918 E3.97125
G1 X86.869 Y114.959 E3.97446
G2 X87.939 Y115.434 I1.264 J-1.405 E4.04353
G1 X89.248 Y116.045 E4.1276
G1 X89.286 Y116.086 E4.13085
G2 X90.356 Y116.561 I1.264 J-1.405 E4.19992
G1 X91.665 Y117.172 E4.28399
G1 X91.703 Y117.213 E4.28724
G2 X92.773 Y117.688 I1.264 J-1.405 E4.35631
G1 X94.009 Y118.265 E4.43569
G1 X94.144 Y118.422 E4.44774
G2 X95.208 Y118.865 I1.315 J-1.660 E4.51545
G1 X95.366 Y118.86 E4.52465
G2 X97.084 Y119.306 I2.699 J-6.864 E4.62814
G1 X97.199 Y119.379 E4.63607
G1 X97.891 Y119.553 E4.67759
G1 X98.6 Y119.468 E4.71915
G1 X98.732 Y119.407 E4.72761
G2 X100.462 Y119.185 I-0.035 J-7.128 E4.82934
G1 X100.851 Y119.204 E4.852
G1 X101.501 Y119.034 E4.8911
G1 X101.96 Y118.745 E4.92267
G1 X102.025 Y118.676 E4.92819
G2 X103.561 Y117.821 I-3.062 J-7.308 E5.03071
G1 X103.693 Y117.794 E5.03855
G1 X104.314 Y117.442 E5.08009
G1 X104.768 Y116.892 E5.12159
G3 X105.030 Y116.536 I0.571 J0.146 E5.14774
G2 X108.989 Y119.845 I8.273 J-5.875 E5.45134
G1 E4.05134 F4800
;WIPE_START
G1 F5760
G1 X108.986 Y120.111 E3.84074
G1 X108.494 Y120.105 E3.45134
;WIPE_END
G92 E0
G1 X118.749 Y118.69 F7200
G1 E2 F4800
G1 F3000
G2 X118.502 Y116.929 I-1.946 J-0.625 E2.10702
G1 X118.684 Y116.744 E2.12212
G3 X119.401 Y118.069 I-0.867 J1.326 E2.21341
G2 X122.591 Y123.376 I4.918 J0.656 E2.60223
G1 X135.569 Y128.1 E3.40596
G1 X135.546 Y128.332 E3.41953
G3 X134.216 Y128.317 I-0.633 J-2.839 E3.49747
G3 X133.607 Y128.328 I-0.325 J-1.126 E3.53322
G3 X132.448 Y128.098 I1.130 J-8.728 E3.60201
G2 X131.609 Y127.844 I-0.786 J1.084 E3.65380
G1 X130.07 Y127.29 E3.74899
G1 X129.533 Y126.985 E3.78493
G1 X128.979 Y126.871 E3.81785
G1 X128.924 Y126.873 E3.82105
G1 X127.441 Y126.333 E3.9129
G1 X127.4 Y126.296 E3.91611
G2 X126.293 Y125.916 I-1.137 J1.509 E3.98518
G1 X124.81 Y125.376 E4.07703
G1 X124.769 Y125.338 E4.08028
