; Postprocessed by [ArcWelder](https://github.com/FormerLurker/ArcWelderLib)
; Copyright(C) 2021 - Brad Hochgesang
; Version: 1.2.0, Branch: master, BuildDate: 2021-11-21T20:04:00Z
; resolution=0.05mm
; path_tolerance=5.0%
; max_radius=9999.00mm
; default_xyz_precision=3
; default_e_precision=5
; extrusion_rate_variance=5.0%

; generated by AnycubicSlicer 1.4.4 on 2026-02-20 at 08:19:58 UTC




; 

; external perimeters extrusion width = 0.42mm
; perimeters extrusion width = 0.45mm
; infill extrusion width = 0.45mm
; solid infill extrusion width = 0.50mm
; top infill extrusion width = 0.42mm
; support material extrusion width = 0.42mm
; first layer extrusion width = 0.56mm

; external perimeters extrusion width = 0.42mm
; perimeters extrusion width = 0.45mm
; infill extrusion width = 0.45mm
; solid infill extrusion width = 0.50mm
; top infill extrusion width = 0.42mm
; support material extrusion width = 0.42mm
; first layer extrusion width = 0.56mm

M201 X2500 Y2500 Z800 E2500 ; sets maximum accelerations, mm/sec^2
M203 X250 Y250 Z8 E80 ; sets maximum feedrates, mm / sec
M204 S2500 T2500 ; sets acceleration (S) and retract acceleration (R), mm/sec^2
M205 X10.00 Y10.00 Z2.00 E10.00 ; sets the jerk limits, mm/sec
M205 S0 T0 ; sets the minimum extruding and travel feed rate, mm/sec
;TYPE:Custom
G90 ; use absolute coordinates
M83 ; extruder relative mode
M104 S215 ; set extruder temp
M140 S60 ; set bed temp
M190 S60 ; wait for bed temp
M109 S215 ; wait for extruder temp
G28                                        ; move X/Y/Z to min endstops
G1 Z0.28                                   ; lift nozzle a bit 
G92 E0 
G1 Y3 F1800                                    ; zero the extruded length 
G1 X60  E25 F500                       ; Extrude 25mm of filament in a 5cm line. 
G92 E0                                     ; zero the extruded length again 
G1 E-2 F500                                ; Retract a little 
G1 X70 F4000                              ; Quickly wipe away from the filament line
M117
G21 ; set units to millimeters
G90 ; use absolute coordinates
M82 ; use absolute distances for extrusion
G92 E0
M107
;LAYER_CHANGE
;Z:0.28
;HEIGHT:0.28
; BEFORE_LAYER_CHANGE 0 @ 0.28mm
G1 E-2 F4800
G92 E0
G1 Z.28 F7200
; AFTER_LAYER_CHANGE 0 @ 0.28mm
G1 X81.268 Y72.003
G1 E2 F4800
;TYPE:Skirt/Brim
;WIDTH:0.56
G1 F3000
G1 X82.35 Y70.912 E2.08942
G1 X83.868 Y70.5 E2.18096
G1 X136.059 Y70.5 E5.21821
G1 X137.544 Y70.894 E5.30762
G1 X138.639 Y71.97 E5.39696
G1 X139.058 Y73.497 E5.48911
G1 X139.141 Y153.497 E10.14471
G1 X138.749 Y154.982 E10.23409
G1 X137.673 Y156.079 E10.32351
G1 X136.141 Y156.5 E10.41597
G1 X84.043 Y156.5 E13.44781
G1 X82.558 Y156.106 E13.53722
G1 X81.463 Y155.03 E13.62656
G1 X81.045 Y153.592 E13.71371
G1 X80.889 Y148.5 E14.01018
G1 X80.868 Y73.486 E18.37561
G1 X81.253 Y72.061 E18.46151
G1 X81.748 Y72.208 F7200
G1 F3000
G1 X81.766 Y72.146 E18.46527
G1 X82.823 Y71.229 E18.5467
G1 X83.868 Y71 E18.60896
G1 X136.059 Y71 E21.64621
G1 X137.403 Y71.392 E21.72768
G1 X138.325 Y72.445 E21.80913
G1 X138.558 Y73.497 E21.87183
G1 X138.641 Y153.497 E26.52743
G1 X138.25 Y154.842 E26.60894
G1 X137.198 Y155.765 E26.69038
G1 X136.141 Y156 E26.75339
G1 X84.043 Y156 E29.78523
G1 X82.699 Y155.608 E29.8667
G1 X81.777 Y154.555 E29.94815
G1 X81.544 Y153.577 E30.00666
G1 X81.389 Y148.5 E30.30225
G1 X81.368 Y73.488 E34.66757
G1 X81.731 Y72.265 E34.74181
G1 E33.34181 F4800
;WIPE_START
G1 F5760
G1 X81.766 Y72.146 E33.24361
G1 X82.245 Y71.731 E32.74181
;WIPE_END
G92 E0
G1 X111.72 Y145.66 F7200
G1 E2 F4800
;TYPE:External perimeter
G1 F3000
G2 X116.151 Y130.188 I-1.715 J-8.862 E3.15599
G3 X118.019 Y129.306 I0.346 J-1.685 E3.65517
G1 X117.73 Y129.747 E3.68585
G3 X118.720 Y142.581 I-7.696 J7.049 E4.49295
G1 X118.72 Y148.772 E4.85323
G1 X135.853 Y148.779 E5.85028
G1 X135.861 Y153.22 E6.10872
G1 X84.315 Y153.22 E9.10844
G1 X84.178 Y148.779 E9.36701
G1 X101.28 Y148.77 E10.36226
G1 X101.28 Y142.581 E10.72243
G3 X102.270 Y129.747 I8.686 J-5.785 E11.52953
G3 X102.410 Y127.171 I1.341 J-1.219 E11.69726
G3 X103.849 Y130.188 I1.089 J1.332 E12.05934
G2 X108.280 Y145.660 I6.147 J6.610 E13.21534
G1 X108.28 Y144.909 E13.25904
G2 X111.720 Y144.909 I1.720 J-8.414 E13.46048
G1 X111.72 Y145.6 E13.50069
G1 X111.908 Y146.013 F7200
G1 E12.10069 F4800
;WIPE_START
G1 F5760
G1 X112.465 Y145.463 E11.50069
;WIPE_END
G92 E0
G1 X106.99 Y152.72 F7200
G1 E2 F4800
;TYPE:Perimeter
G1 F3000
G1 X84.799 Y152.72 E3.2914
G1 X84.693 Y149.278 E3.4918
G1 X101.78 Y149.269 E4.48618
G1 X101.78 Y142.443 E4.88342
G3 X102.901 Y129.797 I8.225 J-5.644 E5.68391
G1 X102.418 Y129.061 E5.73514
G3 X103.959 Y129.627 I1.080 J-0.561 E6.07464
G1 X103.593 Y129.746 E6.09704
G2 X104.208 Y144.349 I6.377 J7.046 E7.06735
G1 X104.049 Y144.587 E7.08401
G1 X103.221 Y144.09 E7.14021
G1 X103.221 Y148.287 E7.38445
G2 X106.071 Y149.490 I7.545 J-13.896 E7.56468
G2 X115.179 Y149.043 I3.930 J-12.947 E8.10573
G1 X116.779 Y148.287 E8.20871
G1 X116.779 Y144.09 E8.45295
G1 X115.951 Y144.587 E8.50915
G1 X115.792 Y144.349 E8.52581
G2 X116.407 Y129.746 I-5.760 J-7.557 E9.49613
G3 X115.728 Y127.560 I0.150 J-1.245 E9.66461
G3 X117.582 Y129.061 I0.772 J0.942 E9.85806
G1 X117.099 Y129.797 E9.90929
G3 X118.220 Y142.443 I-7.104 J7.002 E10.70978
G1 X118.22 Y149.271 E11.10714
G1 X135.354 Y149.279 E12.10425
G1 X135.36 Y152.72 E12.3045
G1 X107.05 Y152.72 E13.952
G1 E12.552 F4800
;WIPE_START
G1 F5760
G1 X106.292 Y152.72 E11.952
;WIPE_END
G92 E0
G1 X103.203 Y129.347 F7200
G1 E2 F4800
G1 F3000
G1 X102.851 Y128.81 E2.03737
G3 X103.762 Y129.166 I0.646 J-0.309 E2.23612
G1 X103.26 Y129.328 E2.26682
G1 E.86682 F4800
;WIPE_START
G1 F5760
G1 X102.851 Y128.81 E.34432
G1 X102.828 Y128.715 E.26682
;WIPE_END
G92 E0
G1 X116.072 Y129.077 F7200
G1 E2 F4800
G1 F3000
G3 X117.149 Y128.810 I0.429 J-0.577 E2.18780
G1 X116.797 Y129.347 E2.22517
G3 X116.125 Y129.105 I0.322 J-1.948 E2.26683
G1 E.86683 F4800
;WIPE_START
G1 F5760
G3 X115.789 Y128.466 I0.326 J-0.579 E0.26683
;WIPE_END
G92 E0
G1 X106.433 Y152.22 F7200
G1 E2 F4800
G1 F3000
G1 X85.284 Y152.22 E3.23076
G1 X85.209 Y149.778 E3.37294
G1 X102.28 Y149.769 E4.36639
G1 X102.28 Y143.196 E4.74891
G1 X102.721 Y143.682 E4.7871
G1 X102.721 Y148.603 E5.07348
G1 X104.63 Y149.506 E5.19638
G2 X115.370 Y149.506 I5.370 J-12.966 E5.83748
G1 X117.279 Y148.603 E5.96038
G1 X117.279 Y143.682 E6.24676
G1 X117.72 Y143.196 E6.28495
G1 X117.72 Y149.771 E6.66758
G1 X134.855 Y149.778 E7.66475
G1 X134.859 Y152.22 E7.80686
G1 X106.493 Y152.22 E9.45762
G1 E8.05762 F4800
;WIPE_START
G1 F5760
G1 X105.735 Y152.22 E7.45762
;WIPE_END
G92 E0
G1 X103.721 Y144.973 F7200
G1 E2 F4800
;TYPE:External perimeter
G1 F3000
G2 X106.959 Y146.564 I6.961 J-10.076 E2.21066
G2 X114.938 Y145.778 I3.040 J-10.033 E2.68924
G1 X116.279 Y144.973 E2.78026
G1 X116.279 Y147.97 E2.95467
G3 X103.721 Y147.970 I-6.279 J-11.496 E3.71639
G1 X103.721 Y145.033 E3.88731
G1 X103.818 Y144.585 F7200
G1 E2.48731 F4800
;WIPE_START
G1 F5760
G1 X104.384 Y145.401 E1.88731
;WIPE_END
G92 E0
G1 X108.78 Y145.488 F7200
G1 E2 F4800
;TYPE:Perimeter
G1 F3000
G2 X111.220 Y145.488 I1.220 J-7.704 E2.14258
G1 X111.22 Y146.43 E2.1974
G3 X108.780 Y146.430 I-1.220 J-8.818 E2.33986
G1 X108.78 Y145.548 E2.39119
G1 X109.03 Y146.001 F7200
;TYPE:Gap fill
;WIDTH:0.489607
G1 F3000
G2 X110.970 Y146.001 I0.970 J-9.777 E2.48831
G1 X111.47 Y146.316 F7200
;WIDTH:0.786233
G1 F3000
G2 X115.362 Y144.808 I-1.568 J-9.824 E2.84362
G1 X115.456 Y144.296 E2.88762
G1 E1.48762 F4800
;WIPE_START
G1 F5760
G1 X115.362 Y144.808 E1.07551
G3 X115.159 Y144.930 I-7.605 J-12.424 E0.88762
;WIPE_END
G92 E0
G1 X108.53 Y146.316 F7200
G1 E2 F4800
;WIDTH:0.757586
G1 F3000
G3 X104.638 Y144.808 I1.568 J-9.824 E2.34130
G1 X104.544 Y144.296 E2.38357
G1 E.98357 F4800
;WIPE_START
G1 F5760
G1 X104.638 Y144.808 E.57146
G2 X104.841 Y144.930 I7.605 J-12.423 E0.38357
;WIPE_END
G92 E0
G1 X103.358 Y128.006 F7200
G1 E2 F4800
;TYPE:Solid infill
;WIDTH:0.63293
G1 F3000
G1 X103.779 Y128.427 E2.0397
G3 X103.384 Y128.841 I-0.411 J0.003 E2.08285
G1 X102.992 Y128.449 E2.11982
G1 E.71982 F4800
;WIPE_START
G1 F5760
G1 X103.384 Y128.841 E.28094
G1 X103.578 Y128.779 E.11982
;WIPE_END
G92 E0
G1 X116.995 Y128.616 F7200
G1 E2 F4800
;WIDTH:0.595812
G1 F3000
G1 X116.618 Y128.239 E2.03325
G2 X116.240 Y128.619 I-0.119 J0.260 E2.07632
G1 X116.72 Y129.099 E2.11865
G1 E.71865 F4800
;WIPE_START
G1 F5760
G1 X116.24 Y128.619 E.18125
G1 X116.223 Y128.542 E.11865
;WIPE_END
G92 E0
G1 X134.657 Y150.999 F7200
G1 E2 F4800
;WIDTH:0.564083
G1 F3000
G1 X133.861 Y150.203 E2.06605
G1 X133.148 Y150.202 E2.10788
G1 X134.433 Y151.488 E2.21454
G1 X134.433 Y151.795 E2.23255
G1 X134.028 Y151.795 E2.25631
G1 X132.435 Y150.202 E2.38848
G1 X131.721 Y150.202 E2.43037
G1 X133.315 Y151.795 E2.56259
G1 X132.602 Y151.795 E2.60442
G1 X131.008 Y150.202 E2.73664
G1 X130.295 Y150.201 E2.77847
G1 X131.889 Y151.795 E2.91073
G1 X131.177 Y151.795 E2.9525
G1 X129.582 Y150.201 E3.0848
G1 X128.869 Y150.201 E3.12663
G1 X130.464 Y151.795 E3.25893
G1 X129.751 Y151.795 E3.30076
G1 X128.156 Y150.2 E3.4331
G1 X127.443 Y150.2 E3.47493
G1 X129.038 Y151.795 E3.60727
G1 X128.326 Y151.795 E3.64904
G1 X126.73 Y150.2 E3.78142
G1 X126.017 Y150.199 E3.82325
G1 X127.613 Y151.795 E3.95567
G1 X126.9 Y151.795 E3.9975
G1 X125.304 Y150.199 E4.12992
G1 X124.591 Y150.199 E4.17175
G1 X126.187 Y151.795 E4.30417
G1 X125.475 Y151.795 E4.34594
G1 X123.878 Y150.198 E4.47845
G1 X123.165 Y150.198 E4.52028
G1 X124.762 Y151.795 E4.65279
G1 X124.049 Y151.795 E4.69462
G1 X122.452 Y150.198 E4.82713
G1 X121.739 Y150.198 E4.86896
G1 X123.336 Y151.795 E5.00147
G1 X122.624 Y151.795 E5.04324
G1 X121.026 Y150.197 E5.17583
G1 X120.312 Y150.197 E5.21772
G1 X121.911 Y151.795 E5.35035
G1 X121.198 Y151.795 E5.39218
G1 X119.599 Y150.197 E5.52481
G1 X118.886 Y150.196 E5.56664
G1 X120.485 Y151.795 E5.69931
G1 X119.773 Y151.795 E5.74108
G1 X117.948 Y149.971 E5.89246
G1 X117.52 Y149.543 F7200
G1 F3000
G1 X117.124 Y149.146 E5.92536
G1 X116.64 Y149.375 E5.95677
G1 X119.06 Y151.795 E6.15756
G1 X118.347 Y151.795 E6.19939
G1 X116.156 Y149.604 E6.38118
G1 X115.672 Y149.833 E6.41259
G1 X117.634 Y151.795 E6.57538
G1 X116.922 Y151.795 E6.61715
G1 X115.159 Y150.033 E6.76339
G1 X114.634 Y150.22 E6.79609
G1 X116.209 Y151.795 E6.92677
G1 X115.496 Y151.795 E6.9686
G1 X114.101 Y150.4 E7.08435
G1 X113.531 Y150.543 E7.11883
G1 X114.783 Y151.795 E7.22271
G1 X114.071 Y151.795 E7.26448
G1 X112.961 Y150.686 E7.35654
G1 X112.353 Y150.791 E7.39274
G1 X113.358 Y151.795 E7.47609
G1 X112.645 Y151.795 E7.51792
G1 X111.732 Y150.883 E7.59363
G3 X111.083 Y150.946 I-0.636 J-3.175 E7.63194
G1 X111.932 Y151.795 E7.70238
G1 X111.219 Y151.795 E7.74421
G1 X110.404 Y150.98 E7.81183
G3 X109.696 Y150.985 I-0.379 J-3.570 E7.85342
G1 X110.507 Y151.795 E7.92067
G1 X109.794 Y151.795 E7.9625
G1 X108.946 Y150.948 E8.03282
G3 X108.151 Y150.866 I0.020 J-4.084 E8.07976
G1 X109.081 Y151.795 E8.15688
G1 X108.368 Y151.795 E8.19871
G1 X107.314 Y150.741 E8.28616
G1 X106.382 Y150.521 E8.34234
G1 X107.656 Y151.795 E8.44805
G1 X106.943 Y151.795 E8.48988
G1 X105.369 Y150.221 E8.62048
G3 X104.214 Y149.779 I1.625 J-5.977 E8.69310
G1 X106.23 Y151.795 E8.86037
G1 X105.517 Y151.795 E8.9022
G1 X102.862 Y149.14 E9.12249
G1 X102.705 Y149.065 E9.1327
G1 X102.705 Y149.695 E9.16966
G1 X104.805 Y151.795 E9.3439
G1 X104.092 Y151.795 E9.38573
G1 X102.49 Y150.194 E9.51861
G1 X101.778 Y150.194 E9.56038
G1 X103.379 Y151.795 E9.69322
G1 X102.666 Y151.795 E9.73505
G1 X101.066 Y150.194 E9.86785
G1 X100.353 Y150.195 E9.90968
G1 X101.954 Y151.795 E10.04248
G1 X101.241 Y151.795 E10.08431
G1 X99.641 Y150.195 E10.21707
G1 X98.928 Y150.196 E10.2589
G1 X100.528 Y151.795 E10.39161
G1 X99.815 Y151.795 E10.43344
G1 X98.216 Y150.196 E10.56611
G1 X97.504 Y150.196 E10.60788
G1 X99.103 Y151.795 E10.74055
G1 X98.39 Y151.795 E10.78238
G1 X96.791 Y150.197 E10.91501
G1 X96.079 Y150.197 E10.95678
G1 X97.677 Y151.795 E11.08937
G1 X96.964 Y151.795 E11.1312
G1 X95.367 Y150.198 E11.26371
G1 X94.654 Y150.198 E11.30554
G1 X96.252 Y151.795 E11.43809
G1 X95.539 Y151.795 E11.47992
G1 X93.942 Y150.198 E11.61243
G1 X93.23 Y150.199 E11.6542
G1 X94.826 Y151.795 E11.78662
G1 X94.113 Y151.795 E11.82845
G1 X92.517 Y150.199 E11.96087
G1 X91.805 Y150.199 E12.00264
G1 X93.401 Y151.795 E12.13506
G1 X92.688 Y151.795 E12.17689
G1 X91.092 Y150.2 E12.30927
G1 X90.38 Y150.2 E12.35104
G1 X91.975 Y151.795 E12.48338
G1 X91.262 Y151.795 E12.52521
G1 X89.668 Y150.201 E12.65747
G1 X88.955 Y150.201 E12.6993
G1 X90.55 Y151.795 E12.8316
G1 X89.837 Y151.795 E12.87343
G1 X88.243 Y150.201 E13.00569
G1 X87.531 Y150.202 E13.04746
G1 X89.124 Y151.795 E13.17963
G1 X88.411 Y151.795 E13.22146
G1 X86.818 Y150.202 E13.35363
G1 X86.106 Y150.203 E13.3954
G1 X87.699 Y151.795 E13.52753
G1 X86.986 Y151.795 E13.56936
G1 X85.655 Y150.465 E13.67975
G1 X85.678 Y151.2 E13.72289
G1 X86.498 Y152.02 E13.79093
G1 E12.39093 F4800
;WIPE_START
G1 F5760
G1 X85.962 Y151.484 E11.79093
;WIPE_END
G92 E0
G1 X106.697 Y110.225 F7200
G1 E2 F4800
;TYPE:External perimeter
;WIDTH:0.56
G1 F3000
G1 X106.734 Y109.292 E2.05434
G1 X106.553 Y108.513 E2.10088
G1 X95.986 Y80.332 E3.85237
G1 X95.596 Y79.608 E3.90023
G2 X94.332 Y78.544 I-2.573 J1.773 E3.99737
G1 X93.429 Y78.262 E4.05242
G1 X92.933 Y78.22 E4.08139
G1 X84.272 Y78.22 E4.58542
G3 X84.146 Y73.780 I38.759 J-3.322 E4.84401
G1 X135.779 Y73.78 E7.84879
G1 X135.779 Y78.22 E8.10718
G1 X126.758 Y78.235 E8.63216
G1 X126.406 Y78.289 E8.65288
G1 X125.632 Y78.558 E8.70057
G1 X124.838 Y79.107 E8.75675
G2 X124.014 Y80.333 I2.274 J2.418 E8.84325
G1 X113.447 Y108.513 E10.59469
G1 X113.267 Y109.286 E10.64088
G1 X113.298 Y110.199 E10.69404
G1 X113.788 Y111.457 E10.77261
G1 X114.428 Y112.162 E10.82802
G1 X116 Y113.648 E10.95391
G1 X116.806 Y114.861 E11.03866
G3 X117.570 Y117.052 I-6.661 J3.551 E11.17410
G1 X117.711 Y118.397 E11.2528
G1 X117.349 Y120.796 E11.39399
G1 X116.802 Y122.144 E11.47865
G1 X116.206 Y123.076 E11.54303
G1 X115.317 Y124.095 E11.62173
G3 X103.789 Y123.071 I-5.309 J-5.632 E12.38326
G1 X103.202 Y122.154 E12.44662
G1 X102.647 Y120.787 E12.53248
G1 X102.333 Y119.362 E12.6174
G1 X102.286 Y118.386 E12.67426
G1 X102.432 Y117.038 E12.75317
G3 X104.010 Y113.635 I7.629 J1.470 E12.97358
G1 X105.572 Y112.163 E13.09848
G1 X106.209 Y111.46 E13.15369
G1 X106.691 Y110.284 E13.22765
G1 X107.077 Y110.099 F7200
G1 X107.167 Y110.442
;TYPE:Perimeter
G1 F3000
G1 X107.191 Y110.382 E13.23141
G1 X107.237 Y109.245 E13.29763
G1 X107.032 Y108.368 E13.35004
G1 X96.442 Y80.125 E15.10538
G1 X96.01 Y79.322 E15.15844
G2 X94.533 Y78.083 I-3.010 J2.088 E15.27178
G1 X93.525 Y77.768 E15.33324
G1 X92.954 Y77.72 E15.36659
G1 X84.746 Y77.72 E15.84425
G3 X84.644 Y74.280 I30.010 J-2.611 E16.04461
G1 X135.279 Y74.28 E18.99131
G1 X135.279 Y77.721 E19.19156
G1 X126.72 Y77.735 E19.68965
G1 X126.285 Y77.802 E19.71526
G1 X125.404 Y78.108 E19.76953
G1 X124.502 Y78.732 E19.83336
G1 X123.978 Y79.336 E19.87989
G1 X123.558 Y80.127 E19.93201
G1 X112.968 Y108.367 E21.68719
G1 X112.765 Y109.237 E21.73918
G1 X112.801 Y110.302 E21.80119
G1 X113.356 Y111.724 E21.89002
G1 X114.07 Y112.512 E21.9519
G1 X115.615 Y113.972 E22.07561
G1 X116.365 Y115.101 E22.15449
G3 X117.077 Y117.141 I-6.199 J3.308 E22.28061
G1 X117.207 Y118.385 E22.3534
G1 X116.864 Y120.663 E22.48746
G1 X116.356 Y121.914 E22.56604
G1 X115.805 Y122.776 E22.62558
G1 X114.963 Y123.741 E22.70011
G3 X103.648 Y121.923 I-4.955 J-5.280 E23.47029
G1 X103.126 Y120.638 E23.55101
G1 X102.83 Y119.296 E23.63098
G1 X102.787 Y118.402 E23.68307
G1 X102.925 Y117.129 E23.75759
G3 X104.387 Y113.967 I6.899 J1.271 E23.96227
G1 X105.929 Y112.513 E24.08561
G1 X106.639 Y111.731 E24.14708
G1 X107.144 Y110.498 E24.22462
G1 E22.82462 F4800
;WIPE_START
G1 F5760
G1 X107.191 Y110.382 E22.72554
G1 X107.217 Y109.75 E22.22462
;WIPE_END
G92 E0
G1 X122.333 Y81.33 F7200
G1 E2 F4800
G1 F3000
G2 X121.114 Y78.496 I-4.414 J0.220 E2.18311
G1 X119.806 Y77.587 E2.27581
G1 X119.088 Y77.347 E2.31987
G1 X118.131 Y77.22 E2.37605
G1 X101.869 Y77.22 E3.32242
G1 X100.858 Y77.354 E3.38177
G1 X99.736 Y77.836 E3.45283
G1 X99.12 Y78.281 E3.49705
G1 X98.292 Y79.252 E3.57131
