; HEADER_BLOCK_START
; generated by AnycubicSlicerNext 1.3.9.4 on 2026-06-14 at 14:37:06
; total layer number: 60
; filament_density: 1.24
; filament_diameter: 1.75
; max_z_height: 12.04
; exclude_object: 0
; model_instances: 3
; source_info: {"models":[{"file_source":0,"mo_file_id":-1,"name":"FlatCableClip_v4_id_0_copy_0"},{"file_source":0,"mo_file_id":-1,"name":"FlatCableClip_v4_id_1_copy_0"},{"file_source":0,"mo_file_id":-1,"name":"FlatCableClip_v4_id_2_copy_0"}],"models_from":0,"plate_index":1,"slice_paras_process":1,"software_version":"AnycubicSlicerNext 1.3.9.4 20260319224604"}
; paint_info = [{"material_type":"PLA","paint_color":[105,164,255],"paint_index":0}]
; project_info = {"flush_multiplier":1.0,"flush_volumes_chan_multipliers":[1.0,1.0,1.0,1.0],"flush_volumes_matrix":[0.0],"flush_volumes_vector":[140.0,140.0]}
; flush_multiplier_calculate_by_acnext: 1
; test_mode: 0
; HEADER_BLOCK_END

; THUMBNAIL_BLOCK_START
; THUMBNAIL_BLOCK_END

; external perimeters extrusion width = 0.42mm
; perimeters extrusion width = 0.45mm
; infill extrusion width = 0.45mm
; solid infill extrusion width = 0.42mm
; top infill extrusion width = 0.42mm
; first layer extrusion width = 0.50mm

; external perimeters extrusion width = 0.42mm
; perimeters extrusion width = 0.45mm
; infill extrusion width = 0.45mm
; solid infill extrusion width = 0.42mm
; top infill extrusion width = 0.42mm
; first layer extrusion width = 0.50mm

; external perimeters extrusion width = 0.42mm
; perimeters extrusion width = 0.45mm
; infill extrusion width = 0.45mm
; solid infill extrusion width = 0.42mm
; top infill extrusion width = 0.42mm
; first layer extrusion width = 0.50mm

; EXECUTABLE_BLOCK_START
M201 X2000 Y2000 Z800 E2000
M203 X300 Y300 Z8 E100
M204 P2000 R2000 T2000
M205 X10.00 Y10.00 Z2.00 E5.00
;TYPE:Custom
G90 ; use absolute coordinates
M83 ; extruder relative mode
M104 S220 ; set extruder temp
M140 S60 ; set bed temp
M190 S60 ; wait for bed temp
M109 S220 ; wait for extruder temp
G28                                        ; move X/Y/Z to min endstops
G1 Z0.28                                   ; lift nozzle a bit 
G92 E0 
G1 Y3 F1800                                    ; zero the extruded length 
G1 X60  E25 F500                       ; Extrude 25mm of filament in a 5cm line. 
G92 E0                                     ; zero the extruded length again 
G1 E-2 F500                                ; Retract a little 
G1 X70 F4000                              ; Quickly wipe away from the filament line
M117
G90
G21
M83 ; use relative distances for extrusion
; EXECUTABLE_BLOCK_HEAD
; filament start gcode
M75 ; The first extruder is ready.
M106 S0
;LAYER_CHANGE
;Z:0.24
;HEIGHT:0.24
; BEFORE_LAYER_CHANGE 0 @ 0.24mm
G92 E0
; AFTER_LAYER_CHANGE 0 @ 0.24mm
M204 S500
G1 E-.8 F3600
G1 X95.709 Y89.427 F18000
G1 Z.24
G1 E.8 F3600
;TYPE:Skirt
;WIDTH:0.5
G1 F3000
G1 X105.161 Y83.089 E.49909
G1 X106.213 Y82.593 E.05101
G1 X106.814 Y82.445 E.02714
G1 X107.583 Y82.376 E.03388
G1 X119.943 Y82.376 E.54203
G1 X121.187 Y82.482 E.05476
G1 X122.5 Y82.826 E.05954
G1 X123.731 Y83.399 E.05954
G1 X124.84 Y84.182 E.05954
G1 X125.791 Y85.151 E.05954
G1 X126.554 Y86.274 E.05954
G1 X127.104 Y87.515 E.05954
G1 X127.423 Y88.835 E.05954
G1 X127.502 Y89.71 E.03854
G1 X127.502 Y113.59 E1.04728
G1 X127.418 Y114.492 E.03973
G1 X127.104 Y115.785 E.05835
G1 X126.648 Y116.85 E.05082
G1 X126.197 Y117.605 E.03854
G1 X125.475 Y118.511 E.05082
G1 X124.99 Y118.987 E.0298
G1 X123.731 Y119.901 E.06825
G1 X123.129 Y120.215 E.0298
G1 X122.044 Y120.623 E.05082
G1 X120.512 Y120.9 E.06825
G1 X94.672 Y120.924 E1.13327
G1 X93.412 Y120.533 E.05784
G1 X92.595 Y119.498 E.05784
G1 X92.447 Y118.7 E.03558
G1 X92.447 Y92.8 E1.13587
G1 X92.838 Y91.54 E.05784
G1 X93.433 Y90.953 E.03667
G1 X95.676 Y89.449 E.11842
; printing object "FlatCableClip v4" id:2 copy 0
G1 E-.8 F3600
G1 X109.644 Y110.762 F18000
G1 E.8 F3600
;TYPE:Outer wall
G1 F2400
G1 X109.414 Y110.997 E.01444
G1 X109.06 Y111.484 E.0264
G1 X108.875 Y111.676 E.01169
G1 X108.666 Y111.841 E.01168
G1 X108.436 Y111.975 E.01168
G1 X108.19 Y112.076 E.01168
G1 X107.932 Y112.142 E.01168
G1 X107.668 Y112.172 E.01166
G1 X107.395 Y112.165 E.01195
G1 X107.138 Y112.122 E.01142
G1 X106.884 Y112.043 E.01166
G1 X106.638 Y111.926 E.01195
G1 X106.421 Y111.783 E.01142
G1 X106.22 Y111.608 E.01168
G1 X106.046 Y111.407 E.01168
G1 X105.901 Y111.183 E.01168
G1 X105.788 Y110.942 E.01168
G1 X105.71 Y110.688 E.01168
G1 X105.667 Y110.425 E.01166
G1 X105.662 Y110.153 E.01195
G1 X105.692 Y109.894 E.01142
G1 X105.76 Y109.637 E.01168
G1 X105.862 Y109.391 E.01166
G1 X106 Y109.157 E.01195
G1 X106.162 Y108.953 E.01142
G1 X106.355 Y108.769 E.01168
G1 X106.571 Y108.614 E.01168
G1 X106.807 Y108.489 E.01168
G1 X107.057 Y108.399 E.01168
G1 X107.318 Y108.344 E.01168
G1 X107.595 Y108.325 E.01217
G1 X108.078 Y108.325 E.02119
G1 X119.935 Y108.325 E.52003
G1 X120.383 Y108.346 E.01967
G1 X120.83 Y108.406 E.01977
G1 X121.27 Y108.506 E.01977
G1 X121.699 Y108.646 E.01977
G1 X122.113 Y108.823 E.01977
G1 X122.51 Y109.037 E.01977
G1 X122.886 Y109.285 E.01977
G1 X123.239 Y109.566 E.01977
G1 X123.565 Y109.878 E.01977
G1 X123.861 Y110.217 E.01976
G1 X124.131 Y110.59 E.02019
G1 X124.358 Y110.969 E.01936
G1 X124.553 Y111.375 E.01977
G1 X124.712 Y111.797 E.01977
G1 X124.832 Y112.232 E.01977
G1 X124.912 Y112.676 E.01977
G1 X124.953 Y113.125 E.01977
G1 X124.953 Y113.575 E.01977
G1 X124.912 Y114.024 E.01977
G1 X124.832 Y114.468 E.01977
G1 X124.712 Y114.903 E.01977
G1 X124.553 Y115.325 E.01977
G1 X124.358 Y115.731 E.01976
G1 X124.121 Y116.126 E.02019
G1 X123.862 Y116.483 E.01936
G1 X123.565 Y116.822 E.01977
G1 X123.239 Y117.134 E.01977
G1 X122.886 Y117.415 E.01977
G1 X122.51 Y117.663 E.01977
G1 X122.113 Y117.877 E.01976
G1 X121.69 Y118.057 E.02019
G1 X121.27 Y118.194 E.01936
G1 X120.83 Y118.294 E.01977
G1 X120.383 Y118.354 E.01977
G1 X119.926 Y118.375 E.02009
G1 X95.44 Y118.375 E1.07385
G1 X95.44 Y116.525 E.08113
G1 X119.943 Y116.525 E1.0746
G1 X120.316 Y116.502 E.0164
G1 X120.686 Y116.435 E.0165
G1 X121.06 Y116.319 E.01714
G1 X121.41 Y116.161 E.01685
G1 X121.738 Y115.963 E.01683
G1 X122.034 Y115.731 E.0165
G1 X122.311 Y115.454 E.01715
G1 X122.548 Y115.152 E.01684
G1 X122.746 Y114.823 E.01683
G1 X122.903 Y114.473 E.01683
G1 X123.017 Y114.107 E.01683
G1 X123.086 Y113.729 E.01682
G1 X123.109 Y113.354 E.0165
G1 X123.086 Y112.971 E.01683
G1 X123.015 Y112.586 E.01715
G1 X122.903 Y112.227 E.01651
G1 X122.746 Y111.877 E.01682
G1 X122.548 Y111.548 E.01683
G1 X122.311 Y111.246 E.01684
G1 X122.034 Y110.969 E.01715
G1 X121.738 Y110.737 E.0165
G1 X121.41 Y110.539 E.01683
G1 X121.06 Y110.381 E.01685
G1 X120.686 Y110.265 E.01714
G1 X120.316 Y110.198 E.0165
G1 X119.943 Y110.175 E.0164
G1 X111.177 Y110.175 E.38443
G1 X110.854 Y110.198 E.01423
G1 X110.525 Y110.271 E.01475
G1 X110.211 Y110.39 E.01475
G1 X109.917 Y110.553 E.01475
G1 X109.659 Y110.749 E.01418
G1 X109.332 Y110.44 F18000
;TYPE:Inner wall
G1 F2400
G1 X109.07 Y110.707 E.01638
G1 X108.715 Y111.196 E.02649
G1 X108.573 Y111.343 E.00897
G1 X108.413 Y111.469 E.00895
G1 X108.237 Y111.572 E.00895
G1 X108.048 Y111.65 E.00895
G1 X107.85 Y111.7 E.00895
G1 X107.649 Y111.723 E.0089
G1 X107.438 Y111.717 E.00922
G1 X107.242 Y111.685 E.00872
G1 X107.048 Y111.624 E.0089
G1 X106.859 Y111.534 E.00922
G1 X106.692 Y111.425 E.00872
G1 X106.539 Y111.291 E.00895
G1 X106.405 Y111.136 E.00895
G1 X106.294 Y110.965 E.00895
G1 X106.207 Y110.78 E.00895
G1 X106.147 Y110.585 E.00895
G1 X106.115 Y110.385 E.0089
G1 X106.111 Y110.175 E.00922
G1 X106.134 Y109.977 E.00872
G1 X106.186 Y109.78 E.00895
G1 X106.264 Y109.592 E.0089
G1 X106.371 Y109.412 E.00922
G1 X106.494 Y109.256 E.00872
G1 X106.642 Y109.115 E.00895
G1 X106.808 Y108.996 E.00895
G1 X106.988 Y108.901 E.00895
G1 X107.18 Y108.832 E.00895
G1 X107.38 Y108.789 E.00895
G1 X108.078 Y108.774 E.03062
G1 X119.925 Y108.774 E.51959
G1 X120.343 Y108.793 E.01835
G1 X120.75 Y108.848 E.01801
G1 X121.15 Y108.939 E.01801
G1 X121.541 Y109.066 E.01801
G1 X121.918 Y109.227 E.01801
G1 X122.28 Y109.422 E.01801
G1 X122.623 Y109.648 E.01801
G1 X122.944 Y109.904 E.01801
G1 X123.24 Y110.188 E.01801
G1 X123.51 Y110.497 E.01797
G1 X123.756 Y110.837 E.01843
G1 X123.962 Y111.182 E.01761
G1 X124.141 Y111.552 E.01801
G1 X124.285 Y111.936 E.01801
G1 X124.394 Y112.332 E.01801
G1 X124.467 Y112.736 E.01801
G1 X124.504 Y113.145 E.01801
G1 X124.504 Y113.555 E.01801
G1 X124.467 Y113.964 E.01801
G1 X124.394 Y114.368 E.01801
G1 X124.285 Y114.764 E.01801
G1 X124.141 Y115.148 E.01801
G1 X123.963 Y115.518 E.01798
G1 X123.747 Y115.878 E.01843
G1 X123.511 Y116.203 E.01762
G1 X123.24 Y116.512 E.01801
G1 X122.944 Y116.796 E.01801
G1 X122.623 Y117.052 E.01801
G1 X122.28 Y117.278 E.01801
G1 X121.919 Y117.472 E.01798
G1 X121.532 Y117.637 E.01843
G1 X121.15 Y117.761 E.01761
G1 X120.75 Y117.852 E.01801
G1 X120.343 Y117.907 E.01801
G1 X119.916 Y117.927 E.01877
G1 X95.889 Y117.927 E1.05374
G1 X95.889 Y116.973 E.0418
G1 X119.956 Y116.973 E1.05552
G1 X120.37 Y116.948 E.01818
G1 X120.793 Y116.871 E.01886
G1 X121.219 Y116.739 E.01953
G1 X121.619 Y116.559 E.01925
G1 X121.994 Y116.332 E.0192
G1 X122.332 Y116.067 E.01887
G1 X122.648 Y115.752 E.01953
G1 X122.918 Y115.407 E.01925
G1 X123.144 Y115.032 E.01921
G1 X123.324 Y114.632 E.01921
G1 X123.453 Y114.214 E.01921
G1 X123.532 Y113.783 E.01919
G1 X123.558 Y113.354 E.01885
G1 X123.532 Y112.917 E.01921
G1 X123.451 Y112.478 E.01954
G1 X123.323 Y112.068 E.01887
G1 X123.144 Y111.668 E.01919
G1 X122.918 Y111.293 E.01921
G1 X122.648 Y110.948 E.01925
G1 X122.332 Y110.633 E.01953
G1 X121.994 Y110.368 E.01887
G1 X121.619 Y110.141 E.0192
G1 X121.219 Y109.961 E.01925
G1 X120.793 Y109.829 E.01953
G1 X120.37 Y109.752 E.01886
G1 X119.956 Y109.727 E.01818
G1 X111.161 Y109.727 E.38574
G1 X110.789 Y109.753 E.01637
G1 X110.397 Y109.84 E.0176
G1 X110.022 Y109.982 E.0176
G1 X109.671 Y110.177 E.0176
G1 X109.352 Y110.42 E.0176
G1 X109.346 Y110.426 E.00037
G1 E-.8 F3600
G1 X109.257 Y108.908 F18000
G1 E.8 F3600
;TYPE:Bottom surface
;WIDTH:0.517457
G1 F3000
G1 X109.985 Y109.636 E.04691
G1 X109.88 Y109.676 E.00513
G1 X109.549 Y109.859 E.01722
G1 X108.8 Y109.11 E.04828
G1 X108.141 Y109.11 E.03003
G1 X109.168 Y110.137 E.06617
G1 X108.837 Y110.465 E.02123
G1 X107.495 Y109.123 E.08643
G1 X107.272 Y109.156 E.01027
G1 X106.992 Y109.279 E.01395
G1 X108.556 Y110.843 E.10076
G1 X108.457 Y110.979 E.00769
G1 X108.235 Y111.181 E.01365
G1 X106.652 Y109.598 E.102
G1 X106.505 Y109.887 E.01479
G1 X106.462 Y110.067 E.00842
G1 X107.766 Y111.371 E.08404
G1 X107.471 Y111.382 E.01348
G1 X107.32 Y111.357 E.00696
G1 X107.024 Y111.24 E.01452
G1 X106.869 Y111.133 E.00859
G1 X106.276 Y110.54 E.03817
G1 E-.8 F3600
G1 X110.381 Y109.302 F18000
G1 E.8 F3600
;TYPE:Gap infill
;WIDTH:0.557751
G1 F2400
G1 X110.737 Y109.265 E.0177
G1 X111.153 Y109.25 E.0206
G1 X119.915 Y109.25 E.43373
G1 X120.3 Y109.269 E.01912
;WIDTH:0.555619
G1 X120.892 Y109.366 E.02954
G1 X121.401 Y109.522 E.02626
G1 X121.711 Y109.658 E.01669
G1 X122.034 Y109.833 E.01812
G1 X122.342 Y110.035 E.01812
G1 X122.658 Y110.287 E.01995
G1 X122.894 Y110.519 E.01631
G1 X123.135 Y110.795 E.01806
G1 X123.358 Y111.099 E.0186
G1 X123.558 Y111.435 E.01923
G1 X123.7 Y111.74 E.01661
G1 X123.83 Y112.084 E.01812
G1 X123.929 Y112.438 E.01813
G1 X124.001 Y112.845 E.02036
G1 X124.026 Y113.166 E.0159
G1 X124.026 Y113.534 E.01812
G1 X123.995 Y113.9 E.01813
G1 X123.918 Y114.312 E.02065
G1 X123.829 Y114.616 E.0156
G1 X123.7 Y114.96 E.01812
G1 X123.558 Y115.265 E.0166
G1 X123.349 Y115.615 E.02007
G1 X123.012 Y116.055 E.02732
G1 X122.63 Y116.437 E.02662
G1 X122.342 Y116.665 E.01813
G1 X122.034 Y116.867 E.01812
G1 X121.712 Y117.041 E.01807
G1 X121.366 Y117.191 E.0186
G1 X121.023 Y117.3 E.01771
G1 X120.665 Y117.381 E.01812
G1 X120.3 Y117.431 E.01812
G1 X119.905 Y117.45 E.01951
G1 X96.113 Y117.45 E1.17283
; stop printing object FlatCableClip v4 id:2 copy 0
; printing object "FlatCableClip v4" id:0 copy 0
G1 E-.8 F3600
G1 X109.644 Y99.062 F18000
G1 E.8 F3600
;TYPE:Outer wall
;WIDTH:0.5
G1 F2400
G1 X109.414 Y99.297 E.01444
G1 X109.06 Y99.784 E.0264
G1 X108.875 Y99.976 E.01169
G1 X108.666 Y100.141 E.01168
G1 X108.436 Y100.275 E.01168
G1 X108.19 Y100.376 E.01168
G1 X107.932 Y100.442 E.01168
G1 X107.668 Y100.472 E.01166
G1 X107.395 Y100.465 E.01195
G1 X107.138 Y100.422 E.01142
G1 X106.884 Y100.343 E.01166
G1 X106.638 Y100.226 E.01195
G1 X106.421 Y100.083 E.01142
G1 X106.22 Y99.908 E.01168
G1 X106.046 Y99.707 E.01168
G1 X105.901 Y99.483 E.01168
G1 X105.788 Y99.242 E.01168
G1 X105.71 Y98.988 E.01168
G1 X105.667 Y98.725 E.01166
G1 X105.662 Y98.453 E.01195
G1 X105.692 Y98.194 E.01142
G1 X105.76 Y97.937 E.01168
G1 X105.862 Y97.691 E.01166
G1 X106 Y97.457 E.01195
G1 X106.162 Y97.253 E.01142
G1 X106.355 Y97.069 E.01168
G1 X106.571 Y96.914 E.01168
G1 X106.807 Y96.789 E.01168
G1 X107.057 Y96.699 E.01168
G1 X107.318 Y96.644 E.01168
G1 X107.595 Y96.625 E.01217
G1 X108.078 Y96.625 E.02119
G1 X119.935 Y96.625 E.52003
G1 X120.383 Y96.646 E.01967
G1 X120.83 Y96.706 E.01977
G1 X121.27 Y96.806 E.01977
G1 X121.699 Y96.946 E.01977
G1 X122.113 Y97.123 E.01977
G1 X122.51 Y97.337 E.01977
G1 X122.886 Y97.585 E.01977
G1 X123.239 Y97.866 E.01977
G1 X123.565 Y98.178 E.01977
G1 X123.861 Y98.517 E.01976
G1 X124.131 Y98.89 E.02019
G1 X124.358 Y99.269 E.01936
G1 X124.553 Y99.675 E.01977
G1 X124.712 Y100.097 E.01977
G1 X124.832 Y100.532 E.01977
G1 X124.912 Y100.976 E.01977
G1 X124.953 Y101.425 E.01977
G1 X124.953 Y101.875 E.01977
G1 X124.912 Y102.324 E.01977
G1 X124.832 Y102.768 E.01977
G1 X124.712 Y103.203 E.01977
G1 X124.553 Y103.625 E.01977
G1 X124.358 Y104.031 E.01976
G1 X124.121 Y104.426 E.02019
G1 X123.862 Y104.783 E.01936
G1 X123.565 Y105.122 E.01977
G1 X123.239 Y105.434 E.01977
G1 X122.886 Y105.715 E.01977
G1 X122.51 Y105.963 E.01977
G1 X122.113 Y106.177 E.01976
G1 X121.69 Y106.357 E.02019
G1 X121.27 Y106.494 E.01936
G1 X120.83 Y106.594 E.01977
G1 X120.383 Y106.654 E.01977
G1 X119.926 Y106.675 E.02009
G1 X95.44 Y106.675 E1.07385
G1 X95.44 Y104.825 E.08113
G1 X119.943 Y104.825 E1.0746
G1 X120.316 Y104.802 E.0164
G1 X120.686 Y104.735 E.0165
G1 X121.06 Y104.619 E.01714
G1 X121.41 Y104.461 E.01685
G1 X121.738 Y104.263 E.01683
G1 X122.034 Y104.031 E.0165
G1 X122.311 Y103.754 E.01715
G1 X122.548 Y103.452 E.01684
G1 X122.746 Y103.123 E.01683
G1 X122.903 Y102.773 E.01683
G1 X123.017 Y102.407 E.01683
G1 X123.086 Y102.029 E.01682
G1 X123.109 Y101.654 E.0165
G1 X123.086 Y101.271 E.01683
G1 X123.015 Y100.886 E.01715
G1 X122.903 Y100.527 E.01651
G1 X122.746 Y100.177 E.01682
G1 X122.548 Y99.848 E.01683
G1 X122.311 Y99.546 E.01684
G1 X122.034 Y99.269 E.01715
G1 X121.738 Y99.037 E.0165
G1 X121.41 Y98.839 E.01683
G1 X121.06 Y98.681 E.01685
G1 X120.686 Y98.565 E.01714
G1 X120.316 Y98.498 E.0165
G1 X119.943 Y98.475 E.0164
G1 X111.177 Y98.475 E.38443
G1 X110.854 Y98.498 E.01423
G1 X110.525 Y98.571 E.01475
G1 X110.211 Y98.69 E.01475
G1 X109.917 Y98.853 E.01475
G1 X109.659 Y99.049 E.01418
G1 X109.332 Y98.74 F18000
;TYPE:Inner wall
G1 F2400
G1 X109.07 Y99.007 E.01638
G1 X108.715 Y99.496 E.02649
G1 X108.573 Y99.643 E.00897
G1 X108.413 Y99.769 E.00895
G1 X108.237 Y99.872 E.00895
G1 X108.048 Y99.95 E.00895
G1 X107.85 Y100 E.00895
G1 X107.649 Y100.023 E.0089
G1 X107.438 Y100.017 E.00922
G1 X107.242 Y99.985 E.00872
G1 X107.048 Y99.924 E.0089
G1 X106.859 Y99.834 E.00922
G1 X106.692 Y99.725 E.00872
G1 X106.539 Y99.591 E.00895
G1 X106.405 Y99.436 E.00895
G1 X106.294 Y99.265 E.00895
G1 X106.207 Y99.08 E.00895
G1 X106.147 Y98.885 E.00895
G1 X106.115 Y98.685 E.0089
G1 X106.111 Y98.475 E.00922
G1 X106.134 Y98.277 E.00872
G1 X106.186 Y98.08 E.00895
G1 X106.264 Y97.892 E.0089
G1 X106.371 Y97.712 E.00922
G1 X106.494 Y97.556 E.00872
G1 X106.642 Y97.415 E.00895
G1 X106.808 Y97.296 E.00895
G1 X106.988 Y97.201 E.00895
G1 X107.18 Y97.132 E.00895
G1 X107.38 Y97.089 E.00895
G1 X108.078 Y97.074 E.03062
G1 X119.925 Y97.074 E.51959
G1 X120.343 Y97.093 E.01835
G1 X120.75 Y97.148 E.01801
G1 X121.15 Y97.239 E.01801
G1 X121.541 Y97.366 E.01801
G1 X121.918 Y97.527 E.01801
G1 X122.28 Y97.722 E.01801
G1 X122.623 Y97.948 E.01801
