; HEADER_BLOCK_START
; generated by AnycubicSlicerNext 1.3.9.3 on 2026-02-22 at 14:34:16
; total layer number: 22
; filament_density: 1.24
; filament_diameter: 1.75
; max_z_height: 4.64
; exclude_object: 0
; model_instances: 1
; source_info: {"models":[{"file_source":0,"mo_file_id":-1,"name":"GridfinityBase4x4.stl_id_0_copy_0"}],"models_from":0,"plate_index":1,"slice_paras_process":1,"software_version":"AnycubicSlicerNext 1.3.9.3 20260131153104"}
; paint_info = [{"material_type":"PLA","paint_color":[105,164,255],"paint_index":0}]
; project_info = {"flush_multiplier":1.0,"flush_volumes_chan_multipliers":[1.0,1.0,1.0,1.0],"flush_volumes_matrix":[0.0],"flush_volumes_vector":[140.0,140.0]}
; flush_multiplier_calculate_by_acnext: 0
; test_mode: 0
; HEADER_BLOCK_END

; THUMBNAIL_BLOCK_START
; THUMBNAIL_BLOCK_END

; external perimeters extrusion width = 0.42mm
; perimeters extrusion width = 0.45mm
; infill extrusion width = 0.45mm
; solid infill extrusion width = 0.42mm
; top infill extrusion width = 0.42mm
; first layer extrusion width = 0.50mm

; EXECUTABLE_BLOCK_START
M201 X2000 Y2000 Z800 E2000
M203 X300 Y300 Z8 E100
M204 P2000 R2000 T2000
M205 X10.00 Y10.00 Z2.00 E5.00
;TYPE:Custom
G90 ; use absolute coordinates
M83 ; extruder relative mode
M104 S220 ; set extruder temp
M140 S60 ; set bed temp
M190 S60 ; wait for bed temp
M109 S220 ; wait for extruder temp
G28                                        ; move X/Y/Z to min endstops
G1 Z0.28                                   ; lift nozzle a bit 
G92 E0 
G1 Y3 F1800                                    ; zero the extruded length 
G1 X60  E25 F500                       ; Extrude 25mm of filament in a 5cm line. 
G92 E0                                     ; zero the extruded length again 
G1 E-2 F500                                ; Retract a little 
G1 X70 F4000                              ; Quickly wipe away from the filament line
M117
G90
G21
M83 ; use relative distances for extrusion
; EXECUTABLE_BLOCK_HEAD
; filament start gcode
M75 ; The first extruder is ready.
M106 S0
;LAYER_CHANGE
;Z:0.24
;HEIGHT:0.24
; BEFORE_LAYER_CHANGE 0 @ 0.24mm
G92 E0
; AFTER_LAYER_CHANGE 0 @ 0.24mm
M204 S500
G1 E-.8 F3600
G1 X25.221 Y25.399 F18000
G1 Z.24
G1 E.8 F3600
;TYPE:Skirt
;WIDTH:0.5
G1 F3000
G1 X26.084 Y24.61 E.0513
G1 X27.382 Y23.873 E.06543
G1 X28.811 Y23.444 E.06543
G1 X30 Y23.327 E.05241
G1 X190.299 Y23.344 E7.03009
G1 X191.189 Y23.444 E.03928
G1 X192.618 Y23.873 E.06543
G1 X193.916 Y24.61 E.06543
G1 X195.017 Y25.616 E.06543
G1 X195.39 Y26.084 E.02625
G1 X196.127 Y27.382 E.06543
G1 X196.556 Y28.811 E.06543
G1 X196.673 Y30 E.05241
G1 X196.673 Y190 E7.01697
G1 X196.556 Y191.189 E.05241
G1 X196.127 Y192.618 E.06543
G1 X195.39 Y193.916 E.06543
G1 X195.017 Y194.384 E.02625
G1 X193.916 Y195.39 E.06543
G1 X192.618 Y196.127 E.06543
G1 X191.189 Y196.556 E.06543
G1 X190 Y196.673 E.05241
G1 X30 Y196.673 E7.01697
G1 X28.811 Y196.556 E.05241
G1 X27.382 Y196.127 E.06543
G1 X26.084 Y195.39 E.06543
G1 X25.616 Y195.017 E.02625
G1 X24.61 Y193.916 E.06543
G1 X23.873 Y192.618 E.06543
G1 X23.444 Y191.189 E.06543
G1 X23.327 Y190 E.05241
G1 X23.327 Y30 E7.01697
G1 X23.444 Y28.811 E.05241
G1 X23.873 Y27.382 E.06543
G1 X24.61 Y26.084 E.06543
G1 X24.983 Y25.616 E.02625
G1 X25.191 Y25.426 E.01237
G1 X25.494 Y25.754 F18000
G1 F3000
G1 X26.323 Y24.989 E.04945
G1 X27.53 Y24.297 E.06104
G1 X28.861 Y23.89 E.06104
G1 X30 Y23.776 E.05021
G1 X190.249 Y23.79 E7.02789
G1 X191.625 Y24.001 E.06104
G1 X192.47 Y24.297 E.03928
G1 X193.677 Y24.989 E.06104
G1 X194.7 Y25.933 E.06104
G1 X195.011 Y26.323 E.02184
G1 X195.703 Y27.53 E.06104
G1 X196.11 Y28.861 E.06104
G1 X196.224 Y30 E.05021
G1 X196.224 Y190 E7.01697
G1 X196.11 Y191.139 E.05021
G1 X195.703 Y192.47 E.06104
G1 X195.011 Y193.677 E.06104
G1 X194.7 Y194.067 E.02184
G1 X193.677 Y195.011 E.06104
G1 X192.47 Y195.703 E.06104
G1 X191.139 Y196.11 E.06104
G1 X190 Y196.224 E.05021
G1 X30 Y196.224 E7.01697
G1 X28.861 Y196.11 E.05021
G1 X27.53 Y195.703 E.06104
G1 X26.323 Y195.011 E.06104
G1 X25.933 Y194.7 E.02184
G1 X24.989 Y193.677 E.06104
G1 X24.297 Y192.47 E.06104
G1 X23.89 Y191.139 E.06104
G1 X23.776 Y190 E.05021
G1 X23.776 Y30 E7.01697
G1 X23.89 Y28.861 E.05021
G1 X24.297 Y27.53 E.06104
G1 X24.989 Y26.323 E.06104
G1 X25.3 Y25.933 E.02184
G1 X25.465 Y25.781 E.00983
; printing object "GridfinityBase4x4.stl" id:0 copy 0
G1 E-.8 F3600
G1 X192.29 Y192.872 F18000
G1 E.8 F3600
;TYPE:Outer wall
G1 F2400
G1 X191.594 Y193.309 E.03607
G1 X190.817 Y193.581 E.03607
G1 X189.982 Y193.675 E.03688
G1 X30.018 Y193.675 E7.01537
G1 X29.183 Y193.581 E.03688
G1 X28.406 Y193.309 E.03607
G1 X27.71 Y192.872 E.03607
G1 X27.128 Y192.29 E.03607
G1 X26.691 Y191.594 E.03607
G1 X26.419 Y190.817 E.03607
G1 X26.325 Y189.982 E.03688
G1 X26.325 Y30.018 E7.01537
G1 X26.419 Y29.183 E.03688
G1 X26.691 Y28.406 E.03607
G1 X27.128 Y27.71 E.03607
G1 X27.71 Y27.128 E.03607
G1 X28.406 Y26.691 E.03607
G1 X29.183 Y26.419 E.03607
G1 X30.018 Y26.325 E.03688
G1 X190.001 Y26.327 E7.01619
G1 X190.817 Y26.419 E.03605
G1 X191.594 Y26.691 E.03607
G1 X192.29 Y27.128 E.03607
G1 X192.872 Y27.71 E.03607
G1 X193.309 Y28.406 E.03607
G1 X193.581 Y29.183 E.03607
G1 X193.675 Y30.018 E.03688
G1 X193.675 Y189.982 E7.01537
G1 X193.581 Y190.817 E.03688
G1 X193.309 Y191.594 E.03607
G1 X192.872 Y192.29 E.03607
G1 X192.304 Y192.857 E.03519
G1 X192.009 Y192.519 F18000
;TYPE:Inner wall
G1 F2400
G1 X191.398 Y192.903 E.03164
G1 X190.717 Y193.141 E.03164
G1 X189.957 Y193.227 E.03355
G1 X30.043 Y193.227 E7.01316
G1 X29.283 Y193.141 E.03355
G1 X28.602 Y192.903 E.03164
G1 X27.991 Y192.519 E.03164
G1 X27.481 Y192.009 E.03164
G1 X27.097 Y191.398 E.03164
G1 X26.859 Y190.717 E.03164
G1 X26.773 Y189.957 E.03355
G1 X26.773 Y30.043 E7.01316
G1 X26.859 Y29.283 E.03355
G1 X27.097 Y28.602 E.03164
G1 X27.481 Y27.991 E.03164
G1 X27.991 Y27.481 E.03164
G1 X28.602 Y27.097 E.03164
G1 X29.283 Y26.859 E.03164
G1 X30.043 Y26.773 E.03355
G1 X189.975 Y26.776 E7.01398
G1 X190.717 Y26.859 E.03273
G1 X191.398 Y27.097 E.03164
G1 X192.009 Y27.481 E.03164
G1 X192.519 Y27.991 E.03164
G1 X192.903 Y28.602 E.03164
G1 X193.141 Y29.283 E.03164
G1 X193.227 Y30.043 E.03355
G1 X193.227 Y189.957 E7.01316
G1 X193.141 Y190.717 E.03355
G1 X192.903 Y191.398 E.03164
G1 X192.519 Y192.009 E.03164
G1 X192.023 Y192.505 E.03076
G1 E-.8 F3600
G1 X65.595 Y65.595 F18000
G1 E.8 F3600
;TYPE:Outer wall
G1 F2400
G1 X65.595 Y28.405 E1.63101
G1 X29.973 Y28.405 E1.56225
G1 X29.557 Y28.471 E.01847
G1 X29.332 Y28.55 E.01047
G1 X28.959 Y28.792 E.01948
G1 X28.792 Y28.959 E.01037
G1 X28.55 Y29.332 E.01948
G1 X28.471 Y29.557 E.01047
G1 X28.405 Y29.973 E.01847
G1 X28.405 Y65.595 E1.56225
G1 X65.575 Y65.595 E1.63013
G1 X66.043 Y66.043 F18000
;TYPE:Inner wall
G1 F2400
G1 X66.043 Y27.957 E1.67034
G1 X29.937 Y27.957 E1.58347
G1 X29.447 Y28.035 E.02179
G1 X29.133 Y28.144 E.0146
G1 X28.675 Y28.441 E.02391
G1 X28.441 Y28.675 E.0145
G1 X28.144 Y29.133 E.02391
G1 X28.035 Y29.447 E.0146
G1 X27.957 Y29.937 E.02179
G1 X27.957 Y66.043 E1.58347
G1 X66.023 Y66.043 E1.66947
G1 E-.8 F3600
G1 X107.595 Y65.595 F18000
G1 E.8 F3600
;TYPE:Outer wall
G1 F2400
G1 X107.595 Y28.405 E1.63101
G1 X70.405 Y28.405 E1.63101
G1 X70.405 Y65.595 E1.63101
G1 X107.575 Y65.595 E1.63013
G1 X108.043 Y66.043 F18000
;TYPE:Inner wall
G1 F2400
G1 X108.043 Y27.957 E1.67034
G1 X69.957 Y27.957 E1.67034
G1 X69.957 Y66.043 E1.67034
G1 X108.023 Y66.043 E1.66947
G1 E-.8 F3600
G1 X107.595 Y70.405 F18000
G1 E.8 F3600
;TYPE:Outer wall
G1 F2400
G1 X70.405 Y70.405 E1.63101
G1 X70.405 Y107.595 E1.63101
G1 X107.595 Y107.595 E1.63101
G1 X107.595 Y70.425 E1.63013
G1 X108.043 Y69.957 F18000
;TYPE:Inner wall
G1 F2400
G1 X69.957 Y69.957 E1.67034
G1 X69.957 Y108.043 E1.67034
G1 X108.043 Y108.043 E1.67034
G1 X108.043 Y69.977 E1.66947
G1 E-.8 F3600
G1 X65.595 Y70.405 F18000
G1 E.8 F3600
;TYPE:Outer wall
G1 F2400
G1 X28.405 Y70.405 E1.63101
G1 X28.405 Y107.595 E1.63101
G1 X65.595 Y107.595 E1.63101
G1 X65.595 Y70.425 E1.63013
G1 X66.043 Y69.957 F18000
;TYPE:Inner wall
G1 F2400
G1 X27.957 Y69.957 E1.67034
G1 X27.957 Y108.043 E1.67034
G1 X66.043 Y108.043 E1.67034
G1 X66.043 Y69.977 E1.66947
G1 E-.8 F3600
G1 X65.595 Y149.595 F18000
G1 E.8 F3600
;TYPE:Outer wall
G1 F2400
G1 X65.595 Y112.405 E1.63101
G1 X28.405 Y112.405 E1.63101
G1 X28.405 Y149.595 E1.63101
G1 X65.575 Y149.595 E1.63013
G1 X66.043 Y150.043 F18000
;TYPE:Inner wall
G1 F2400
G1 X66.043 Y111.957 E1.67034
G1 X27.957 Y111.957 E1.67034
G1 X27.957 Y150.043 E1.67034
G1 X66.023 Y150.043 E1.66947
G1 E-.8 F3600
G1 X65.595 Y191.595 F18000
G1 E.8 F3600
;TYPE:Outer wall
G1 F2400
G1 X65.595 Y154.405 E1.63101
G1 X28.405 Y154.405 E1.63101
G1 X28.405 Y190.027 E1.56225
G1 X28.471 Y190.443 E.01847
G1 X28.55 Y190.668 E.01047
G1 X28.792 Y191.041 E.01948
G1 X28.959 Y191.208 E.01037
G1 X29.332 Y191.45 E.01948
G1 X29.557 Y191.529 E.01047
G1 X29.973 Y191.595 E.01847
G1 X65.575 Y191.595 E1.56137
G1 X66.043 Y192.043 F18000
;TYPE:Inner wall
G1 F2400
G1 X66.043 Y153.957 E1.67034
G1 X27.957 Y153.957 E1.67034
G1 X27.957 Y190.063 E1.58347
G1 X28.035 Y190.553 E.02179
G1 X28.144 Y190.867 E.0146
G1 X28.441 Y191.325 E.02391
G1 X28.675 Y191.559 E.0145
G1 X29.133 Y191.856 E.02391
G1 X29.447 Y191.965 E.0146
G1 X29.937 Y192.043 E.02179
G1 X66.023 Y192.043 E1.58259
G1 E-.8 F3600
G1 X70.405 Y191.595 F18000
G1 E.8 F3600
;TYPE:Outer wall
G1 F2400
G1 X107.595 Y191.595 E1.63101
G1 X107.595 Y154.405 E1.63101
G1 X70.405 Y154.405 E1.63101
G1 X70.405 Y191.575 E1.63013
G1 X69.957 Y192.043 F18000
;TYPE:Inner wall
G1 F2400
G1 X108.043 Y192.043 E1.67034
G1 X108.043 Y153.957 E1.67034
G1 X69.957 Y153.957 E1.67034
G1 X69.957 Y192.023 E1.66947
G1 E-.8 F3600
G1 X107.595 Y112.405 F18000
G1 E.8 F3600
;TYPE:Outer wall
G1 F2400
G1 X70.405 Y112.405 E1.63101
G1 X70.405 Y149.595 E1.63101
G1 X107.595 Y149.595 E1.63101
G1 X107.595 Y112.425 E1.63013
G1 X108.043 Y111.957 F18000
;TYPE:Inner wall
G1 F2400
G1 X69.957 Y111.957 E1.67034
G1 X69.957 Y150.043 E1.67034
G1 X108.043 Y150.043 E1.67034
G1 X108.043 Y111.977 E1.66947
G1 E-.8 F3600
G1 X149.595 Y107.595 F18000
G1 E.8 F3600
;TYPE:Outer wall
G1 F2400
G1 X149.595 Y70.405 E1.63101
G1 X112.405 Y70.405 E1.63101
G1 X112.405 Y107.595 E1.63101
G1 X149.575 Y107.595 E1.63013
G1 X150.043 Y108.043 F18000
;TYPE:Inner wall
G1 F2400
G1 X150.043 Y69.957 E1.67034
G1 X111.957 Y69.957 E1.67034
G1 X111.957 Y108.043 E1.67034
G1 X150.023 Y108.043 E1.66947
G1 E-.8 F3600
G1 X149.595 Y65.595 F18000
G1 E.8 F3600
;TYPE:Outer wall
G1 F2400
G1 X149.595 Y28.405 E1.63101
G1 X112.405 Y28.405 E1.63101
G1 X112.405 Y65.595 E1.63101
G1 X149.575 Y65.595 E1.63013
G1 X150.043 Y66.043 F18000
;TYPE:Inner wall
G1 F2400
G1 X150.043 Y27.957 E1.67034
G1 X111.957 Y27.957 E1.67034
G1 X111.957 Y66.043 E1.67034
G1 X150.023 Y66.043 E1.66947
G1 E-.8 F3600
G1 X154.405 Y65.595 F18000
G1 E.8 F3600
;TYPE:Outer wall
G1 F2400
G1 X191.595 Y65.595 E1.63101
G1 X191.595 Y29.973 E1.56225
G1 X191.529 Y29.557 E.01847
G1 X191.45 Y29.332 E.01047
G1 X191.208 Y28.959 E.01948
G1 X191.041 Y28.792 E.01037
G1 X190.668 Y28.55 E.01948
G1 X190.443 Y28.471 E.01047
G1 X190.027 Y28.405 E.01847
G1 X154.405 Y28.405 E1.56225
G1 X154.405 Y65.575 E1.63013
G1 X153.957 Y66.043 F18000
;TYPE:Inner wall
G1 F2400
G1 X192.043 Y66.043 E1.67034
G1 X192.043 Y29.937 E1.58347
G1 X191.965 Y29.447 E.02179
G1 X191.856 Y29.133 E.0146
G1 X191.559 Y28.675 E.02391
G1 X191.325 Y28.441 E.0145
G1 X190.867 Y28.144 E.02391
G1 X190.553 Y28.035 E.0146
G1 X190.063 Y27.957 E.02179
G1 X153.957 Y27.957 E1.58347
G1 X153.957 Y66.023 E1.66947
G1 E-.8 F3600
G1 X154.405 Y70.405 F18000
G1 E.8 F3600
;TYPE:Outer wall
G1 F2400
G1 X154.405 Y107.595 E1.63101
G1 X191.595 Y107.595 E1.63101
G1 X191.595 Y70.405 E1.63101
G1 X154.425 Y70.405 E1.63013
G1 X153.957 Y70.405 F18000
;TYPE:Inner wall
G1 F2400
G1 X153.957 Y108.043 E1.65068
G1 X192.043 Y108.043 E1.67034
G1 X192.043 Y69.957 E1.67034
G1 X153.957 Y69.957 E1.67034
G1 X153.957 Y70.385 E.01879
G1 E-.8 F3600
G1 X191.595 Y149.595 F18000
G1 E.8 F3600
;TYPE:Outer wall
G1 F2400
G1 X191.595 Y112.405 E1.63101
G1 X154.405 Y112.405 E1.63101
G1 X154.405 Y149.595 E1.63101
G1 X191.575 Y149.595 E1.63013
G1 X192.043 Y150.043 F18000
;TYPE:Inner wall
G1 F2400
G1 X192.043 Y111.957 E1.67034
G1 X153.957 Y111.957 E1.67034
G1 X153.957 Y150.043 E1.67034
G1 X192.023 Y150.043 E1.66947
G1 E-.8 F3600
G1 X154.405 Y154.405 F18000
G1 E.8 F3600
;TYPE:Outer wall
G1 F2400
G1 X154.405 Y191.595 E1.63101
G1 X190.027 Y191.595 E1.56225
G1 X190.443 Y191.529 E.01847
G1 X190.668 Y191.45 E.01047
G1 X191.041 Y191.208 E.01948
G1 X191.208 Y191.041 E.01037
G1 X191.45 Y190.668 E.01948
G1 X191.529 Y190.443 E.01047
G1 X191.595 Y190.027 E.01847
G1 X191.595 Y154.405 E1.56225
G1 X154.425 Y154.405 E1.63013
G1 X154.405 Y153.957 F18000
;TYPE:Inner wall
G1 F2400
G1 X153.957 Y153.957 E.01967
G1 X153.957 Y192.043 E1.67034
G1 X190.063 Y192.043 E1.58347
G1 X190.553 Y191.965 E.02179
G1 X190.867 Y191.856 E.0146
G1 X191.325 Y191.559 E.02391
G1 X191.559 Y191.325 E.0145
G1 X191.856 Y190.867 E.02391
G1 X191.965 Y190.553 E.0146
G1 X192.043 Y190.063 E.02179
G1 X192.043 Y153.957 E1.58347
G1 X154.425 Y153.957 E1.6498
G1 E-.8 F3600
G1 X149.595 Y154.405 F18000
G1 E.8 F3600
;TYPE:Outer wall
G1 F2400
G1 X112.405 Y154.405 E1.63101
G1 X112.405 Y191.595 E1.63101
G1 X149.595 Y191.595 E1.63101
G1 X149.595 Y154.425 E1.63013
G1 X150.043 Y153.957 F18000
;TYPE:Inner wall
G1 F2400
G1 X111.957 Y153.957 E1.67034
G1 X111.957 Y192.043 E1.67034
G1 X150.043 Y192.043 E1.67034
G1 X150.043 Y153.977 E1.66947
G1 E-.8 F3600
G1 X149.595 Y149.595 F18000
G1 E.8 F3600
;TYPE:Outer wall
G1 F2400
G1 X149.595 Y112.405 E1.63101
G1 X112.405 Y112.405 E1.63101
G1 X112.405 Y149.595 E1.63101
G1 X149.575 Y149.595 E1.63013
G1 X150.043 Y150.043 F18000
;TYPE:Inner wall
G1 F2400
G1 X150.043 Y111.957 E1.67034
G1 X111.957 Y111.957 E1.67034
G1 X111.957 Y150.043 E1.67034
G1 X150.023 Y150.043 E1.66947
G1 E-.8 F3600
G1 X191.234 Y27.183 F18000
G1 E.8 F3600
;TYPE:Bottom surface
;WIDTH:0.500254
G1 F3000
G1 X192.255 Y28.203 E.06332
G1 X192.598 Y28.749 E.0283
G1 X192.815 Y29.399 E.03006
G1 X190.601 Y27.185 E.13739
G1 X189.894 Y27.112 E.0312
G1 X190.462 Y27.679 E.03521
G1 X190.636 Y27.707 E.00775
G1 X191.017 Y27.84 E.01771
G1 X191.538 Y28.179 E.02725
G1 X191.821 Y28.462 E.01761
G1 X192.16 Y28.983 E.02725
G1 X192.293 Y29.364 E.01771
G1 X192.321 Y29.538 E.00775
G1 X193.092 Y30.31 E.04786
G1 X192.178 Y30.03 F18000
G1 F3000
G1 X192.89 Y30.743 E.04419
G1 X192.89 Y31.377 E.02785
G1 X192.38 Y30.867 E.03167
G1 X192.38 Y31.502 E.02785
G1 X192.89 Y32.012 E.03167
G1 X192.89 Y32.646 E.02785
G1 X192.38 Y32.136 E.03167
G1 X192.38 Y32.771 E.02785
G1 X192.89 Y33.281 E.03167
G1 X192.89 Y33.916 E.02785
G1 X192.38 Y33.405 E.03167
G1 X192.38 Y34.04 E.02785
G1 X192.89 Y34.55 E.03167
G1 X192.89 Y35.185 E.02785
G1 X192.38 Y34.675 E.03167
G1 X192.38 Y35.309 E.02785
G1 X192.89 Y35.82 E.03167
G1 X192.89 Y36.454 E.02785
G1 X192.38 Y35.944 E.03167
G1 X192.38 Y36.579 E.02785
G1 X192.89 Y37.089 E.03167
G1 X192.89 Y37.723 E.02785
G1 X192.38 Y37.213 E.03167
G1 X192.38 Y37.848 E.02785
G1 X192.89 Y38.358 E.03167
G1 X192.89 Y38.993 E.02785
G1 X192.38 Y38.482 E.03167
G1 X192.38 Y39.117 E.02785
G1 X192.89 Y39.627 E.03167
G1 X192.89 Y40.262 E.02785
G1 X192.38 Y39.752 E.03167
G1 X192.38 Y40.386 E.02785
G1 X192.89 Y40.897 E.03167
G1 X192.89 Y41.531 E.02785
G1 X192.38 Y41.021 E.03167
G1 X192.38 Y41.656 E.02785
G1 X192.89 Y42.166 E.03167
G1 X192.89 Y42.801 E.02785
G1 X192.38 Y42.29 E.03167
G1 X192.38 Y42.925 E.02785
G1 X192.89 Y43.435 E.03167
G1 X192.89 Y44.07 E.02785
G1 X192.38 Y43.56 E.03167
G1 X192.38 Y44.194 E.02785
G1 X192.89 Y44.704 E.03167
G1 X192.89 Y45.339 E.02785
G1 X192.38 Y44.829 E.03167
G1 X192.38 Y45.463 E.02785
G1 X192.89 Y45.974 E.03167
G1 X192.89 Y46.608 E.02785
G1 X192.38 Y46.098 E.03167
G1 X192.38 Y46.733 E.02785
G1 X192.89 Y47.243 E.03167
G1 X192.89 Y47.878 E.02785
G1 X192.38 Y47.367 E.03167
G1 X192.38 Y48.002 E.02785
G1 X192.89 Y48.512 E.03167
G1 X192.89 Y49.147 E.02785
G1 X192.38 Y48.637 E.03167
G1 X192.38 Y49.271 E.02785
G1 X192.89 Y49.781 E.03167
G1 X192.89 Y50.416 E.02785
G1 X192.38 Y49.906 E.03167
G1 X192.38 Y50.54 E.02785
