; Postprocessed by [ArcWelder](https://github.com/FormerLurker/ArcWelderLib)
; Copyright(C) 2021 - Brad Hochgesang
; Version: 1.2.0, Branch: master, BuildDate: 2021-11-21T20:04:00Z
; resolution=0.05mm
; path_tolerance=5.0%
; max_radius=9999.00mm
; default_xyz_precision=3
; default_e_precision=5
; extrusion_rate_variance=5.0%

; generated by AnycubicSlicer 1.4.4 on 2025-08-27 at 03:41:59 UTC




; 

; external perimeters extrusion width = 0.42mm
; perimeters extrusion width = 0.45mm
; infill extrusion width = 0.45mm
; solid infill extrusion width = 0.50mm
; top infill extrusion width = 0.42mm
; support material extrusion width = 0.42mm
; first layer extrusion width = 0.56mm

M201 X2500 Y2500 Z800 E2500 ; sets maximum accelerations, mm/sec^2
M203 X250 Y250 Z8 E80 ; sets maximum feedrates, mm / sec
M204 S2500 T2500 ; sets acceleration (S) and retract acceleration (R), mm/sec^2
M205 X10.00 Y10.00 Z2.00 E10.00 ; sets the jerk limits, mm/sec
M205 S0 T0 ; sets the minimum extruding and travel feed rate, mm/sec
;TYPE:Custom
G90 ; use absolute coordinates
M83 ; extruder relative mode
M104 S215 ; set extruder temp
M140 S60 ; set bed temp
M190 S60 ; wait for bed temp
M109 S215 ; wait for extruder temp
G28                                        ; move X/Y/Z to min endstops
G1 Z0.28                                   ; lift nozzle a bit 
G92 E0 
G1 Y3 F1800                                    ; zero the extruded length 
G1 X60  E25 F500                       ; Extrude 25mm of filament in a 5cm line. 
G92 E0                                     ; zero the extruded length again 
G1 E-2 F500                                ; Retract a little 
G1 X70 F4000                              ; Quickly wipe away from the filament line
M117
G21 ; set units to millimeters
G90 ; use absolute coordinates
M82 ; use absolute distances for extrusion
G92 E0
M107
;LAYER_CHANGE
;Z:0.28
;HEIGHT:0.28
; BEFORE_LAYER_CHANGE 0 @ 0.28mm
G1 E-2 F4800
G92 E0
G1 Z.28 F7200
; AFTER_LAYER_CHANGE 0 @ 0.28mm
G1 X100.309 Y102.217
G1 E2 F4800
;TYPE:Skirt/Brim
;WIDTH:0.56
G1 F3000
G1 X101.296 Y101.419 E2.07386
G1 X102.236 Y101.099 E2.13165
G1 X102.8 Y101.047 E2.16461
G1 X117.205 Y101.047 E3.00291
G1 X117.9 Y101.127 E3.04362
G1 X119.023 Y101.611 E3.11478
G1 X119.93 Y102.54 E3.19034
G1 X120.392 Y103.689 E3.26241
G1 X120.453 Y104.295 E3.29785
G1 X120.454 Y115.86 E3.97087
G1 X119.641 Y117.915 E4.09948
G1 X118.754 Y118.606 E4.16491
G1 X117.785 Y118.944 E4.22463
G1 X117.2 Y119 E4.25883
G1 X102.8 Y119 E5.09684
G1 X101.988 Y118.891 E5.14452
G1 X100.673 Y118.213 E5.23062
G1 X100.091 Y117.583 E5.28053
G1 X99.546 Y115.86 E5.3857
G1 X99.547 Y104.3 E6.05843
G1 X99.648 Y103.519 E6.10426
G1 X100.282 Y102.27 E6.18577
G1 X100.698 Y102.53 F7200
G1 F3000
G1 X101.533 Y101.859 E6.24811
G1 X102.316 Y101.592 E6.29625
G1 X102.8 Y101.546 E6.32454
G1 X117.205 Y101.546 E7.16284
G1 X117.799 Y101.616 E7.19765
G1 X118.749 Y102.029 E7.25793
G1 X119.515 Y102.817 E7.32188
G1 X119.902 Y103.79 E7.38282
G1 X119.954 Y115.86 E8.08524
G1 X119.266 Y117.585 E8.19332
G1 X118.511 Y118.169 E8.24887
G1 X117.704 Y118.451 E8.29862
G1 X117.2 Y118.5 E8.32809
G1 X102.8 Y118.5 E9.1661
G1 X102.102 Y118.404 E9.2071
G1 X100.988 Y117.825 E9.28016
G1 X100.5 Y117.296 E9.32204
G1 X100.046 Y115.86 E9.40968
G1 X100.046 Y104.3 E10.08241
G1 X100.135 Y103.631 E10.12169
G1 X100.671 Y102.584 E10.19014
G1 E8.79014 F4800
;WIPE_START
G1 F5760
G1 X101.251 Y102.096 E8.19014
;WIPE_END
G92 E0
G1 X117.174 Y115.72 F7200
G1 E2 F4800
;TYPE:External perimeter
G1 F3000
G1 X102.826 Y115.72 E2.83498
G1 X102.826 Y104.326 E3.49805
G1 X117.174 Y104.326 E4.33303
G1 X117.174 Y115.66 E4.99261
G1 X116.784 Y115.631 F7200
G1 X116.674 Y115.22
;TYPE:Perimeter
G1 F3000
G1 X103.326 Y115.22 E5.7694
G1 X103.326 Y104.826 E6.37428
G1 X116.674 Y104.826 E7.15107
G1 X116.674 Y115.16 E7.75246
G1 X116.174 Y114.72 F7200
G1 F3000
G1 X103.826 Y114.72 E8.47105
G1 X103.826 Y105.326 E9.01773
G1 X116.174 Y105.326 E9.73632
G1 X116.174 Y114.66 E10.27951
G1 E8.87951 F4800
;WIPE_START
G1 F5760
G1 X115.416 Y114.664 E8.27951
;WIPE_END
G92 E0
G1 X114.935 Y105.526 F7200
G1 E2 F4800
;TYPE:Solid infill
;WIDTH:0.57315
G1 F3000
G1 X115.749 Y106.34 E2.06875
G1 X115.749 Y107.065 E2.11205
G1 X114.435 Y105.751 E2.22304
G1 X113.709 Y105.751 E2.2664
G1 X115.749 Y107.791 E2.43871
G1 X115.749 Y108.516 E2.48201
G1 X112.984 Y105.751 E2.71556
G1 X112.258 Y105.751 E2.75892
G1 X115.749 Y109.242 E3.05379
G1 X115.749 Y109.968 E3.09715
G1 X111.532 Y105.751 E3.45334
G1 X110.807 Y105.751 E3.49664
G1 X115.749 Y110.693 E3.91407
G1 X115.749 Y111.419 E3.95743
G1 X110.081 Y105.751 E4.43618
G1 X109.356 Y105.751 E4.47948
G1 X115.749 Y112.144 E5.01946
G1 X115.749 Y112.87 E5.06282
G1 X108.63 Y105.751 E5.66413
G1 X107.905 Y105.751 E5.70743
G1 X115.749 Y113.596 E6.37001
G1 X115.749 Y114.295 E6.41176
G1 X115.723 Y114.295 E6.41331
G1 X107.179 Y105.751 E7.13498
G1 X106.453 Y105.751 E7.17834
G1 X114.998 Y114.295 E7.90005
G1 X114.272 Y114.295 E7.94341
G1 X105.728 Y105.751 E8.66508
G1 X105.002 Y105.751 E8.70844
G1 X113.546 Y114.295 E9.43011
G1 X112.821 Y114.295 E9.47341
G1 X104.277 Y105.751 E10.19508
G1 X104.251 Y105.751 E10.19663
G1 X104.251 Y106.451 E10.23844
G1 X112.095 Y114.295 E10.90098
G1 X111.37 Y114.295 E10.94428
G1 X104.251 Y107.177 E11.54554
G1 X104.251 Y107.902 E11.58884
G1 X110.644 Y114.295 E12.12882
G1 X109.918 Y114.295 E12.17218
G1 X104.251 Y108.628 E12.65084
G1 X104.251 Y109.353 E12.69414
G1 X109.193 Y114.295 E13.11157
G1 X108.467 Y114.295 E13.15493
G1 X104.251 Y110.079 E13.51103
G1 X104.251 Y110.805 E13.55439
G1 X107.742 Y114.295 E13.84921
G1 X107.016 Y114.295 E13.89257
G1 X104.251 Y111.53 E14.12612
G1 X104.251 Y112.256 E14.16948
G1 X106.291 Y114.295 E14.34175
G1 X105.565 Y114.295 E14.38511
G1 X104.251 Y112.981 E14.4961
G1 X104.251 Y113.707 E14.53946
G1 X105.064 Y114.52 E14.60813
;LAYER_CHANGE
;Z:0.48
;HEIGHT:0.2
; BEFORE_LAYER_CHANGE 1 @ 0.48mm
G1 E13.20813 F4800
;WIPE_START
G1 F5760
G1 X104.528 Y113.984 E12.60813
;WIPE_END
G92 E0
G1 Z.48 F7200
; AFTER_LAYER_CHANGE 1 @ 0.48mm
M104 S195 ; set temperature
G1 X117.264 Y115.79
G1 E2 F4800
;TYPE:External perimeter
;WIDTH:0.42
G1 F2883
G1 X102.824 Y115.79 E2.45276
G1 X102.71 Y115.763 E2.45643
G1 X102.71 Y104.323 E2.81512
G1 X102.732 Y104.225 E2.81827
G1 X102.818 Y104.21 E2.82101
G1 X117.264 Y104.21 E3.27395
G1 X117.29 Y104.318 E3.27743
G1 X117.29 Y115.676 E3.63355
G1 X117.277 Y115.731 E3.63532
G1 X116.918 Y115.59 F7200
G1 X116.898 Y115.398
;TYPE:Perimeter
;WIDTH:0.45
G1 F2883
G1 X103.102 Y115.398 E4.1023
G1 X103.102 Y104.602 E4.46773
G1 X116.898 Y104.602 E4.93471
G1 X116.898 Y115.338 E5.29811
G1 X116.491 Y114.991 F7200
G1 F2883
G1 X103.509 Y114.991 E5.73754
G1 X103.509 Y105.009 E6.07542
G1 X116.491 Y105.01 E6.51485
G1 X116.491 Y114.931 E6.85066
G1 E5.45066 F4800
;WIPE_START
G1 F5760
G1 X115.733 Y114.935 E4.85066
;WIPE_END
G92 E0
G1 X104 Y105.414 F7200
G1 E2 F4800
;TYPE:Solid infill
;WIDTH:0.610894
G1 F2883
G2 X103.982 Y105.482 I-0.068 J0.018 E2.01674
;WIDTH:0.499999
G1 X104.712 Y105.376 E2.04478
G1 X103.876 Y106.212 E2.08971
G1 X103.876 Y106.859 E2.1143
G1 X105.359 Y105.376 E2.19401
G1 X106.005 Y105.377 E2.21856
G1 X103.876 Y107.505 E2.33296
G1 X103.876 Y108.151 E2.35751
G1 X106.651 Y105.377 E2.50664
G1 X107.298 Y105.377 E2.53123
G1 X103.876 Y108.798 E2.71513
G1 X103.876 Y109.444 E2.73968
G1 X107.944 Y105.377 E2.9583
G1 X108.59 Y105.377 E2.98285
G1 X103.876 Y110.091 E3.23622
G1 X103.876 Y110.737 E3.26077
G1 X109.237 Y105.377 E3.54889
G1 X109.883 Y105.377 E3.57344
G1 X103.876 Y111.383 E3.89628
G1 X103.876 Y112.03 E3.92087
G1 X110.53 Y105.377 E4.27849
G1 X111.176 Y105.377 E4.30304
G1 X103.876 Y112.676 E4.69538
G1 X103.876 Y113.323 E4.71997
G1 X111.822 Y105.377 E5.14706
G1 X112.469 Y105.377 E5.17165
G1 X103.876 Y113.969 E5.63349
G1 X103.876 Y114.615 E5.65804
G1 X113.115 Y105.377 E6.1546
G1 X113.762 Y105.377 E6.17919
G1 X104.515 Y114.624 E6.67621
G1 X105.161 Y114.624 E6.70076
G1 X114.408 Y105.377 E7.19778
G1 X115.054 Y105.377 E7.22233
G1 X105.808 Y114.624 E7.71932
G1 X106.454 Y114.624 E7.74387
G1 X115.701 Y105.377 E8.24089
G1 X116.271 Y105.26 E8.26301
;WIDTH:0.38292
G1 X116.2 Y105.241 E8.26509
G1 X116.219 Y105.312 E8.26717
G1 X116.26 Y105.301 E8.26837
;WIDTH:0.421947
G1 X116.214 Y105.401 E8.27184
;WIDTH:0.460973
G1 X116.169 Y105.501 E8.27565
;WIDTH:0.499999
G1 X116.124 Y105.6 E8.27978
G1 X107.1 Y114.624 E8.76481
G1 X107.747 Y114.624 E8.7894
G1 X116.124 Y106.247 E9.23966
G1 X116.124 Y106.893 E9.26421
G1 X108.393 Y114.624 E9.67974
G1 X109.04 Y114.624 E9.70433
G1 X116.124 Y107.54 E10.08509
G1 X116.124 Y108.186 E10.10964
G1 X109.686 Y114.624 E10.45568
G1 X110.332 Y114.624 E10.48023
G1 X116.124 Y108.832 E10.79154
G1 X116.124 Y109.479 E10.81613
G1 X110.979 Y114.624 E11.09267
G1 X111.625 Y114.624 E11.11722
G1 X116.124 Y110.125 E11.35904
G1 X116.124 Y110.772 E11.38363
G1 X112.272 Y114.624 E11.59067
G1 X112.918 Y114.624 E11.61522
G1 X116.124 Y111.418 E11.78754
G1 X116.124 Y112.064 E11.81209
G1 X113.564 Y114.624 E11.94969
G1 X114.211 Y114.624 E11.97428
G1 X116.124 Y112.711 E12.0771
G1 X116.124 Y113.357 E12.10165
G1 X114.857 Y114.624 E12.16975
G1 X115.504 Y114.624 E12.19434
G1 X116.124 Y114.004 E12.22766
M106 S255
;LAYER_CHANGE
;Z:0.68
;HEIGHT:0.2
; BEFORE_LAYER_CHANGE 2 @ 0.68mm
G1 E10.82766 F4800
;WIPE_START
G1 F5760
G1 X115.588 Y114.54 E10.22766
;WIPE_END
G92 E0
G1 Z.68 F7200
; AFTER_LAYER_CHANGE 2 @ 0.68mm
G1 X117.264 Y115.79
G1 E2 F4800
;TYPE:External perimeter
;WIDTH:0.42
G1 F2844
G1 X102.824 Y115.79 E2.45276
G1 X102.71 Y115.763 E2.45643
G1 X102.71 Y104.323 E2.81512
G1 X102.732 Y104.225 E2.81827
G1 X102.818 Y104.21 E2.82101
G1 X117.258 Y104.213 E3.27377
G1 X117.29 Y104.316 E3.27715
G1 X117.29 Y115.676 E3.63333
G1 X117.277 Y115.731 E3.6351
G1 X116.918 Y115.59 F7200
G1 X116.898 Y115.398
;TYPE:Perimeter
;WIDTH:0.45
G1 F2844
G1 X103.102 Y115.398 E4.10208
G1 X103.102 Y104.602 E4.46751
G1 X116.898 Y104.605 E4.93449
G1 X116.898 Y115.338 E5.29779
G1 X116.491 Y114.991 F7200
G1 F2844
G1 X103.509 Y114.991 E5.73722
G1 X103.509 Y105.009 E6.0751
G1 X116.49 Y105.012 E6.51449
G1 X116.491 Y114.931 E6.85024
G1 E5.45024 F4800
;WIPE_START
G1 F5760
G1 X115.733 Y114.935 E4.85024
;WIPE_END
G92 E0
G1 X103.914 Y114.5 F7200
G1 E2 F4800
;TYPE:Solid infill
;WIDTH:0.610898
G1 F2844
G2 X103.982 Y114.518 I0.018 J0.068 E2.01674
;WIDTH:0.499999
G1 X103.876 Y113.788 E2.04478
G1 X104.767 Y114.675 E2.09256
;WIDTH:0.460973
G1 X104.822 Y114.726 E2.09517
;WIDTH:0.421947
G1 X104.877 Y114.778 E2.09756
;WIDTH:0.38292
G1 X104.858 Y114.849 E2.09964
G1 X104.929 Y114.83 E2.10172
G1 X104.918 Y114.789 E2.10292
;WIDTH:0.499999
G1 X105.359 Y114.624 E2.12082
G1 X103.876 Y113.141 E2.20053
G1 X103.876 Y112.495 E2.22508
G1 X106.005 Y114.624 E2.33951
G1 X106.651 Y114.624 E2.36406
G1 X103.876 Y111.849 E2.51321
G1 X103.876 Y111.202 E2.5378
G1 X107.298 Y114.624 E2.72173
G1 X107.944 Y114.624 E2.74628
G1 X103.876 Y110.556 E2.96493
G1 X103.876 Y109.909 E2.98952
G1 X108.591 Y114.624 E3.24295
G1 X109.237 Y114.624 E3.2675
G1 X103.876 Y109.263 E3.55565
G1 X103.876 Y108.617 E3.5802
G1 X109.883 Y114.624 E3.90307
G1 X110.53 Y114.624 E3.92766
G1 X103.876 Y107.97 E4.28531
G1 X103.876 Y107.324 E4.30986
G1 X111.176 Y114.624 E4.70223
G1 X111.823 Y114.624 E4.72682
G1 X103.876 Y106.677 E5.15396
G1 X103.876 Y106.031 E5.17851
G1 X112.469 Y114.624 E5.64038
G1 X113.115 Y114.624 E5.66493
G1 X103.876 Y105.385 E6.16152
G1 X104.515 Y105.377 E6.18581
G1 X113.762 Y114.624 E6.68283
G1 X114.408 Y114.624 E6.70738
G1 X105.162 Y105.377 E7.20437
G1 X105.808 Y105.377 E7.22892
G1 X115.055 Y114.624 E7.72594
G1 X115.701 Y114.624 E7.75049
G1 X106.455 Y105.377 E8.24748
G1 X107.101 Y105.377 E8.27203
G1 X116.124 Y114.4 E8.75701
G1 X116.155 Y114.496 E8.76084
;WIDTH:0.460973
G1 X116.187 Y114.592 E8.76436
;WIDTH:0.421947
G1 X116.218 Y114.688 E8.76754
;WIDTH:0.38292
G1 X116.199 Y114.76 E8.76965
G1 X116.271 Y114.74 E8.77176
G1 X116.26 Y114.699 E8.77296
G1 X116.124 Y113.753 F7200
;WIDTH:0.499999
G1 F2844
G1 X107.748 Y105.378 E9.22313
G1 X108.394 Y105.378 E9.24768
G1 X116.123 Y113.107 E9.66311
G1 X116.123 Y112.46 E9.6877
G1 X109.041 Y105.378 E10.06835
G1 X109.688 Y105.378 E10.09294
G1 X116.123 Y111.814 E10.43884
G1 X116.123 Y111.167 E10.46343
G1 X110.334 Y105.378 E10.77458
G1 X110.981 Y105.378 E10.79917
G1 X116.123 Y110.521 E11.07557
G1 X116.123 Y109.875 E11.10012
G1 X111.627 Y105.378 E11.3418
G1 X112.274 Y105.379 E11.36639
G1 X116.123 Y109.228 E11.57327
G1 X116.123 Y108.582 E11.59782
G1 X112.92 Y105.379 E11.76998
G1 X113.567 Y105.379 E11.79457
G1 X116.123 Y107.935 E11.93195
G1 X116.123 Y107.289 E11.9565
G1 X114.213 Y105.379 E12.05916
G1 X114.86 Y105.379 E12.08375
G1 X116.123 Y106.642 E12.15163
G1 X116.123 Y105.996 E12.17618
G1 X115.506 Y105.379 E12.20934
;LAYER_CHANGE
;Z:0.88
;HEIGHT:0.2
; BEFORE_LAYER_CHANGE 3 @ 0.88mm
G1 E10.80934 F4800
;WIPE_START
G1 F5760
G1 X116.042 Y105.915 E10.20934
;WIPE_END
G92 E0
G1 Z.88 F7200
; AFTER_LAYER_CHANGE 3 @ 0.88mm
G1 X117.268 Y115.774
G1 E2 F4800
;TYPE:External perimeter
;WIDTH:0.42
G1 F1500
G1 X117.181 Y115.79 E2.00277
G1 X102.824 Y115.79 E2.45292
G1 X102.71 Y115.763 E2.45659
G1 X102.71 Y104.323 E2.81528
G1 X102.732 Y104.225 E2.81843
G1 X102.818 Y104.21 E2.82117
G1 X117.268 Y104.21 E3.27424
G1 X117.29 Y104.321 E3.27779
G1 X117.281 Y115.716 E3.63507
G1 X117.187 Y115.74 F7200
G1 X116.898 Y115.398
;TYPE:Perimeter
;WIDTH:0.45
G1 F1500
G1 X103.102 Y115.398 E4.10205
G1 X103.102 Y104.602 E4.46748
G1 X116.898 Y104.602 E4.93446
G1 X116.898 Y115.338 E5.29786
G1 X116.491 Y114.991 F7200
G1 F1500
G1 X103.509 Y114.991 E5.73729
G1 X103.509 Y105.009 E6.07517
G1 X116.491 Y105.01 E6.5146
G1 X116.491 Y114.931 E6.85041
G1 E5.45041 F4800
;WIPE_START
G1 F5760
G1 X115.733 Y114.935 E4.85041
;WIPE_END
G92 E0
G1 X116.149 Y106.149 F7200
G1 E2 F4800
;TYPE:Internal infill
G1 F1500
G1 X116.149 Y114.649 E2.28771
G1 X114.649 Y114.649 E2.33848
G1 X105.351 Y105.351 E2.78357
G1 X114.648 Y105.352 E3.09826
G1 X105.351 Y114.649 E3.5433
G1 X103.851 Y114.649 E3.59407
G1 X103.851 Y106.149 E3.88178
;LAYER_CHANGE
;Z:1.08
;HEIGHT:0.2
; BEFORE_LAYER_CHANGE 4 @ 1.08mm
G1 E2.48178 F4800
;WIPE_START
G1 F5760
G1 X103.851 Y106.907 E1.88178
;WIPE_END
G92 E0
G1 Z1.08 F7200
; AFTER_LAYER_CHANGE 4 @ 1.08mm
G1 X117.264 Y115.79
G1 E2 F4800
;TYPE:External perimeter
;WIDTH:0.42
G1 F1500
G1 X102.824 Y115.79 E2.45276
G1 X102.71 Y115.763 E2.45643
G1 X102.71 Y104.323 E2.81512
G1 X102.732 Y104.225 E2.81827
G1 X102.818 Y104.21 E2.82101
G1 X117.18 Y104.21 E3.27132
G1 X117.272 Y104.228 E3.27426
G1 X117.29 Y104.321 E3.27723
G1 X117.29 Y115.676 E3.63326
G1 X117.278 Y115.731 E3.63503
G1 X116.918 Y115.59 F7200
G1 X116.898 Y115.398
;TYPE:Perimeter
;WIDTH:0.45
G1 F1500
G1 X103.102 Y115.398 E4.10201
G1 X103.102 Y104.602 E4.46744
G1 X116.898 Y104.602 E4.93442
G1 X116.898 Y115.338 E5.29782
G1 X116.491 Y114.991 F7200
G1 F1500
G1 X103.509 Y114.991 E5.73725
G1 X103.509 Y105.009 E6.07513
G1 X116.491 Y105.009 E6.51456
G1 X116.491 Y114.931 E6.85041
G1 X116.149 Y113.851 F7200
;TYPE:Internal infill
G1 F1500
G1 X116.149 Y105.351 E7.13812
G1 X114.649 Y105.351 E7.18889
G1 X105.351 Y114.649 E7.63398
G1 X114.649 Y114.649 E7.94871
G1 X105.351 Y105.351 E8.3938
G1 X103.851 Y105.351 E8.44457
G1 X103.851 Y113.851 E8.73228
;LAYER_CHANGE
;Z:1.28
;HEIGHT:0.2
; BEFORE_LAYER_CHANGE 5 @ 1.28mm
G1 E7.33228 F4800
;WIPE_START
G1 F5760
G1 X103.851 Y113.093 E6.73228
;WIPE_END
G92 E0
G1 Z1.28 F7200
; AFTER_LAYER_CHANGE 5 @ 1.28mm
G1 X117.268 Y115.774
G1 E2 F4800
;TYPE:External perimeter
;WIDTH:0.42
G1 F1500
G1 X117.181 Y115.79 E2.00277
G1 X102.824 Y115.79 E2.45292
G1 X102.71 Y115.763 E2.45659
G1 X102.71 Y104.323 E2.81528
G1 X102.732 Y104.225 E2.81843
G1 X102.818 Y104.21 E2.82117
G1 X117.18 Y104.21 E3.27148
G1 X117.272 Y104.228 E3.27442
G1 X117.29 Y104.321 E3.27739
G1 X117.281 Y115.716 E3.63467
G1 X117.187 Y115.74 F7200
G1 X116.898 Y115.398
;TYPE:Perimeter
;WIDTH:0.45
G1 F1500
G1 X103.102 Y115.398 E4.10165
G1 X103.102 Y104.602 E4.46708
G1 X116.898 Y104.602 E4.93406
G1 X116.898 Y115.338 E5.29746
G1 X116.491 Y114.991 F7200
G1 F1500
G1 X103.509 Y114.991 E5.73689
G1 X103.509 Y105.009 E6.07477
