; Postprocessed by [ArcWelder](https://github.com/FormerLurker/ArcWelderLib)
; Copyright(C) 2021 - Brad Hochgesang
; Version: 1.2.0, Branch: master, BuildDate: 2021-11-21T20:04:00Z
; resolution=0.05mm
; path_tolerance=5.0%
; max_radius=9999.00mm
; default_xyz_precision=3
; default_e_precision=5
; extrusion_rate_variance=5.0%

; generated by AnycubicSlicer 1.4.4 on 2025-08-26 at 13:31:47 UTC




; 

; external perimeters extrusion width = 0.42mm
; perimeters extrusion width = 0.45mm
; infill extrusion width = 0.45mm
; solid infill extrusion width = 0.50mm
; top infill extrusion width = 0.42mm
; support material extrusion width = 0.42mm
; first layer extrusion width = 0.56mm

M201 X2500 Y2500 Z800 E2500 ; sets maximum accelerations, mm/sec^2
M203 X250 Y250 Z8 E80 ; sets maximum feedrates, mm / sec
M204 S2500 T2500 ; sets acceleration (S) and retract acceleration (R), mm/sec^2
M205 X10.00 Y10.00 Z2.00 E10.00 ; sets the jerk limits, mm/sec
M205 S0 T0 ; sets the minimum extruding and travel feed rate, mm/sec
;TYPE:Custom
G90 ; use absolute coordinates
M83 ; extruder relative mode
M104 S215 ; set extruder temp
M140 S60 ; set bed temp
M190 S60 ; wait for bed temp
M109 S215 ; wait for extruder temp
G28                                        ; move X/Y/Z to min endstops
G1 Z0.28                                   ; lift nozzle a bit 
G92 E0 
G1 Y3 F1800                                    ; zero the extruded length 
G1 X60  E25 F500                       ; Extrude 25mm of filament in a 5cm line. 
G92 E0                                     ; zero the extruded length again 
G1 E-2 F500                                ; Retract a little 
G1 X70 F4000                              ; Quickly wipe away from the filament line
M117
G21 ; set units to millimeters
G90 ; use absolute coordinates
M82 ; use absolute distances for extrusion
G92 E0
M107
;LAYER_CHANGE
;Z:0.28
;HEIGHT:0.28
; BEFORE_LAYER_CHANGE 0 @ 0.28mm
G1 E-2 F4800
G92 E0
G1 Z.28 F7200
; AFTER_LAYER_CHANGE 0 @ 0.28mm
G1 X83.896 Y100.17
G1 E2 F4800
;TYPE:Skirt/Brim
;WIDTH:0.56
G1 F3000
G1 X91.887 Y94.032 E2.58639
G1 X92.996 Y93.499 E2.658
G1 X104.858 Y90.574 E3.36899
G1 X114.988 Y89.034 E3.96528
G1 X135.868 Y89 E5.18039
G1 X137.353 Y89.394 E5.2698
G1 X138.448 Y90.47 E5.35914
G1 X138.868 Y92 E5.45147
G1 X138.868 Y128 E7.54649
G1 X138.474 Y129.485 E7.6359
G1 X137.398 Y130.581 E7.72528
G1 X135.868 Y131 E7.8176
G1 X122.368 Y131 E8.60323
G1 X121.286 Y130.798 E8.66728
G1 X83.05 Y116.013 E11.05298
G1 X81.807 Y115.111 E11.14236
G1 X81.132 Y113.216 E11.25943
G1 X81.132 Y107.729 E11.57875
G1 X81.264 Y106.849 E11.63053
G1 X82.856 Y101.668 E11.94595
G1 X83.862 Y100.219 E12.0486
G1 X84.201 Y100.566 F7200
G1 F3000
G1 X92.191 Y94.429 E12.63491
G1 X93.116 Y93.984 E12.69465
G1 X104.978 Y91.06 E13.40562
G1 X115.063 Y89.528 E13.99925
G1 X135.868 Y89.5 E15.21
G1 X137.212 Y89.892 E15.29147
G1 X138.134 Y90.945 E15.37292
G1 X138.368 Y92 E15.43581
G1 X138.368 Y128 E17.53083
G1 X137.976 Y129.344 E17.6123
G1 X136.923 Y130.266 E17.69375
G1 X135.868 Y130.5 E17.75664
G1 X122.368 Y130.5 E18.54227
G1 X121.466 Y130.332 E18.59566
G1 X83.23 Y115.547 E20.98136
G1 X82.118 Y114.697 E21.06281
G1 X81.632 Y113.216 E21.15352
G1 X81.632 Y107.729 E21.47284
G1 X81.742 Y106.995 E21.51603
G1 X83.334 Y101.815 E21.8314
G1 X84.166 Y100.615 E21.91638
G1 E20.51638 F4800
;WIPE_START
G1 F5760
G1 X84.766 Y100.152 E19.91638
;WIPE_END
G92 E0
G1 X126.588 Y123.78 F7200
G1 E2 F4800
;TYPE:External perimeter
G1 F3000
G1 X130.448 Y123.78 E2.22463
G1 X130.448 Y92.28 E4.05777
G1 X135.588 Y92.28 E4.35689
G1 X135.588 Y127.72 E6.41932
G1 X122.648 Y127.72 E7.17236
G1 X122.648 Y101.737 E8.68444
G1 X108.44 Y101.737 E9.51127
G1 X95.768 Y104.984 E10.27254
G1 X92.575 Y110.573 E10.64713
G1 X92.835 Y112.936 E10.78547
G1 X84.412 Y112.936 E11.27565
G1 X84.412 Y107.772 E11.57617
G1 X85.965 Y102.716 E11.88397
G1 X93.838 Y96.669 E12.46169
G1 X105.631 Y93.762 E13.16853
G1 X115.457 Y92.28 E13.74682
G1 X126.588 Y92.28 E14.39459
G1 X126.588 Y123.72 E16.22424
G1 X126.633 Y124.177 F7200
G1 X126.088 Y123.78
;TYPE:Perimeter
G1 F3000
G1 X126.088 Y124.28 E16.25334
G1 X130.948 Y124.28 E16.53617
G1 X130.948 Y92.78 E18.36931
G1 X135.088 Y92.78 E18.61024
G1 X135.088 Y127.22 E20.61447
G1 X123.148 Y127.22 E21.30932
G1 X123.148 Y101.237 E22.8214
G1 X108.377 Y101.237 E23.681
G1 X95.439 Y104.552 E24.45825
G1 X92.06 Y110.466 E24.85463
G1 X92.277 Y112.436 E24.96997
G1 X84.912 Y112.436 E25.39858
G1 X84.912 Y107.847 E25.66564
G1 X86.396 Y103.016 E25.95975
G1 X94.059 Y97.13 E26.52207
G1 X105.728 Y94.253 E27.22148
G1 X115.494 Y92.78 E27.79624
G1 X126.088 Y92.78 E28.41276
G1 X126.088 Y123.72 E30.21331
G1 X125.588 Y123.78 F7200
G1 F3000
G1 X125.588 Y124.78 E30.2715
G1 X131.448 Y124.78 E30.61252
G1 X131.448 Y93.28 E32.44566
G1 X134.588 Y93.28 E32.62839
G1 X134.588 Y126.72 E34.57443
G1 X123.648 Y126.72 E35.21108
G1 X123.648 Y100.737 E36.72316
G1 X108.314 Y100.737 E37.61552
G1 X95.11 Y104.12 E38.40875
G1 X91.545 Y110.36 E38.82697
G1 X91.719 Y111.936 E38.91924
G1 X85.412 Y111.936 E39.28628
G1 X85.412 Y107.922 E39.51987
G1 X86.827 Y103.315 E39.80034
G1 X94.281 Y97.59 E40.3473
G1 X105.826 Y94.744 E41.03927
G1 X115.532 Y93.28 E41.6105
G1 X125.588 Y93.28 E42.19571
G1 X125.588 Y123.72 E43.96716
G1 E42.56716 F4800
;WIPE_START
G1 F5760
G1 X125.588 Y124.478 E41.96716
;WIPE_END
G92 E0
G1 X125.388 Y94.071 F7200
G1 E2 F4800
;TYPE:Solid infill
;WIDTH:0.565085
G1 F3000
G1 X125.022 Y93.705 E2.03043
G1 X124.308 Y93.705 E2.0724
G1 X125.163 Y94.56 E2.14348
G1 X125.163 Y95.275 E2.18551
G1 X123.593 Y93.705 E2.31604
G1 X122.879 Y93.705 E2.35801
G1 X125.163 Y95.989 E2.5479
G1 X125.163 Y96.703 E2.58987
G1 X122.165 Y93.705 E2.83912
G1 X121.451 Y93.705 E2.88109
G1 X125.163 Y97.417 E3.18969
G1 X125.163 Y98.131 E3.23166
G1 X120.737 Y93.705 E3.59962
G1 X120.023 Y93.705 E3.64159
G1 X125.163 Y98.845 E4.06891
G1 X125.163 Y99.56 E4.11094
G1 X119.308 Y93.705 E4.59771
G1 X118.594 Y93.705 E4.63968
G1 X125.163 Y100.274 E5.18581
G1 X125.163 Y100.988 E5.22778
G1 X117.88 Y93.705 E5.83327
G1 X117.166 Y93.705 E5.87524
G1 X125.163 Y101.702 E6.54009
G1 X125.163 Y102.416 E6.58206
G1 X124.073 Y101.326 E6.67268
G1 X124.073 Y102.04 E6.71465
G1 X125.163 Y103.13 E6.80527
G1 X125.163 Y103.845 E6.8473
G1 X124.073 Y102.754 E6.93796
G1 X124.073 Y103.468 E6.97993
G1 X125.163 Y104.559 E7.07059
G1 X125.163 Y105.273 E7.11256
G1 X124.073 Y104.182 E7.20322
G1 X124.073 Y104.897 E7.24525
G1 X125.163 Y105.987 E7.33587
G1 X125.163 Y106.701 E7.37784
G1 X124.073 Y105.611 E7.46846
G1 X124.073 Y106.325 E7.51043
G1 X125.163 Y107.416 E7.60109
G1 X125.163 Y108.13 E7.64306
G1 X124.073 Y107.039 E7.73372
G1 X124.073 Y107.753 E7.77569
G1 X125.163 Y108.844 E7.86635
G1 X125.163 Y109.558 E7.90832
G1 X124.073 Y108.468 E7.99894
G1 X124.073 Y109.182 E8.04091
G1 X125.163 Y110.272 E8.13153
G1 X125.163 Y110.986 E8.1735
G1 X124.073 Y109.896 E8.26412
G1 X124.073 Y110.61 E8.30609
G1 X125.163 Y111.701 E8.39675
G1 X125.163 Y112.415 E8.43872
G1 X124.073 Y111.324 E8.52938
G1 X124.073 Y112.038 E8.57135
G1 X125.163 Y113.129 E8.66201
G1 X125.163 Y113.843 E8.70398
G1 X124.073 Y112.753 E8.7946
G1 X124.073 Y113.467 E8.83657
G1 X125.163 Y114.557 E8.92719
G1 X125.163 Y115.271 E8.96916
G1 X124.073 Y114.181 E9.05978
G1 X124.073 Y114.895 E9.10175
G1 X125.163 Y115.986 E9.19241
G1 X125.163 Y116.7 E9.23438
G1 X124.073 Y115.609 E9.32504
G1 X124.073 Y116.323 E9.36701
G1 X125.163 Y117.414 E9.45767
G1 X125.163 Y118.128 E9.49964
G1 X124.073 Y117.038 E9.59026
G1 X124.073 Y117.752 E9.63223
G1 X125.163 Y118.842 E9.72285
G1 X125.163 Y119.556 E9.76482
G1 X124.073 Y118.466 E9.85544
G1 X124.073 Y119.18 E9.89741
G1 X125.163 Y120.271 E9.98807
G1 X125.163 Y120.985 E10.03004
G1 X124.073 Y119.894 E10.1207
G1 X124.073 Y120.608 E10.16267
G1 X125.163 Y121.699 E10.25333
G1 X125.163 Y122.413 E10.2953
G1 X124.073 Y121.323 E10.38592
G1 X124.073 Y122.037 E10.42789
G1 X125.163 Y123.127 E10.51851
G1 X125.163 Y123.841 E10.56048
G1 X123.848 Y122.526 E10.66981
G1 E9.26981 F4800
;WIPE_START
G1 F5760
G1 X124.384 Y123.062 E8.66981
;WIPE_END
G92 E0
G1 X134.388 Y94.501 F7200
G1 E2 F4800
G1 F3000
G1 X133.592 Y93.705 E2.06618
G1 X132.878 Y93.705 E2.10815
G1 X134.163 Y94.99 E2.21498
G1 X134.163 Y95.705 E2.25701
G1 X132.163 Y93.705 E2.42328
G1 X131.873 Y93.705 E2.44033
G1 X131.873 Y94.128 E2.4652
G1 X134.163 Y96.419 E2.65563
G1 X134.163 Y97.133 E2.6976
G1 X131.873 Y94.842 E2.88803
G1 X131.873 Y95.557 E2.93006
G1 X134.163 Y97.847 E3.12044
G1 X134.163 Y98.561 E3.16241
G1 X131.873 Y96.271 E3.35279
G1 X131.873 Y96.985 E3.39476
G1 X134.163 Y99.275 E3.58514
G1 X134.163 Y99.99 E3.62717
G1 X131.873 Y97.699 E3.8176
G1 X131.873 Y98.413 E3.85957
G1 X134.163 Y100.704 E4.05
G1 X134.163 Y101.418 E4.09197
G1 X131.873 Y99.127 E4.2824
G1 X131.873 Y99.842 E4.32443
G1 X134.163 Y102.132 E4.51481
G1 X134.163 Y102.846 E4.55678
G1 X131.873 Y100.556 E4.74716
G1 X131.873 Y101.27 E4.78913
G1 X134.163 Y103.56 E4.97951
G1 X134.163 Y104.275 E5.02154
G1 X131.873 Y101.984 E5.21197
G1 X131.873 Y102.698 E5.25394
G1 X134.163 Y104.989 E5.44437
G1 X134.163 Y105.703 E5.48634
G1 X131.873 Y103.412 E5.67677
G1 X131.873 Y104.127 E5.7188
G1 X134.163 Y106.417 E5.90918
G1 X134.163 Y107.131 E5.95115
G1 X131.873 Y104.841 E6.14153
G1 X131.873 Y105.555 E6.1835
G1 X134.163 Y107.845 E6.37388
G1 X134.163 Y108.56 E6.41591
G1 X131.873 Y106.269 E6.60634
G1 X131.873 Y106.983 E6.64831
G1 X134.163 Y109.274 E6.83874
G1 X134.163 Y109.988 E6.88071
G1 X131.873 Y107.697 E7.07114
G1 X131.873 Y108.412 E7.11317
G1 X134.163 Y110.702 E7.30355
G1 X134.163 Y111.416 E7.34552
G1 X131.873 Y109.126 E7.5359
G1 X131.873 Y109.84 E7.57787
G1 X134.163 Y112.13 E7.76825
G1 X134.163 Y112.845 E7.81028
G1 X131.873 Y110.554 E8.00071
G1 X131.873 Y111.268 E8.04268
G1 X134.163 Y113.559 E8.23311
G1 X134.163 Y114.273 E8.27508
G1 X131.873 Y111.982 E8.46551
G1 X131.873 Y112.697 E8.50754
G1 X134.163 Y114.987 E8.69792
G1 X134.163 Y115.701 E8.73989
G1 X131.873 Y113.411 E8.93027
G1 X131.873 Y114.125 E8.97224
G1 X134.163 Y116.416 E9.16267
G1 X134.163 Y117.13 E9.20464
G1 X131.873 Y114.839 E9.39507
G1 X131.873 Y115.553 E9.43704
G1 X134.163 Y117.844 E9.62747
G1 X134.163 Y118.558 E9.66944
G1 X131.873 Y116.268 E9.85982
G1 X131.873 Y116.982 E9.90179
G1 X134.163 Y119.272 E10.09217
G1 X134.163 Y119.986 E10.13414
G1 X131.873 Y117.696 E10.32452
G1 X131.873 Y118.41 E10.36649
G1 X134.163 Y120.701 E10.55692
G1 X134.163 Y121.415 E10.59889
G1 X131.873 Y119.124 E10.78932
G1 X131.873 Y119.838 E10.83129
G1 X134.163 Y122.129 E11.02172
G1 X134.163 Y122.843 E11.06369
G1 X131.873 Y120.553 E11.25407
G1 X131.873 Y121.267 E11.29604
G1 X134.163 Y123.557 E11.48642
G1 X134.163 Y124.271 E11.52839
G1 X131.873 Y121.981 E11.71877
G1 X131.873 Y122.695 E11.76074
G1 X134.163 Y124.986 E11.95117
G1 X134.163 Y125.7 E11.99314
G1 X131.873 Y123.409 E12.18357
G1 X131.873 Y124.123 E12.22554
G1 X134.045 Y126.295 E12.40611
G1 X133.33 Y126.295 E12.44814
G1 X131.873 Y124.838 E12.56927
G1 X131.873 Y125.205 E12.59084
G1 X131.526 Y125.205 E12.61124
G1 X132.616 Y126.295 E12.70186
G1 X131.902 Y126.295 E12.74383
G1 X130.812 Y125.205 E12.83445
G1 X130.097 Y125.205 E12.87648
G1 X131.188 Y126.295 E12.96714
G1 X130.474 Y126.295 E13.00911
G1 X129.383 Y125.205 E13.09977
G1 X128.669 Y125.205 E13.14174
G1 X129.76 Y126.295 E13.2324
G1 X129.045 Y126.295 E13.27443
G1 X127.955 Y125.205 E13.36505
G1 X127.241 Y125.205 E13.40702
G1 X128.331 Y126.295 E13.49764
G1 X127.617 Y126.295 E13.53961
G1 X126.302 Y124.98 E13.64894
G1 X127.128 Y126.52 F7200
G1 F3000
G1 X125.812 Y125.205 E13.75831
G1 X125.163 Y125.205 E13.79646
G1 X125.163 Y124.556 E13.83461
G1 X124.073 Y123.465 E13.92527
G1 X124.073 Y124.179 E13.96724
G1 X126.189 Y126.295 E14.14316
G1 X125.474 Y126.295 E14.18519
G1 X124.073 Y124.893 E14.30171
G1 X124.073 Y125.608 E14.34374
G1 X124.985 Y126.52 E14.41956
G1 E13.01956 F4800
;WIPE_START
G1 F5760
G1 X124.449 Y125.984 E12.41956
;WIPE_END
G92 E0
G1 X123.284 Y100.537 F7200
G1 E2 F4800
G1 F3000
G1 X116.452 Y93.705 E2.56799
G1 X115.737 Y93.705 E2.61002
G1 X122.345 Y100.312 E3.15935
G1 X121.631 Y100.312 E3.20132
G1 X115.094 Y93.776 E3.74475
G1 X114.474 Y93.869 E3.78161
G1 X120.917 Y100.312 E4.31726
G1 X120.202 Y100.312 E4.35929
G1 X113.853 Y93.963 E4.88713
G1 X113.232 Y94.056 E4.92404
G1 X119.488 Y100.312 E5.44415
G1 X118.774 Y100.312 E5.48612
G1 X112.612 Y94.15 E5.99841
G1 X111.991 Y94.244 E6.03533
G1 X118.06 Y100.312 E6.53985
G1 X117.346 Y100.312 E6.58182
G1 X111.371 Y94.337 E7.07856
G1 X110.75 Y94.431 E7.11548
G1 X116.632 Y100.312 E7.60445
G1 X115.917 Y100.312 E7.64648
G1 X110.13 Y94.524 E8.12764
G1 X109.509 Y94.618 E8.16456
G1 X115.203 Y100.312 E8.63794
G1 X114.489 Y100.312 E8.67991
G1 X108.888 Y94.712 E9.14552
G1 X108.268 Y94.805 E9.18238
G1 X113.775 Y100.312 E9.64022
G1 X113.061 Y100.312 E9.68219
G1 X107.647 Y94.899 E10.13225
G1 X107.027 Y94.992 E10.16911
G1 X112.347 Y100.312 E10.6114
G1 X111.632 Y100.312 E10.65343
G1 X106.406 Y95.086 E11.0879
G1 X105.795 Y95.189 E11.12433
G1 X110.918 Y100.312 E11.55024
G1 X110.204 Y100.312 E11.59221
G1 X105.222 Y95.33 E12.0064
G1 X104.649 Y95.471 E12.04109
G1 X109.49 Y100.312 E12.44356
G1 X108.776 Y100.312 E12.48553
G1 X104.076 Y95.613 E12.87623
G1 X103.503 Y95.754 E12.91092
G1 X108.102 Y100.353 E13.29327
G1 X107.534 Y100.498 E13.32773
G1 X102.93 Y95.895 E13.71045
G1 X102.357 Y96.036 E13.74514
G1 X106.965 Y100.644 E14.12824
G1 X106.397 Y100.79 E14.16272
G1 X101.784 Y96.178 E14.54619
G1 X101.212 Y96.319 E14.58082
G1 X105.828 Y100.935 E14.96458
G1 X105.259 Y101.081 E14.99911
G1 X100.639 Y96.46 E15.38325
G1 X100.066 Y96.601 E15.41794
G1 X104.691 Y101.227 E15.80249
G1 X104.122 Y101.372 E15.83701
G1 X99.493 Y96.743 E16.22185
G1 X98.92 Y96.884 E16.25654
G1 X103.554 Y101.518 E16.6418
G1 X102.985 Y101.664 E16.67633
G1 X98.347 Y97.025 E17.06196
G1 X97.774 Y97.166 E17.09665
G1 X102.417 Y101.809 E17.48266
G1 X101.848 Y101.955 E17.51719
G1 X97.201 Y97.308 E17.90353
G1 X96.628 Y97.449 E17.93822
G1 X101.28 Y102.101 E18.32497
G1 X100.711 Y102.246 E18.35949
G1 X96.055 Y97.59 E18.74658
G1 X95.482 Y97.731 E18.78127
G1 X100.143 Y102.392 E19.16877
G1 X99.574 Y102.538 E19.2033
G1 X94.909 Y97.873 E19.59113
G1 X94.469 Y97.981 E19.61776
G1 X94.375 Y98.053 E19.62472
G1 X99.006 Y102.683 E20.00969
G1 X98.437 Y102.829 E20.04422
G1 X93.972 Y98.363 E20.41547
G1 X93.568 Y98.673 E20.44541
G1 X97.869 Y102.975 E20.80302
G1 X97.3 Y103.12 E20.83754
G1 X93.164 Y98.984 E21.1814
G1 X92.76 Y99.294 E21.21134
G1 X96.732 Y103.266 E21.54156
G1 X96.163 Y103.412 E21.57609
G1 X92.356 Y99.604 E21.89263
G1 X91.952 Y99.914 E21.92257
G1 X95.595 Y103.557 E22.22544
G1 X95.026 Y103.703 E22.25997
G1 X91.548 Y100.225 E22.54912
G1 X91.144 Y100.535 E22.57906
G1 X94.66 Y104.051 E22.87137
G1 X94.4 Y104.505 E22.90213
G1 X90.74 Y100.845 E23.20641
G1 X90.336 Y101.155 E23.23635
G1 X94.141 Y104.96 E23.55269
G1 X93.881 Y105.414 E23.58345
G1 X89.932 Y101.466 E23.91172
G1 X89.528 Y101.776 E23.94166
G1 X93.621 Y105.869 E24.28194
G1 X93.362 Y106.323 E24.31267
G1 X89.124 Y102.086 E24.66496
G1 X88.72 Y102.396 E24.6949
G1 X93.102 Y106.778 E25.05921
G1 X92.842 Y107.233 E25.09002
G1 X88.316 Y102.707 E25.4663
G1 X87.913 Y103.017 E25.49619
G1 X92.583 Y107.687 E25.88444
G1 X92.323 Y108.142 E25.91525
G1 X87.509 Y103.327 E26.31551
G1 X87.193 Y103.569 E26.33891
G1 X87.156 Y103.689 E26.34629
G1 X92.064 Y108.596 E26.75429
G1 X91.804 Y109.051 E26.7851
G1 X86.989 Y104.235 E27.18545
G1 X86.821 Y104.782 E27.21909
G1 X91.544 Y109.505 E27.61175
G1 X91.285 Y109.96 E27.64253
G1 X86.653 Y105.328 E28.02762
G1 X86.485 Y105.874 E28.0612
G1 X91.136 Y110.525 E28.44787
G1 X91.225 Y111.328 E28.49536
G1 X86.317 Y106.421 E28.90336
G1 X86.15 Y106.967 E28.93693
G1 X90.693 Y111.511 E29.31466
G1 X89.979 Y111.511 E29.35663
G1 X85.982 Y107.513 E29.68897
G1 X85.837 Y107.985 E29.718
G1 X85.837 Y108.083 E29.72376
G1 X89.265 Y111.511 E30.00875
G1 X88.551 Y111.511 E30.05072
G1 X85.837 Y108.797 E30.27635
G1 X85.837 Y109.511 E30.31832
G1 X87.836 Y111.511 E30.48455
G1 X87.122 Y111.511 E30.52652
G1 X85.837 Y110.225 E30.63339
G1 X85.837 Y110.939 E30.67536
G1 X86.633 Y111.736 E30.74158
;LAYER_CHANGE
;Z:0.48
;HEIGHT:0.2
