; HEADER_BLOCK_START
; generated by AnycubicSlicerNext 1.3.9.3 on 2026-03-28 at 11:50:32
; total layer number: 40
; filament_density: 1.24
; filament_diameter: 1.75
; max_z_height: 8.04
; exclude_object: 0
; model_instances: 1
; source_info: {"models":[{"file_source":0,"mo_file_id":-1,"name":"Rack_Plate_id_0_copy_0"}],"models_from":0,"plate_index":1,"slice_paras_process":1,"software_version":"AnycubicSlicerNext 1.3.9.3 20260131153104"}
; paint_info = [{"material_type":"PLA","paint_color":[105,164,255],"paint_index":0}]
; project_info = {"flush_multiplier":1.0,"flush_volumes_chan_multipliers":[1.0,1.0,1.0,1.0],"flush_volumes_matrix":[0.0],"flush_volumes_vector":[140.0,140.0]}
; flush_multiplier_calculate_by_acnext: 1
; test_mode: 0
; HEADER_BLOCK_END

; THUMBNAIL_BLOCK_START
; THUMBNAIL_BLOCK_END

; external perimeters extrusion width = 0.42mm
; perimeters extrusion width = 0.45mm
; infill extrusion width = 0.45mm
; solid infill extrusion width = 0.42mm
; top infill extrusion width = 0.42mm
; support material extrusion width = 0.40mm
; first layer extrusion width = 0.50mm

; EXECUTABLE_BLOCK_START
M201 X2000 Y2000 Z800 E2000
M203 X300 Y300 Z8 E100
M204 P2000 R2000 T2000
M205 X10.00 Y10.00 Z2.00 E5.00
;TYPE:Custom
G90 ; use absolute coordinates
M83 ; extruder relative mode
M104 S220 ; set extruder temp
M140 S60 ; set bed temp
M190 S60 ; wait for bed temp
M109 S220 ; wait for extruder temp
G28                                        ; move X/Y/Z to min endstops
G1 Z0.28                                   ; lift nozzle a bit 
G92 E0 
G1 Y3 F1800                                    ; zero the extruded length 
G1 X60  E25 F500                       ; Extrude 25mm of filament in a 5cm line. 
G92 E0                                     ; zero the extruded length again 
G1 E-2 F500                                ; Retract a little 
G1 X70 F4000                              ; Quickly wipe away from the filament line
M117
G90
G21
M83 ; use relative distances for extrusion
; EXECUTABLE_BLOCK_HEAD
; filament start gcode
M75 ; The first extruder is ready.
M106 S0
;LAYER_CHANGE
;Z:0.24
;HEIGHT:0.24
; BEFORE_LAYER_CHANGE 0 @ 0.24mm
G92 E0
; AFTER_LAYER_CHANGE 0 @ 0.24mm
M204 S500
G1 E-.8 F3600
G1 X92.811 Y93.005 F18000
G1 Z.24
G1 E.8 F3600
;TYPE:Skirt
;WIDTH:0.5
G1 F3000
G1 X179.085 Y6.726 E5.351
G1 X179.973 Y5.995 E.05045
G1 X181.399 Y5.268 E.07019
G1 X182.686 Y4.959 E.05804
G1 X184.286 Y4.959 E.0702
G1 X185.241 Y5.16 E.0428
G1 X186.153 Y5.508 E.0428
G1 X186.999 Y5.995 E.04281
G1 X187.887 Y6.726 E.05045
G1 X211.93 Y30.767 E1.49111
G1 X212.456 Y31.372 E.03518
G1 X212.989 Y32.19 E.0428
G1 X213.388 Y33.081 E.04281
G1 X213.697 Y34.368 E.05805
G1 X213.746 Y35.343 E.0428
G1 X213.642 Y36.313 E.0428
G1 X213.388 Y37.255 E.04281
G1 X212.989 Y38.146 E.0428
G1 X212.456 Y38.964 E.0428
G1 X211.93 Y39.569 E.03518
G1 X39.401 Y212.109 E10.70088
G1 X38.513 Y212.84 E.05045
G1 X37.667 Y213.326 E.0428
G1 X36.755 Y213.675 E.04281
G1 X35.174 Y213.925 E.07019
G1 X33.855 Y213.821 E.05804
G1 X32.913 Y213.567 E.0428
G1 X32.022 Y213.168 E.04281
G1 X31.204 Y212.635 E.0428
G1 X30.599 Y212.109 E.03518
G1 X6.556 Y188.068 E1.49111
G1 X6.03 Y187.462 E.03518
G1 X5.497 Y186.645 E.0428
G1 X5.098 Y185.754 E.0428
G1 X4.844 Y184.812 E.04281
G1 X4.74 Y183.841 E.0428
G1 X4.789 Y182.867 E.04281
G1 X5.098 Y181.58 E.05804
G1 X5.497 Y180.689 E.0428
G1 X6.03 Y179.871 E.0428
G1 X6.556 Y179.266 E.03518
G1 X92.783 Y93.033 E5.34812
; printing object "Rack Plate" id:0 copy 0
G1 E-.8 F3600
G1 X210.501 Y37.328 F18000
G1 E.8 F3600
;TYPE:Outer wall
G1 F2400
G1 X210.118 Y37.776 E.02585
G1 X37.608 Y210.297 E10.69975
G1 X37.159 Y210.68 E.02585
G1 X36.668 Y210.981 E.02528
G1 X36.135 Y211.202 E.02528
G1 X35.575 Y211.336 E.02528
G1 X35 Y211.382 E.02528
G1 X34.425 Y211.336 E.02528
G1 X33.865 Y211.202 E.02528
G1 X33.332 Y210.981 E.02528
G1 X32.84 Y210.68 E.02528
G1 X32.392 Y210.297 E.02585
G1 X8.368 Y186.274 E1.48999
G1 X7.985 Y185.826 E.02585
G1 X7.684 Y185.335 E.02528
G1 X7.463 Y184.802 E.02528
G1 X7.329 Y184.242 E.02528
G1 X7.283 Y183.667 E.02528
G1 X7.329 Y183.092 E.02528
G1 X7.463 Y182.531 E.02528
G1 X7.684 Y181.999 E.02528
G1 X7.985 Y181.507 E.02528
G1 X8.368 Y181.059 E.02585
G1 X180.878 Y8.538 E10.69976
G1 X181.327 Y8.155 E.02584
G1 X181.818 Y7.854 E.02528
G1 X182.351 Y7.633 E.02528
G1 X182.911 Y7.499 E.02526
G1 X183.505 Y7.455 E.02612
G1 X184.061 Y7.499 E.02447
G1 X184.621 Y7.633 E.02528
G1 X185.154 Y7.854 E.02528
G1 X185.646 Y8.155 E.02528
G1 X186.094 Y8.538 E.02585
G1 X210.118 Y32.561 E1.48998
G1 X210.501 Y33.009 E.02585
G1 X210.802 Y33.5 E.02528
G1 X211.023 Y34.033 E.02528
G1 X211.157 Y34.593 E.02528
G1 X211.203 Y35.168 E.02528
G1 X211.157 Y35.743 E.02528
G1 X211.023 Y36.303 E.02528
G1 X210.802 Y36.836 E.02528
G1 X210.511 Y37.311 E.02441
G1 X210.137 Y37.063 F18000
;TYPE:Inner wall
G1 F2400
G1 X209.789 Y37.471 E.02352
G1 X209.134 Y38.126 E.0406
G1 X208.946 Y37.98 E.01042
G1 X209.02 Y37.856 E.00632
G1 X209.277 Y37.197 E.03104
G1 X209.423 Y36.504 E.03104
G1 X209.452 Y35.797 E.03104
G1 X209.364 Y35.094 E.03104
G1 X209.162 Y34.416 E.03104
G1 X208.851 Y33.78 E.03104
G1 X208.44 Y33.204 E.03104
G1 X207.94 Y32.703 E.03104
G1 X207.364 Y32.292 E.03104
G1 X206.728 Y31.981 E.03104
G1 X206.047 Y31.779 E.03116
G1 X205.315 Y31.693 E.03231
G1 X204.64 Y31.721 E.02963
G1 X203.947 Y31.866 E.03104
G1 X203.288 Y32.124 E.03104
G1 X202.679 Y32.486 E.03104
G1 X202.164 Y32.923 E.02963
G1 X199.997 Y35.089 E.13437
G1 X199.561 Y35.605 E.02964
G1 X199.198 Y36.213 E.03104
G1 X198.941 Y36.873 E.03104
G1 X198.796 Y37.565 E.03104
G1 X198.767 Y38.273 E.03104
G1 X198.854 Y38.975 E.03104
G1 X199.056 Y39.653 E.03104
G1 X199.367 Y40.289 E.03104
G1 X199.778 Y40.865 E.03104
G1 X200.279 Y41.366 E.03104
G1 X200.855 Y41.777 E.03104
G1 X201.491 Y42.088 E.03104
G1 X202.169 Y42.29 E.03104
G1 X202.872 Y42.377 E.03104
G1 X203.579 Y42.348 E.03104
G1 X204.272 Y42.203 E.03104
G1 X204.931 Y41.945 E.03104
G1 X205.055 Y41.872 E.00632
G1 X205.201 Y42.059 E.01042
G1 X41.891 Y205.379 E10.12911
G1 X41.703 Y205.233 E.01042
G1 X41.777 Y205.11 E.00632
G1 X42.034 Y204.45 E.03104
G1 X42.179 Y203.757 E.03104
G1 X42.209 Y203.05 E.03104
G1 X42.121 Y202.348 E.03104
G1 X41.919 Y201.669 E.03104
G1 X41.608 Y201.034 E.03104
G1 X41.197 Y200.457 E.03104
G1 X40.696 Y199.957 E.03104
G1 X40.12 Y199.546 E.03104
G1 X39.484 Y199.235 E.03104
G1 X38.803 Y199.032 E.03116
G1 X38.071 Y198.947 E.03231
G1 X37.396 Y198.975 E.02963
G1 X36.704 Y199.12 E.03104
G1 X36.044 Y199.377 E.03104
G1 X35.436 Y199.74 E.03104
G1 X34.921 Y200.176 E.02963
G1 X32.754 Y202.343 E.13437
G1 X32.317 Y202.859 E.02963
G1 X31.955 Y203.467 E.03104
G1 X31.698 Y204.126 E.03104
G1 X31.552 Y204.819 E.03104
G1 X31.523 Y205.526 E.03104
G1 X31.611 Y206.228 E.03104
G1 X31.813 Y206.907 E.03104
G1 X32.124 Y207.543 E.03104
G1 X32.535 Y208.119 E.03104
G1 X33.036 Y208.619 E.03104
G1 X33.612 Y209.031 E.03104
G1 X34.248 Y209.341 E.03104
G1 X34.926 Y209.543 E.03104
G1 X35.628 Y209.631 E.03104
G1 X36.336 Y209.602 E.03104
G1 X37.028 Y209.456 E.03104
G1 X37.688 Y209.199 E.03104
G1 X37.812 Y209.125 E.00632
G1 X37.958 Y209.313 E.01042
G1 X37.303 Y209.967 E.04061
G1 X36.895 Y210.316 E.02353
G1 X36.464 Y210.58 E.02219
G1 X35.996 Y210.774 E.02219
G1 X35.504 Y210.892 E.02219
G1 X35 Y210.932 E.02219
G1 X34.496 Y210.892 E.02219
G1 X34.004 Y210.774 E.02219
G1 X33.536 Y210.58 E.02219
G1 X33.105 Y210.316 E.02219
G1 X32.697 Y209.968 E.02352
G1 X8.697 Y185.97 E1.48844
G1 X8.349 Y185.562 E.02353
G1 X8.085 Y185.13 E.02219
G1 X7.891 Y184.663 E.02219
G1 X7.773 Y184.171 E.02219
G1 X7.733 Y183.667 E.02219
G1 X7.773 Y183.162 E.02219
G1 X7.891 Y182.67 E.02219
G1 X8.085 Y182.203 E.02219
G1 X8.349 Y181.772 E.02219
G1 X8.697 Y181.364 E.02353
G1 X9.351 Y180.71 E.04054
G1 X9.538 Y180.856 E.01042
G1 X9.465 Y180.979 E.00625
G1 X9.208 Y181.638 E.03104
G1 X9.063 Y182.331 E.03104
G1 X9.034 Y183.038 E.03104
G1 X9.121 Y183.74 E.03104
G1 X9.323 Y184.419 E.03104
G1 X9.634 Y185.055 E.03104
G1 X10.046 Y185.631 E.03104
G1 X10.546 Y186.131 E.03104
G1 X11.122 Y186.542 E.03104
G1 X11.758 Y186.853 E.03104
G1 X12.436 Y187.055 E.03104
G1 X13.139 Y187.143 E.03104
G1 X13.846 Y187.113 E.03104
G1 X14.539 Y186.968 E.03104
G1 X15.198 Y186.711 E.03104
G1 X15.806 Y186.349 E.03104
G1 X16.322 Y185.912 E.02963
G1 X18.488 Y183.745 E.13437
G1 X18.925 Y183.23 E.02963
G1 X19.287 Y182.621 E.03104
G1 X19.545 Y181.962 E.03104
G1 X19.69 Y181.269 E.03104
G1 X19.719 Y180.562 E.03104
G1 X19.632 Y179.86 E.03104
G1 X19.43 Y179.181 E.03104
G1 X19.119 Y178.545 E.03104
G1 X18.707 Y177.969 E.03104
G1 X18.457 Y177.719 E.01552
G1 X18.207 Y177.469 E.01552
G1 X17.631 Y177.058 E.03104
G1 X16.995 Y176.747 E.03104
G1 X16.314 Y176.544 E.03116
G1 X15.582 Y176.459 E.03231
G1 X14.907 Y176.487 E.02963
G1 X14.214 Y176.632 E.03104
G1 X13.555 Y176.889 E.03104
G1 X13.432 Y176.962 E.00625
G1 X13.286 Y176.775 E.01042
G1 X176.594 Y13.457 E10.12897
G1 X176.782 Y13.603 E.01042
G1 X176.709 Y13.725 E.00625
G1 X176.452 Y14.384 E.03104
G1 X176.306 Y15.077 E.03104
G1 X176.277 Y15.784 E.03104
G1 X176.365 Y16.487 E.03104
G1 X176.567 Y17.165 E.03104
G1 X176.878 Y17.801 E.03104
G1 X177.289 Y18.377 E.03104
G1 X177.789 Y18.878 E.03104
G1 X178.365 Y19.289 E.03104
G1 X179.001 Y19.6 E.03104
G1 X179.68 Y19.802 E.03104
G1 X180.382 Y19.889 E.03104
G1 X181.089 Y19.86 E.03104
G1 X181.782 Y19.715 E.03104
G1 X182.442 Y19.457 E.03104
G1 X183.05 Y19.095 E.03104
G1 X183.565 Y18.658 E.02964
G1 X185.732 Y16.492 E.13437
G1 X186.168 Y15.976 E.02963
G1 X186.531 Y15.368 E.03104
G1 X186.788 Y14.709 E.03104
G1 X186.933 Y14.016 E.03104
G1 X186.962 Y13.309 E.03104
G1 X186.875 Y12.606 E.03104
G1 X186.673 Y11.928 E.03104
G1 X186.362 Y11.292 E.03104
G1 X185.951 Y10.716 E.03104
G1 X185.45 Y10.215 E.03104
G1 X184.874 Y9.804 E.03104
G1 X184.238 Y9.493 E.03104
G1 X183.557 Y9.29 E.03116
G1 X182.825 Y9.205 E.03231
G1 X182.15 Y9.233 E.02963
G1 X181.457 Y9.378 E.03104
G1 X180.798 Y9.636 E.03104
G1 X180.676 Y9.709 E.00625
G1 X180.53 Y9.521 E.01042
G1 X181.183 Y8.867 E.04054
G1 X181.591 Y8.519 E.02352
G1 X182.022 Y8.255 E.02219
G1 X182.49 Y8.061 E.02219
G1 X182.98 Y7.943 E.02212
G1 X183.504 Y7.905 E.02302
G1 X183.99 Y7.943 E.02142
G1 X184.482 Y8.061 E.02219
G1 X184.95 Y8.255 E.02219
G1 X185.381 Y8.519 E.02219
G1 X185.789 Y8.867 E.02353
G1 X209.788 Y32.865 E1.48844
G1 X210.137 Y33.273 E.02353
G1 X210.401 Y33.704 E.02219
G1 X210.595 Y34.172 E.02219
G1 X210.713 Y34.664 E.02219
G1 X210.753 Y35.168 E.02219
G1 X210.713 Y35.673 E.02219
G1 X210.595 Y36.164 E.02219
G1 X210.401 Y36.632 E.02219
G1 X210.147 Y37.046 E.02131
G1 E-.8 F3600
G1 X21.262 Y196.062 F18000
G1 E.8 F3600
;TYPE:Outer wall
G1 F2400
G1 X21.266 Y196.068 E.00032
G1 X21.634 Y196.585 E.02783
G1 X22.106 Y197.049 E.02906
G1 X22.597 Y197.4 E.02645
G1 X23.166 Y197.678 E.02778
G1 X23.774 Y197.859 E.02778
G1 X24.402 Y197.937 E.02778
G1 X25.035 Y197.911 E.02778
G1 X25.655 Y197.781 E.02778
G1 X26.245 Y197.551 E.02778
G1 X26.789 Y197.226 E.02778
G1 X27.263 Y196.826 E.02719
G1 X29.403 Y194.685 E.13275
G1 X29.804 Y194.212 E.02719
G1 X30.128 Y193.668 E.02778
G1 X30.358 Y193.078 E.02778
G1 X30.488 Y192.458 E.02778
G1 X30.514 Y191.825 E.02778
G1 X30.436 Y191.196 E.02778
G1 X30.255 Y190.589 E.02778
G1 X29.977 Y190.02 E.02778
G1 X29.609 Y189.504 E.02778
G1 X29.161 Y189.056 E.02778
G1 X28.645 Y188.688 E.02778
G1 X28.076 Y188.41 E.02778
G1 X27.468 Y188.229 E.02783
G1 X26.81 Y188.152 E.02905
G1 X26.207 Y188.177 E.02645
G1 X25.587 Y188.307 E.02778
G1 X24.997 Y188.538 E.02778
G1 X24.453 Y188.862 E.02778
G1 X23.98 Y189.263 E.02719
G1 X21.84 Y191.403 E.13275
G1 X21.439 Y191.876 E.02719
G1 X21.115 Y192.42 E.02778
G1 X20.884 Y193.01 E.02778
G1 X20.754 Y193.63 E.02778
G1 X20.728 Y194.263 E.02778
G1 X20.807 Y194.892 E.02778
G1 X20.987 Y195.499 E.02778
G1 X21.254 Y196.044 E.02659
G1 X20.898 Y196.325 F18000
;TYPE:Inner wall
G1 F2400
G1 X21.292 Y196.877 E.02976
G1 X21.817 Y197.394 E.03232
G1 X22.367 Y197.786 E.02963
G1 X23.003 Y198.097 E.03104
G1 X23.681 Y198.299 E.03104
G1 X24.384 Y198.387 E.03104
G1 X25.091 Y198.358 E.03104
G1 X25.784 Y198.212 E.03104
G1 X26.443 Y197.955 E.03104
G1 X27.051 Y197.593 E.03104
G1 X27.567 Y197.156 E.02964
G1 X29.733 Y194.989 E.13438
G1 X30.17 Y194.474 E.02963
G1 X30.532 Y193.866 E.03104
G1 X30.789 Y193.206 E.03104
G1 X30.935 Y192.513 E.03104
G1 X30.964 Y191.806 E.03104
G1 X30.876 Y191.104 E.03104
G1 X30.674 Y190.425 E.03104
G1 X30.363 Y189.789 E.03104
G1 X29.952 Y189.213 E.03104
G1 X29.452 Y188.713 E.03104
G1 X28.875 Y188.302 E.03104
G1 X28.24 Y187.991 E.03104
G1 X27.559 Y187.788 E.03116
G1 X26.827 Y187.703 E.03231
G1 X26.152 Y187.731 E.02963
G1 X25.459 Y187.876 E.03104
G1 X24.799 Y188.133 E.03104
G1 X24.191 Y188.496 E.03104
G1 X23.676 Y188.932 E.02963
G1 X21.509 Y191.099 E.13437
G1 X21.073 Y191.615 E.02963
G1 X20.71 Y192.223 E.03104
G1 X20.453 Y192.882 E.03104
G1 X20.308 Y193.575 E.03104
G1 X20.279 Y194.282 E.03104
G1 X20.366 Y194.984 E.03104
G1 X20.568 Y195.663 E.03104
G1 X20.879 Y196.299 E.03104
G1 X20.886 Y196.308 E.00052
G1 E-.8 F3600
G1 X197.042 Y26.964 F18000
G1 E.8 F3600
;TYPE:Outer wall
G1 F2400
G1 X197.047 Y26.959 E.00032
G1 X197.371 Y26.414 E.02778
G1 X197.601 Y25.824 E.02778
G1 X197.731 Y25.204 E.02778
G1 X197.758 Y24.571 E.02778
G1 X197.679 Y23.943 E.02778
G1 X197.498 Y23.335 E.02778
G1 X197.22 Y22.766 E.02778
G1 X196.852 Y22.251 E.02778
G1 X196.404 Y21.803 E.02778
G1 X195.888 Y21.435 E.02778
G1 X195.319 Y21.157 E.02778
G1 X194.711 Y20.975 E.02783
G1 X194.053 Y20.899 E.02905
G1 X193.451 Y20.924 E.02645
G1 X192.831 Y21.054 E.02778
G1 X192.24 Y21.284 E.02778
G1 X191.696 Y21.608 E.02778
G1 X191.223 Y22.009 E.02719
G1 X189.083 Y24.149 E.13275
G1 X188.682 Y24.623 E.02719
G1 X188.358 Y25.167 E.02778
G1 X188.128 Y25.757 E.02778
G1 X187.998 Y26.377 E.02778
G1 X187.971 Y27.01 E.02778
G1 X188.05 Y27.638 E.02778
G1 X188.231 Y28.246 E.02778
G1 X188.509 Y28.815 E.02778
G1 X188.877 Y29.33 E.02778
G1 X189.325 Y29.778 E.02778
G1 X189.841 Y30.146 E.02778
G1 X190.41 Y30.425 E.02778
G1 X191.017 Y30.605 E.02778
G1 X191.645 Y30.684 E.02778
G1 X192.278 Y30.657 E.02778
G1 X192.898 Y30.527 E.02778
G1 X193.489 Y30.297 E.02778
G1 X194.033 Y29.973 E.02778
G1 X194.506 Y29.572 E.02719
G1 X196.646 Y27.432 E.13275
G1 X197.029 Y26.979 E.02599
G1 X197.392 Y27.244 F18000
;TYPE:Inner wall
G1 F2400
G1 X197.413 Y27.22 E.0014
G1 X197.775 Y26.612 E.03104
G1 X198.033 Y25.953 E.03104
G1 X198.178 Y25.26 E.03104
G1 X198.207 Y24.553 E.03104
G1 X198.12 Y23.85 E.03104
G1 X197.918 Y23.172 E.03104
G1 X197.607 Y22.536 E.03104
G1 X197.195 Y21.96 E.03104
G1 X196.695 Y21.459 E.03104
G1 X196.119 Y21.048 E.03104
G1 X195.483 Y20.737 E.03104
G1 X194.802 Y20.535 E.03116
G1 X194.07 Y20.449 E.03231
G1 X193.395 Y20.477 E.02963
G1 X192.702 Y20.622 E.03104
G1 X192.043 Y20.88 E.03104
G1 X191.435 Y21.242 E.03104
G1 X190.919 Y21.679 E.02963
G1 X188.753 Y23.845 E.13437
G1 X188.316 Y24.361 E.02964
G1 X187.954 Y24.969 E.03104
G1 X187.696 Y25.628 E.03104
G1 X187.551 Y26.321 E.03104
G1 X187.522 Y27.028 E.03104
G1 X187.609 Y27.731 E.03104
G1 X187.811 Y28.409 E.03104
G1 X188.122 Y29.045 E.03104
G1 X188.534 Y29.621 E.03104
G1 X189.034 Y30.122 E.03104
G1 X189.61 Y30.533 E.03104
G1 X190.246 Y30.844 E.03104
G1 X190.925 Y31.046 E.03104
G1 X191.627 Y31.133 E.03104
G1 X192.334 Y31.104 E.03104
G1 X193.027 Y30.959 E.03104
G1 X193.686 Y30.701 E.03104
G1 X194.294 Y30.339 E.03104
G1 X194.81 Y29.902 E.02964
G1 X196.976 Y27.736 E.13437
G1 X197.38 Y27.26 E.02735
G1 E-.8 F3600
G1 X22.921 Y172.755 F18000
G1 E.8 F3600
;TYPE:Outer wall
G1 F2400
G1 X23.283 Y172.658 E.01646
G1 X24.186 Y169.288 E.15299
G1 X23.116 Y168.219 E.06634
G1 X22.578 Y168.757 E.03337
G1 X20.75 Y170.585 E.11338
G1 X22.907 Y172.741 E.13373
G1 E-.8 F3600
G1 X25.091 Y169.554 F18000
G1 E.8 F3600
G1 F2400
G1 X23.971 Y173.806 E.1928
G1 X29.865 Y179.698 E.36549
G1 X34.146 Y178.532 E.1946
G1 X35.769 Y172.367 E.27959
G1 X31.242 Y167.878 E.2796
G1 X30.593 Y168.055 E.0295
G1 X25.11 Y169.549 E.24922
G1 E-.8 F3600
G1 X23.794 Y167.542 F18000
G1 E.8 F3600
G1 F2400
G1 X24.863 Y168.611 E.06634
G1 X31.021 Y166.961 E.27959
G1 X32.671 Y160.803 E.27959
G1 X31.601 Y159.733 E.06634
