; Postprocessed by [ArcWelder](https://github.com/FormerLurker/ArcWelderLib)
; Copyright(C) 2021 - Brad Hochgesang
; Version: 1.2.0, Branch: master, BuildDate: 2021-11-21T20:04:00Z
; resolution=0.05mm
; path_tolerance=5.0%
; max_radius=9999.00mm
; default_xyz_precision=3
; default_e_precision=5
; extrusion_rate_variance=5.0%

; generated by AnycubicSlicer 1.4.4 on 2025-08-21 at 14:57:16 UTC




; 

; external perimeters extrusion width = 0.42mm
; perimeters extrusion width = 0.45mm
; infill extrusion width = 0.45mm
; solid infill extrusion width = 0.50mm
; top infill extrusion width = 0.42mm
; first layer extrusion width = 0.56mm

; external perimeters extrusion width = 0.42mm
; perimeters extrusion width = 0.45mm
; infill extrusion width = 0.45mm
; solid infill extrusion width = 0.50mm
; top infill extrusion width = 0.42mm
; first layer extrusion width = 0.56mm

; external perimeters extrusion width = 0.42mm
; perimeters extrusion width = 0.45mm
; infill extrusion width = 0.45mm
; solid infill extrusion width = 0.50mm
; top infill extrusion width = 0.42mm
; first layer extrusion width = 0.56mm

; external perimeters extrusion width = 0.42mm
; perimeters extrusion width = 0.45mm
; infill extrusion width = 0.45mm
; solid infill extrusion width = 0.50mm
; top infill extrusion width = 0.42mm
; first layer extrusion width = 0.56mm

; external perimeters extrusion width = 0.42mm
; perimeters extrusion width = 0.45mm
; infill extrusion width = 0.45mm
; solid infill extrusion width = 0.50mm
; top infill extrusion width = 0.42mm
; first layer extrusion width = 0.56mm

; external perimeters extrusion width = 0.42mm
; perimeters extrusion width = 0.45mm
; infill extrusion width = 0.45mm
; solid infill extrusion width = 0.50mm
; top infill extrusion width = 0.42mm
; first layer extrusion width = 0.56mm

; external perimeters extrusion width = 0.42mm
; perimeters extrusion width = 0.45mm
; infill extrusion width = 0.45mm
; solid infill extrusion width = 0.50mm
; top infill extrusion width = 0.42mm
; first layer extrusion width = 0.56mm

; external perimeters extrusion width = 0.42mm
; perimeters extrusion width = 0.45mm
; infill extrusion width = 0.45mm
; solid infill extrusion width = 0.50mm
; top infill extrusion width = 0.42mm
; first layer extrusion width = 0.56mm

; external perimeters extrusion width = 0.42mm
; perimeters extrusion width = 0.45mm
; infill extrusion width = 0.45mm
; solid infill extrusion width = 0.50mm
; top infill extrusion width = 0.42mm
; first layer extrusion width = 0.56mm

M201 X2500 Y2500 Z800 E2500 ; sets maximum accelerations, mm/sec^2
M203 X250 Y250 Z8 E80 ; sets maximum feedrates, mm / sec
M204 S2500 T2500 ; sets acceleration (S) and retract acceleration (R), mm/sec^2
M205 X10.00 Y10.00 Z2.00 E10.00 ; sets the jerk limits, mm/sec
M205 S0 T0 ; sets the minimum extruding and travel feed rate, mm/sec
;TYPE:Custom
G90 ; use absolute coordinates
M83 ; extruder relative mode
M104 S215 ; set extruder temp
M140 S60 ; set bed temp
M190 S60 ; wait for bed temp
M109 S215 ; wait for extruder temp
G28                                        ; move X/Y/Z to min endstops
G1 Z0.28                                   ; lift nozzle a bit 
G92 E0 
G1 Y3 F1800                                    ; zero the extruded length 
G1 X60  E25 F500                       ; Extrude 25mm of filament in a 5cm line. 
G92 E0                                     ; zero the extruded length again 
G1 E-2 F500                                ; Retract a little 
G1 X70 F4000                              ; Quickly wipe away from the filament line
M117
G21 ; set units to millimeters
G90 ; use absolute coordinates
M82 ; use absolute distances for extrusion
G92 E0
M107
;LAYER_CHANGE
;Z:0.28
;HEIGHT:0.28
; BEFORE_LAYER_CHANGE 0 @ 0.28mm
G1 E-2 F4800
G92 E0
G1 Z.28 F7200
; AFTER_LAYER_CHANGE 0 @ 0.28mm
G1 X54.47 Y69.42
G1 E2 F4800
;TYPE:Skirt/Brim
;WIDTH:0.56
G1 F3000
G1 X56 Y69.001 E2.09232
G1 X164 Y69.001 E8.37737
G1 X165.485 Y69.395 E8.46678
G1 X166.581 Y70.471 E8.55616
G1 X167 Y72.001 E8.64848
G1 X167 Y147.999 E13.07118
G1 X166.606 Y149.484 E13.16059
G1 X165.53 Y150.58 E13.24997
G1 X164 Y150.999 E13.34229
G1 X56 Y150.999 E19.62734
G1 X54.515 Y150.605 E19.71675
G1 X53.419 Y149.529 E19.80613
G1 X53 Y147.999 E19.89845
G1 X53 Y72.001 E24.32115
G1 X53.394 Y70.516 E24.41056
G1 X54.428 Y69.463 E24.49644
G1 X54.787 Y69.873 F7200
G1 F3000
G1 X54.945 Y69.735 E24.50865
G1 X56 Y69.501 E24.57154
G1 X164 Y69.501 E30.85659
G1 X165.344 Y69.893 E30.93806
G1 X166.266 Y70.946 E31.01951
G1 X166.5 Y72.001 E31.0824
G1 X166.5 Y147.999 E35.5051
G1 X166.108 Y149.343 E35.58657
G1 X165.055 Y150.265 E35.66802
G1 X164 Y150.499 E35.73091
G1 X56 Y150.499 E42.01596
G1 X54.656 Y150.107 E42.09743
G1 X53.734 Y149.054 E42.17888
G1 X53.5 Y147.999 E42.24177
G1 X53.5 Y72.001 E46.66447
G1 X53.892 Y70.657 E46.74594
G1 X54.742 Y69.912 E46.81172
G1 E45.41172 F4800
;WIPE_START
G1 F5760
G1 X54.945 Y69.735 E45.1985
G1 X55.422 Y69.629 E44.81172
;WIPE_END
G92 E0
G1 X83.72 Y87.719 F7200
G1 E2 F4800
;TYPE:External perimeter
G1 F3000
G1 X56.28 Y87.719 E3.59687
G1 X56.28 Y72.281 E4.49528
G1 X83.72 Y72.281 E6.09215
G1 X83.72 Y87.659 E6.98707
G1 X83.326 Y87.651 F7200
G1 X83.22 Y87.219
;TYPE:Perimeter
G1 F3000
G1 X56.78 Y87.219 E8.52574
G1 X56.78 Y72.781 E9.36596
G1 X83.22 Y72.781 E10.90463
G1 X83.22 Y87.159 E11.74136
G1 X82.72 Y86.719 F7200
G1 F3000
G1 X57.28 Y86.719 E13.22184
G1 X57.28 Y73.281 E14.00386
G1 X82.72 Y73.281 E15.48434
G1 X82.72 Y86.659 E16.26287
G1 E14.86287 F4800
;WIPE_START
G1 F5760
G1 X81.962 Y86.661 E14.26287
;WIPE_END
G92 E0
G1 X81.51 Y73.481 F7200
G1 E2 F4800
;TYPE:Solid infill
;WIDTH:0.560024
G1 F3000
G1 X82.295 Y74.266 E2.06461
G1 X82.295 Y74.973 E2.10576
G1 X81.028 Y73.706 E2.21004
G1 X80.321 Y73.706 E2.25119
G1 X82.295 Y75.68 E2.41366
G1 X82.295 Y76.387 E2.45481
G1 X79.614 Y73.706 E2.67547
G1 X78.907 Y73.706 E2.71662
G1 X82.295 Y77.094 E2.99547
G1 X82.295 Y77.802 E3.03667
G1 X78.199 Y73.706 E3.37379
G1 X77.492 Y73.706 E3.41494
G1 X82.295 Y78.509 E3.81025
G1 X82.295 Y79.216 E3.8514
G1 X76.785 Y73.706 E4.30489
G1 X76.078 Y73.706 E4.34604
G1 X82.295 Y79.923 E4.85772
G1 X82.295 Y80.63 E4.89887
G1 X75.371 Y73.706 E5.46874
G1 X74.664 Y73.706 E5.50989
G1 X82.295 Y81.337 E6.13795
G1 X82.295 Y82.044 E6.1791
G1 X73.957 Y73.706 E6.86535
G1 X73.25 Y73.706 E6.9065
G1 X82.295 Y82.751 E7.65094
G1 X82.295 Y83.458 E7.69209
G1 X72.543 Y73.706 E8.49472
G1 X71.836 Y73.706 E8.53587
G1 X82.295 Y84.165 E9.39669
G1 X82.295 Y84.872 E9.43784
G1 X71.129 Y73.706 E10.35685
G1 X70.422 Y73.706 E10.398
G1 X82.295 Y85.579 E11.37519
G1 X82.295 Y86.286 E11.41634
G1 X69.715 Y73.706 E12.45172
G1 X69.008 Y73.706 E12.49287
G1 X81.597 Y86.294 E13.52895
G1 X80.89 Y86.294 E13.5701
G1 X68.301 Y73.706 E14.60618
G1 X67.594 Y73.706 E14.64733
G1 X80.183 Y86.294 E15.68341
G1 X79.476 Y86.294 E15.72456
G1 X66.887 Y73.706 E16.76064
G1 X66.18 Y73.706 E16.80179
G1 X78.769 Y86.294 E17.83787
G1 X78.062 Y86.294 E17.87902
G1 X65.473 Y73.706 E18.9151
G1 X64.766 Y73.706 E18.95625
G1 X77.355 Y86.294 E19.99233
G1 X76.648 Y86.294 E20.03348
G1 X64.059 Y73.706 E21.06956
G1 X63.352 Y73.706 E21.11071
G1 X75.941 Y86.294 E22.14679
G1 X75.234 Y86.294 E22.18794
G1 X62.645 Y73.706 E23.22402
G1 X61.938 Y73.706 E23.26517
G1 X74.527 Y86.294 E24.30125
G1 X73.82 Y86.294 E24.3424
G1 X61.231 Y73.706 E25.37848
G1 X60.524 Y73.706 E25.41963
G1 X73.113 Y86.294 E26.45571
G1 X72.406 Y86.294 E26.49686
G1 X59.817 Y73.706 E27.53294
G1 X59.11 Y73.706 E27.57409
G1 X71.699 Y86.294 E28.61017
G1 X70.992 Y86.294 E28.65132
G1 X58.403 Y73.706 E29.6874
G1 X57.705 Y73.714 E29.72802
G1 X70.285 Y86.294 E30.7634
G1 X69.578 Y86.294 E30.80455
G1 X57.705 Y74.421 E31.78174
G1 X57.705 Y75.128 E31.82289
G1 X68.871 Y86.294 E32.7419
G1 X68.164 Y86.294 E32.78305
G1 X57.705 Y75.835 E33.64387
G1 X57.705 Y76.542 E33.68502
G1 X67.457 Y86.294 E34.48765
G1 X66.75 Y86.294 E34.5288
G1 X57.705 Y77.25 E35.2732
G1 X57.705 Y77.957 E35.31435
G1 X66.042 Y86.294 E36.00052
G1 X65.335 Y86.294 E36.04167
G1 X57.705 Y78.664 E36.66965
G1 X57.705 Y79.371 E36.7108
G1 X64.628 Y86.294 E37.28059
G1 X63.921 Y86.294 E37.32174
G1 X57.705 Y80.078 E37.83334
G1 X57.705 Y80.785 E37.87449
G1 X63.214 Y86.294 E38.3279
G1 X62.507 Y86.294 E38.36905
G1 X57.705 Y81.492 E38.76427
G1 X57.705 Y82.199 E38.80542
G1 X61.8 Y86.294 E39.14245
G1 X61.093 Y86.294 E39.1836
G1 X57.705 Y82.906 E39.46245
G1 X57.705 Y83.613 E39.5036
G1 X60.386 Y86.294 E39.72426
G1 X59.679 Y86.294 E39.76541
G1 X57.705 Y84.32 E39.92788
G1 X57.705 Y85.027 E39.96903
G1 X58.972 Y86.294 E40.07331
G1 X58.265 Y86.294 E40.11446
G1 X57.48 Y85.509 E40.17907
G1 E38.77907 F4800
;WIPE_START
G1 F5760
G1 X58.016 Y86.045 E38.17907
;WIPE_END
G92 E0
G1 X83.72 Y117.719 F7200
G1 E2 F4800
;TYPE:External perimeter
;WIDTH:0.56
G1 F3000
G1 X56.28 Y117.719 E3.59687
G1 X56.28 Y102.281 E4.49528
G1 X83.72 Y102.281 E6.09215
G1 X83.72 Y117.659 E6.98707
G1 X83.326 Y117.651 F7200
G1 X83.22 Y117.219
;TYPE:Perimeter
G1 F3000
G1 X56.78 Y117.219 E8.52574
G1 X56.78 Y102.781 E9.36596
G1 X83.22 Y102.781 E10.90463
G1 X83.22 Y117.159 E11.74136
G1 X82.72 Y116.719 F7200
G1 F3000
G1 X57.28 Y116.719 E13.22184
G1 X57.28 Y103.281 E14.00386
G1 X82.72 Y103.281 E15.48434
G1 X82.72 Y116.659 E16.26287
G1 E14.86287 F4800
;WIPE_START
G1 F5760
G1 X81.962 Y116.661 E14.26287
;WIPE_END
G92 E0
G1 X81.51 Y103.481 F7200
G1 E2 F4800
;TYPE:Solid infill
;WIDTH:0.560024
G1 F3000
G1 X82.295 Y104.266 E2.06461
G1 X82.295 Y104.973 E2.10576
G1 X81.028 Y103.706 E2.21004
G1 X80.321 Y103.706 E2.25119
G1 X82.295 Y105.68 E2.41366
G1 X82.295 Y106.387 E2.45481
G1 X79.614 Y103.706 E2.67547
G1 X78.907 Y103.706 E2.71662
G1 X82.295 Y107.094 E2.99547
G1 X82.295 Y107.802 E3.03667
G1 X78.199 Y103.706 E3.37379
G1 X77.492 Y103.706 E3.41494
G1 X82.295 Y108.509 E3.81025
G1 X82.295 Y109.216 E3.8514
G1 X76.785 Y103.706 E4.30489
G1 X76.078 Y103.706 E4.34604
G1 X82.295 Y109.923 E4.85772
G1 X82.295 Y110.63 E4.89887
G1 X75.371 Y103.706 E5.46874
G1 X74.664 Y103.706 E5.50989
G1 X82.295 Y111.337 E6.13795
G1 X82.295 Y112.044 E6.1791
G1 X73.957 Y103.706 E6.86535
G1 X73.25 Y103.706 E6.9065
G1 X82.295 Y112.751 E7.65094
G1 X82.295 Y113.458 E7.69209
G1 X72.543 Y103.706 E8.49472
G1 X71.836 Y103.706 E8.53587
G1 X82.295 Y114.165 E9.39669
G1 X82.295 Y114.872 E9.43784
G1 X71.129 Y103.706 E10.35685
G1 X70.422 Y103.706 E10.398
G1 X82.295 Y115.579 E11.37519
G1 X82.295 Y116.286 E11.41634
G1 X69.715 Y103.706 E12.45172
G1 X69.008 Y103.706 E12.49287
G1 X81.597 Y116.294 E13.52895
G1 X80.89 Y116.294 E13.5701
G1 X68.301 Y103.706 E14.60618
G1 X67.594 Y103.706 E14.64733
G1 X80.183 Y116.294 E15.68341
G1 X79.476 Y116.294 E15.72456
G1 X66.887 Y103.706 E16.76064
G1 X66.18 Y103.706 E16.80179
G1 X78.769 Y116.294 E17.83787
G1 X78.062 Y116.294 E17.87902
G1 X65.473 Y103.706 E18.9151
G1 X64.766 Y103.706 E18.95625
G1 X77.355 Y116.294 E19.99233
G1 X76.648 Y116.294 E20.03348
G1 X64.059 Y103.706 E21.06956
G1 X63.352 Y103.706 E21.11071
G1 X75.941 Y116.294 E22.14679
G1 X75.234 Y116.294 E22.18794
G1 X62.645 Y103.706 E23.22402
G1 X61.938 Y103.706 E23.26517
G1 X74.527 Y116.294 E24.30125
G1 X73.82 Y116.294 E24.3424
G1 X61.231 Y103.706 E25.37848
G1 X60.524 Y103.706 E25.41963
G1 X73.113 Y116.294 E26.45571
G1 X72.406 Y116.294 E26.49686
G1 X59.817 Y103.706 E27.53294
G1 X59.11 Y103.706 E27.57409
G1 X71.699 Y116.294 E28.61017
G1 X70.992 Y116.294 E28.65132
G1 X58.403 Y103.706 E29.6874
G1 X57.705 Y103.714 E29.72802
G1 X70.285 Y116.294 E30.7634
G1 X69.578 Y116.294 E30.80455
G1 X57.705 Y104.421 E31.78174
G1 X57.705 Y105.128 E31.82289
G1 X68.871 Y116.294 E32.7419
G1 X68.164 Y116.294 E32.78305
G1 X57.705 Y105.835 E33.64387
G1 X57.705 Y106.542 E33.68502
G1 X67.457 Y116.294 E34.48765
G1 X66.75 Y116.294 E34.5288
G1 X57.705 Y107.25 E35.2732
G1 X57.705 Y107.957 E35.31435
G1 X66.042 Y116.294 E36.00052
G1 X65.335 Y116.294 E36.04167
G1 X57.705 Y108.664 E36.66965
G1 X57.705 Y109.371 E36.7108
G1 X64.628 Y116.294 E37.28059
G1 X63.921 Y116.294 E37.32174
G1 X57.705 Y110.078 E37.83334
G1 X57.705 Y110.785 E37.87449
G1 X63.214 Y116.294 E38.3279
G1 X62.507 Y116.294 E38.36905
G1 X57.705 Y111.492 E38.76427
G1 X57.705 Y112.199 E38.80542
G1 X61.8 Y116.294 E39.14245
G1 X61.093 Y116.294 E39.1836
G1 X57.705 Y112.906 E39.46245
G1 X57.705 Y113.613 E39.5036
G1 X60.386 Y116.294 E39.72426
G1 X59.679 Y116.294 E39.76541
G1 X57.705 Y114.32 E39.92788
G1 X57.705 Y115.027 E39.96903
G1 X58.972 Y116.294 E40.07331
G1 X58.265 Y116.294 E40.11446
G1 X57.48 Y115.509 E40.17907
G1 E38.77907 F4800
;WIPE_START
G1 F5760
G1 X58.016 Y116.045 E38.17907
;WIPE_END
G92 E0
G1 X83.72 Y147.719 F7200
G1 E2 F4800
;TYPE:External perimeter
;WIDTH:0.56
G1 F3000
G1 X56.28 Y147.719 E3.59687
G1 X56.28 Y132.281 E4.49528
G1 X83.72 Y132.281 E6.09215
G1 X83.72 Y147.659 E6.98707
G1 X83.326 Y147.651 F7200
G1 X83.22 Y147.219
;TYPE:Perimeter
G1 F3000
G1 X56.78 Y147.219 E8.52574
G1 X56.78 Y132.781 E9.36596
G1 X83.22 Y132.781 E10.90463
G1 X83.22 Y147.159 E11.74136
G1 X82.72 Y146.719 F7200
G1 F3000
G1 X57.28 Y146.719 E13.22184
G1 X57.28 Y133.281 E14.00386
G1 X82.72 Y133.281 E15.48434
G1 X82.72 Y146.659 E16.26287
G1 E14.86287 F4800
;WIPE_START
G1 F5760
G1 X81.962 Y146.661 E14.26287
;WIPE_END
G92 E0
G1 X81.51 Y133.481 F7200
G1 E2 F4800
;TYPE:Solid infill
;WIDTH:0.560024
G1 F3000
G1 X82.295 Y134.266 E2.06461
G1 X82.295 Y134.973 E2.10576
G1 X81.028 Y133.706 E2.21004
G1 X80.321 Y133.706 E2.25119
G1 X82.295 Y135.68 E2.41366
G1 X82.295 Y136.387 E2.45481
G1 X79.614 Y133.706 E2.67547
G1 X78.907 Y133.706 E2.71662
G1 X82.295 Y137.094 E2.99547
G1 X82.295 Y137.802 E3.03667
G1 X78.199 Y133.706 E3.37379
G1 X77.492 Y133.706 E3.41494
G1 X82.295 Y138.509 E3.81025
G1 X82.295 Y139.216 E3.8514
G1 X76.785 Y133.706 E4.30489
G1 X76.078 Y133.706 E4.34604
G1 X82.295 Y139.923 E4.85772
G1 X82.295 Y140.63 E4.89887
G1 X75.371 Y133.706 E5.46874
G1 X74.664 Y133.706 E5.50989
G1 X82.295 Y141.337 E6.13795
G1 X82.295 Y142.044 E6.1791
G1 X73.957 Y133.706 E6.86535
G1 X73.25 Y133.706 E6.9065
G1 X82.295 Y142.751 E7.65094
G1 X82.295 Y143.458 E7.69209
G1 X72.543 Y133.706 E8.49472
G1 X71.836 Y133.706 E8.53587
G1 X82.295 Y144.165 E9.39669
G1 X82.295 Y144.872 E9.43784
G1 X71.129 Y133.706 E10.35685
G1 X70.422 Y133.706 E10.398
G1 X82.295 Y145.579 E11.37519
G1 X82.295 Y146.286 E11.41634
G1 X69.715 Y133.706 E12.45172
G1 X69.008 Y133.706 E12.49287
G1 X81.597 Y146.294 E13.52895
G1 X80.89 Y146.294 E13.5701
G1 X68.301 Y133.706 E14.60618
G1 X67.594 Y133.706 E14.64733
G1 X80.183 Y146.294 E15.68341
G1 X79.476 Y146.294 E15.72456
G1 X66.887 Y133.706 E16.76064
G1 X66.18 Y133.706 E16.80179
G1 X78.769 Y146.294 E17.83787
G1 X78.062 Y146.294 E17.87902
G1 X65.473 Y133.706 E18.9151
G1 X64.766 Y133.706 E18.95625
G1 X77.355 Y146.294 E19.99233
G1 X76.648 Y146.294 E20.03348
G1 X64.059 Y133.706 E21.06956
G1 X63.352 Y133.706 E21.11071
G1 X75.941 Y146.294 E22.14679
G1 X75.234 Y146.294 E22.18794
G1 X62.645 Y133.706 E23.22402
G1 X61.938 Y133.706 E23.26517
G1 X74.527 Y146.294 E24.30125
G1 X73.82 Y146.294 E24.3424
G1 X61.231 Y133.706 E25.37848
G1 X60.524 Y133.706 E25.41963
G1 X73.113 Y146.294 E26.45571
G1 X72.406 Y146.294 E26.49686
G1 X59.817 Y133.706 E27.53294
G1 X59.11 Y133.706 E27.57409
G1 X71.699 Y146.294 E28.61017
G1 X70.992 Y146.294 E28.65132
G1 X58.403 Y133.706 E29.6874
G1 X57.705 Y133.714 E29.72802
G1 X70.285 Y146.294 E30.7634
G1 X69.578 Y146.294 E30.80455
G1 X57.705 Y134.421 E31.78174
G1 X57.705 Y135.128 E31.82289
G1 X68.871 Y146.294 E32.7419
G1 X68.164 Y146.294 E32.78305
G1 X57.705 Y135.835 E33.64387
G1 X57.705 Y136.542 E33.68502
G1 X67.457 Y146.294 E34.48765
G1 X66.75 Y146.294 E34.5288
G1 X57.705 Y137.25 E35.2732
G1 X57.705 Y137.957 E35.31435
G1 X66.042 Y146.294 E36.00052
G1 X65.335 Y146.294 E36.04167
G1 X57.705 Y138.664 E36.66965
G1 X57.705 Y139.371 E36.7108
G1 X64.628 Y146.294 E37.28059
G1 X63.921 Y146.294 E37.32174
G1 X57.705 Y140.078 E37.83334
G1 X57.705 Y140.785 E37.87449
G1 X63.214 Y146.294 E38.3279
G1 X62.507 Y146.294 E38.36905
G1 X57.705 Y141.492 E38.76427
G1 X57.705 Y142.199 E38.80542
G1 X61.8 Y146.294 E39.14245
G1 X61.093 Y146.294 E39.1836
G1 X57.705 Y142.906 E39.46245
G1 X57.705 Y143.613 E39.5036
