; Postprocessed by [ArcWelder](https://github.com/FormerLurker/ArcWelderLib)
; Copyright(C) 2021 - Brad Hochgesang
; Version: 1.2.0, Branch: master, BuildDate: 2021-11-21T20:04:00Z
; resolution=0.05mm
; path_tolerance=5.0%
; max_radius=9999.00mm
; default_xyz_precision=3
; default_e_precision=5
; extrusion_rate_variance=5.0%

; generated by AnycubicSlicer 1.4.4 on 2025-07-01 at 14:15:13 UTC




; 

; external perimeters extrusion width = 0.42mm
; perimeters extrusion width = 0.45mm
; infill extrusion width = 0.45mm
; solid infill extrusion width = 0.50mm
; top infill extrusion width = 0.42mm
; first layer extrusion width = 0.56mm

M201 X2500 Y2500 Z800 E2500 ; sets maximum accelerations, mm/sec^2
M203 X250 Y250 Z8 E80 ; sets maximum feedrates, mm / sec
M204 S2500 T2500 ; sets acceleration (S) and retract acceleration (R), mm/sec^2
M205 X10.00 Y10.00 Z2.00 E10.00 ; sets the jerk limits, mm/sec
M205 S0 T0 ; sets the minimum extruding and travel feed rate, mm/sec
;TYPE:Custom
G90 ; use absolute coordinates
M83 ; extruder relative mode
M104 S215 ; set extruder temp
M140 S60 ; set bed temp
M190 S60 ; wait for bed temp
M109 S215 ; wait for extruder temp
G28                                        ; move X/Y/Z to min endstops
G1 Z0.28                                   ; lift nozzle a bit 
G92 E0 
G1 Y3 F1800                                    ; zero the extruded length 
G1 X60  E25 F500                       ; Extrude 25mm of filament in a 5cm line. 
G92 E0                                     ; zero the extruded length again 
G1 E-2 F500                                ; Retract a little 
G1 X70 F4000                              ; Quickly wipe away from the filament line
M117
G21 ; set units to millimeters
G90 ; use absolute coordinates
M82 ; use absolute distances for extrusion
G92 E0
M107
;LAYER_CHANGE
;Z:0.28
;HEIGHT:0.28
; BEFORE_LAYER_CHANGE 0 @ 0.28mm
G1 E-2 F4800
G92 E0
G1 Z.28 F7200
; AFTER_LAYER_CHANGE 0 @ 0.28mm
G1 X61.54 Y61.54
G1 E2 F4800
;TYPE:Skirt/Brim
;WIDTH:0.56
G1 F3000
G1 X65.201 Y57.879 E2.3013
G1 X66.529 Y57.107 E2.39069
G1 X67.322 Y57 E2.43726
G1 X152.678 Y57 E7.40455
G1 X154.163 Y57.394 E7.49396
G1 X154.799 Y57.879 E7.54051
G1 X162.121 Y65.201 E8.14311
G1 X162.893 Y66.529 E8.2325
G1 X163 Y67.322 E8.27907
G1 X163 Y152.678 E13.24636
G1 X162.606 Y154.163 E13.33577
G1 X162.121 Y154.799 E13.38232
G1 X154.799 Y162.121 E13.98492
G1 X153.471 Y162.893 E14.07431
G1 X152.678 Y163 E14.12088
G1 X67.322 Y163 E19.08817
G1 X65.837 Y162.606 E19.17758
G1 X65.201 Y162.121 E19.22413
G1 X57.879 Y154.799 E19.82673
G1 X57.107 Y153.471 E19.91612
G1 X57 Y152.678 E19.96269
G1 X57 Y67.322 E24.92998
G1 X57.394 Y65.837 E25.01939
G1 X57.879 Y65.201 E25.06594
G1 X61.498 Y61.582 E25.36378
G1 X61.851 Y61.936 F7200
G1 F3000
G1 X65.555 Y58.232 E25.66862
G1 X67.322 Y57.5 E25.77992
G1 X152.678 Y57.5 E30.74721
G1 X154.445 Y58.232 E30.85851
G1 X161.768 Y65.555 E31.46119
G1 X162.5 Y67.322 E31.57249
G1 X162.5 Y152.678 E36.53978
G1 X161.768 Y154.445 E36.65108
G1 X154.445 Y161.768 E37.25376
G1 X152.678 Y162.5 E37.36506
G1 X67.322 Y162.5 E42.33235
G1 X65.555 Y161.768 E42.44365
G1 X58.232 Y154.445 E43.04633
G1 X57.5 Y152.678 E43.15763
G1 X57.5 Y67.322 E48.12492
G1 X58.232 Y65.555 E48.23622
G1 X61.809 Y61.978 E48.53061
G1 E47.13061 F4800
;WIPE_START
G1 F5760
G1 X62.345 Y61.442 E46.53061
;WIPE_END
G92 E0
G1 X85 Y152.282 F7200
G1 E2 F4800
;TYPE:External perimeter
G1 F3000
G1 X77.562 Y159.72 E2.61215
G1 X67.438 Y159.72 E3.20132
G1 X60.28 Y152.562 E3.79042
G1 X60.28 Y142.438 E4.37959
G1 X67.718 Y135 E4.99174
G1 X60.28 Y127.562 E5.60389
G1 X60.28 Y117.438 E6.19306
G1 X67.718 Y110 E6.80521
G1 X60.28 Y102.562 E7.41736
G1 X60.28 Y92.438 E8.00653
G1 X67.718 Y85 E8.61868
G1 X60.28 Y77.562 E9.23083
G1 X60.28 Y67.438 E9.82
G1 X67.438 Y60.28 E10.4091
G1 X77.562 Y60.28 E10.99827
G1 X85 Y67.718 E11.61042
G1 X92.438 Y60.28 E12.22257
G1 X102.562 Y60.28 E12.81174
G1 X110 Y67.718 E13.42389
G1 X117.438 Y60.28 E14.03604
G1 X127.562 Y60.28 E14.62521
G1 X135 Y67.718 E15.23736
G1 X142.438 Y60.28 E15.84951
G1 X152.562 Y60.28 E16.43868
G1 X159.72 Y67.438 E17.02778
G1 X159.72 Y77.562 E17.61695
G1 X152.282 Y85 E18.2291
G1 X159.72 Y92.438 E18.84125
G1 X159.72 Y102.562 E19.43042
G1 X152.282 Y110 E20.04257
G1 X159.72 Y117.438 E20.65472
G1 X159.72 Y127.562 E21.24389
G1 X152.282 Y135 E21.85604
G1 X159.72 Y142.438 E22.46819
G1 X159.72 Y152.562 E23.05736
G1 X152.562 Y159.72 E23.64646
G1 X142.438 Y159.72 E24.23563
G1 X135 Y152.282 E24.84778
G1 X127.562 Y159.72 E25.45993
G1 X117.438 Y159.72 E26.0491
G1 X110 Y152.282 E26.66125
G1 X102.562 Y159.72 E27.2734
G1 X92.438 Y159.72 E27.86257
G1 X85.042 Y152.324 E28.47126
G1 X84.683 Y152.037 F7200
G1 E27.07126 F4800
;WIPE_START
G1 F5760
G1 X84.503 Y152.857 E26.47126
;WIPE_END
G92 E0
G1 X67.578 Y84.41 F7200
G1 E2 F4800
G1 F3000
G1 X60.59 Y77.433 E2.57466
G1 X60.59 Y67.567 E3.14881
G1 X67.567 Y60.59 E3.72302
G1 X77.433 Y60.59 E4.29717
G1 X84.41 Y67.567 E4.87138
G1 X84.41 Y77.433 E5.44553
G1 X77.433 Y84.41 E6.01974
G1 X67.638 Y84.41 E6.58976
G1 X67.261 Y84.654 F7200
G1 X67.596 Y85.59
G1 F3000
G1 X77.433 Y85.59 E7.16222
G1 X84.41 Y92.567 E7.73643
G1 X84.41 Y102.433 E8.31058
G1 X77.433 Y109.41 E8.88479
G1 X67.567 Y109.41 E9.45894
G1 X60.59 Y102.433 E10.03315
G1 X60.59 Y92.567 E10.6073
G1 X67.545 Y85.612 E11.1797
G1 X67.648 Y85.193 F7200
G1 E9.7797 F4800
;WIPE_START
G1 F5760
G1 X68.303 Y85.61 E9.1797
;WIPE_END
G92 E0
G1 X67.546 Y110.611 F7200
G1 E2 F4800
G1 F3000
G1 X67.567 Y110.59 E2.00173
G1 X77.433 Y110.59 E2.57588
G1 X84.41 Y117.567 E3.15009
G1 X84.41 Y127.433 E3.72424
G1 X77.433 Y134.41 E4.29845
G1 X67.567 Y134.41 E4.8726
G1 X60.59 Y127.433 E5.44681
G1 X60.59 Y117.567 E6.02096
G1 X67.504 Y110.653 E6.58998
G1 X67.535 Y110.584 F7200
G1 E5.18998 F4800
;WIPE_START
G1 F5760
G1 X67.567 Y110.59 E5.11945
G1 X68.236 Y110.59 E4.58998
;WIPE_END
G92 E0
G1 X84.41 Y152.419 F7200
G1 E2 F4800
G1 F3000
G1 X77.433 Y159.41 E2.57478
G1 X67.567 Y159.41 E3.14893
G1 X60.59 Y152.433 E3.72314
G1 X60.59 Y142.567 E4.29729
G1 X67.567 Y135.59 E4.8715
G1 X77.433 Y135.59 E5.44565
G1 X84.41 Y142.567 E6.01986
G1 X84.41 Y152.359 E6.5897
G1 X84.654 Y152.736 F7200
G1 E5.1897 F4800
;WIPE_START
G1 F5760
G1 X83.877 Y152.898 E4.5897
;WIPE_END
G92 E0
G1 X159.41 Y142.76 F7200
G1 E2 F4800
G1 F3000
G1 X159.41 Y152.433 E2.56292
G1 X152.433 Y159.41 E3.13713
G1 X142.567 Y159.41 E3.71128
G1 X135.59 Y152.433 E4.28549
G1 X135.59 Y142.567 E4.85964
G1 X142.567 Y135.59 E5.43385
G1 X152.433 Y135.59 E6.008
G1 X159.41 Y142.567 E6.58221
G1 X159.41 Y142.7 E6.58995
G1 X159.796 Y142.865 F7200
G1 E5.18995 F4800
;WIPE_START
G1 F5760
G1 X159.41 Y143.458 E4.58995
;WIPE_END
G92 E0
G1 X127.55 Y135 F7200
G1 E2 F4800
;TYPE:Perimeter
G1 F3000
G1 X135 Y127.55 E2.61314
G1 X142.45 Y135 E3.22628
G1 X135 Y142.45 E3.83942
G1 X127.593 Y135.042 E4.44906
G1 E3.04906 F4800
;WIPE_START
G1 F5760
G1 X128.126 Y134.503 E2.44906
;WIPE_END
G92 E0
G1 X133.499 Y139.915 F7200
G1 E2 F4800
G1 F3000
G2 X136.522 Y139.911 I1.505 J-4.875 E2.17852
G1 X136.633 Y140.11 E2.19178
G1 X135 Y141.743 E2.32618
G1 X133.368 Y140.11 E2.46053
G1 X133.461 Y139.948 E2.4714
G1 E1.0714 F4800
;WIPE_START
G1 F5760
G3 X134.208 Y140.075 I-15.223 J91.801 E0.47140
;WIPE_END
G92 E0
G1 X139.911 Y136.522 F7200
G1 E2 F4800
G1 F3000
G2 X139.911 Y133.482 I-4.908 J-1.520 E2.17953
G1 X140.11 Y133.367 E2.19291
G1 X141.743 Y135 E2.32731
G1 X140.109 Y136.634 E2.46179
G1 X139.963 Y136.551 E2.47156
G1 E1.07156 F4800
;WIPE_START
G1 F5760
G2 X140.074 Y135.801 I-20.288 J-3.386 E0.47156
;WIPE_END
G92 E0
G1 X133.482 Y130.09 F7200
G1 E2 F4800
G1 F3000
G1 X133.367 Y129.89 E2.01343
G1 X135 Y128.257 E2.14783
G1 X136.634 Y129.891 E2.28231
G1 X136.522 Y130.089 E2.29555
G2 X133.540 Y130.074 I-1.516 J4.875 E2.47159
G1 E1.07159 F4800
;WIPE_START
G1 F5760
G1 X133.367 Y129.89 E.87165
G1 X133.724 Y129.533 E.47159
;WIPE_END
G92 E0
G1 X133.646 Y138.909 F7200
G1 E2 F4800
;TYPE:External perimeter
G1 F3000
G3 X134.476 Y139.107 I1.371 J-3.907 E3.46349
G3 X133.702 Y138.929 I0.491 J-3.906 E3.50977
G1 X133.458 Y139.079 F7200
G1 X133.593 Y139.421
;TYPE:Perimeter
G1 F3000
G3 X133.996 Y139.531 I1.422 J-4.417 E5.18162
G1 X133.651 Y139.438 E5.20241
G1 E3.80241 F4800
;WIPE_START
G1 F5760
G3 X132.947 Y139.159 I1.116 J-3.844 E3.20241
;WIPE_END
G92 E0
G1 X130.09 Y136.519 F7200
G1 E2 F4800
G1 F3000
G1 X129.891 Y136.634 E2.01338
G1 X128.257 Y135 E2.14786
G1 X129.89 Y133.368 E2.28221
G1 X130.088 Y133.478 E2.29539
G2 X130.075 Y136.461 I4.880 J1.513 E2.47148
G1 E1.07148 F4800
;WIPE_START
G1 F5760
G1 X129.891 Y136.634 E.87154
G1 X129.534 Y136.277 E.47148
;WIPE_END
G92 E0
G1 X159.41 Y127.049 F7200
G1 E2 F4800
;TYPE:External perimeter
G1 F3000
G1 X159.41 Y127.433 E2.02235
G1 X152.433 Y134.41 E2.59656
G1 X142.567 Y134.41 E3.17071
G1 X135.59 Y127.433 E3.74492
G1 X135.59 Y117.567 E4.31907
G1 X142.567 Y110.59 E4.89328
G1 X152.433 Y110.59 E5.46743
G1 X159.41 Y117.567 E6.04164
G1 X159.41 Y126.989 E6.58995
G1 X159.765 Y127.195 F7200
G1 E5.18995 F4800
;WIPE_START
G1 F5760
G2 X159.188 Y127.655 I0.877 J1.692 E4.58995
;WIPE_END
G92 E0
G1 X142.45 Y110 F7200
G1 E2 F4800
;TYPE:Perimeter
G1 F3000
G1 X135 Y117.45 E2.61314
G1 X127.55 Y110 E3.22628
G1 X135 Y102.55 E3.83942
G1 X142.407 Y109.958 E4.44906
G1 E3.04906 F4800
;WIPE_START
G1 F5760
G1 X141.874 Y110.497 E2.44906
;WIPE_END
G92 E0
G1 X133.483 Y114.911 F7200
G1 E2 F4800
G1 F3000
G2 X136.522 Y114.911 I1.519 J-4.881 E2.17948
G1 X136.633 Y115.11 E2.19274
G1 X135 Y116.743 E2.32714
G1 X133.368 Y115.11 E2.46149
G1 X133.453 Y114.963 E2.47137
G1 E1.07137 F4800
;WIPE_START
G1 F5760
G3 X134.203 Y115.074 I-1.001 J9.353 E0.47137
;WIPE_END
G92 E0
G1 X139.911 Y111.522 F7200
G1 E2 F4800
G1 F3000
G2 X139.911 Y108.482 I-4.908 J-1.520 E2.17953
G1 X140.11 Y108.367 E2.19291
G1 X141.743 Y110 E2.32731
G1 X140.109 Y111.634 E2.46179
G1 X139.963 Y111.551 E2.47156
G1 E1.07156 F4800
;WIPE_START
G1 F5760
G2 X140.074 Y110.801 I-20.288 J-3.386 E0.47156
;WIPE_END
G92 E0
G1 X133.482 Y105.09 F7200
G1 E2 F4800
G1 F3000
G1 X133.367 Y104.89 E2.01343
G1 X135 Y103.257 E2.14783
G1 X136.634 Y104.891 E2.28231
G1 X136.522 Y105.089 E2.29555
G2 X133.540 Y105.074 I-1.516 J4.875 E2.47159
G1 E1.07159 F4800
;WIPE_START
G1 F5760
G1 X133.367 Y104.89 E.87165
G1 X133.724 Y104.533 E.47159
;WIPE_END
G92 E0
G1 X131.242 Y111.728 F7200
G1 E2 F4800
;TYPE:External perimeter
G1 F3000
G3 X131.836 Y112.670 I3.766 J-1.716 E3.44821
G3 X131.267 Y111.782 I2.562 J-2.268 E3.50975
G1 X130.844 Y111.688 F7200
G1 X130.713 Y111.774
;TYPE:Perimeter
G1 F3000
G3 X130.894 Y112.163 I4.293 J-1.761 E5.18095
G1 X130.737 Y111.829 E5.20243
G1 X130.09 Y111.519 F7200
G1 F3000
G1 X129.891 Y111.634 E5.21581
G1 X128.257 Y110 E5.35029
G1 X129.89 Y108.368 E5.48464
G1 X130.088 Y108.478 E5.49782
G2 X130.075 Y111.461 I4.880 J1.513 E5.67391
G1 E4.27391 F4800
;WIPE_START
G1 F5760
G1 X129.891 Y111.634 E4.07397
G1 X129.534 Y111.277 E3.67391
;WIPE_END
G92 E0
G1 X159.41 Y92.76 F7200
G1 E2 F4800
;TYPE:External perimeter
G1 F3000
G1 X159.41 Y102.433 E2.56292
G1 X152.433 Y109.41 E3.13713
G1 X142.567 Y109.41 E3.71128
G1 X135.59 Y102.433 E4.28549
G1 X135.59 Y92.567 E4.85964
G1 X142.567 Y85.59 E5.43385
G1 X152.433 Y85.59 E6.008
G1 X159.41 Y92.567 E6.58221
G1 X159.41 Y92.7 E6.58995
G1 X159.796 Y92.865 F7200
G1 E5.18995 F4800
;WIPE_START
G1 F5760
G1 X159.41 Y93.458 E4.58995
;WIPE_END
G92 E0
G1 X135 Y92.45 F7200
G1 E2 F4800
;TYPE:Perimeter
G1 F3000
G1 X127.55 Y85 E2.61314
G1 X135 Y77.55 E3.22628
G1 X142.45 Y85 E3.83942
G1 X135.042 Y92.407 E4.44906
G1 E3.04906 F4800
;WIPE_START
G1 F5760
G1 X134.503 Y91.874 E2.44906
;WIPE_END
G92 E0
G1 X139.911 Y86.522 F7200
G1 E2 F4800
G1 F3000
G2 X139.911 Y83.482 I-4.908 J-1.520 E2.17953
G1 X140.11 Y83.367 E2.19291
G1 X141.743 Y85 E2.32731
G1 X140.109 Y86.634 E2.46179
G1 X139.963 Y86.551 E2.47156
G1 E1.07156 F4800
;WIPE_START
G1 F5760
G2 X140.074 Y85.801 I-20.288 J-3.386 E0.47156
;WIPE_END
G92 E0
G1 X136.522 Y80.089 F7200
G1 E2 F4800
G1 F3000
G2 X133.482 Y80.090 I-1.518 J4.895 E2.17954
G1 X133.367 Y79.89 E2.19297
G1 X135 Y78.257 E2.32737
G1 X136.634 Y79.891 E2.46185
G1 X136.551 Y80.037 E2.47162
G1 E1.07162 F4800
;WIPE_START
G1 F5760
G2 X135.801 Y79.926 I-3.977 J24.284 E0.47162
;WIPE_END
G92 E0
G1 X138.153 Y87.682 F7200
G1 E2 F4800
;TYPE:External perimeter
G1 F3000
G3 X138.483 Y87.238 I-3.150 J-2.686 E3.48104
G1 X138.191 Y87.636 E3.50977
G1 X138.267 Y87.988 F7200
G1 X138.577 Y87.954
;TYPE:Perimeter
G1 F3000
G3 X138.902 Y87.512 I-3.569 J-2.965 E5.17400
G1 X138.613 Y87.906 E5.20244
G1 E3.80244 F4800
;WIPE_START
G1 F5760
G3 X138.092 Y88.455 I-2.842 J-2.175 E3.20244
;WIPE_END
G92 E0
G1 X130.09 Y86.519 F7200
G1 E2 F4800
G1 F3000
G1 X129.891 Y86.634 E2.01338
G1 X128.257 Y85 E2.14786
G1 X129.89 Y83.368 E2.28221
G1 X130.088 Y83.478 E2.29539
G2 X130.075 Y86.461 I4.880 J1.513 E2.47148
G1 E1.07148 F4800
;WIPE_START
G1 F5760
G1 X129.891 Y86.634 E.87154
G1 X129.534 Y86.277 E.47148
;WIPE_END
G92 E0
G1 X136.522 Y89.911 F7200
G1 E2 F4800
G1 F3000
G1 X136.633 Y90.11 E2.01326
G1 X135 Y91.743 E2.14766
G1 X133.368 Y90.11 E2.28201
G1 X133.483 Y89.911 E2.29539
G2 X136.463 Y89.926 I1.514 J-4.849 E2.47133
G1 E1.07133 F4800
;WIPE_START
G1 F5760
G1 X136.633 Y90.11 E.87301
G1 X136.274 Y90.469 E.47133
;WIPE_END
G92 E0
G1 X159.41 Y77.091 F7200
G1 E2 F4800
;TYPE:External perimeter
G1 F3000
G1 X159.41 Y77.433 E2.0199
G1 X152.433 Y84.41 E2.59411
G1 X142.567 Y84.41 E3.16826
G1 X135.59 Y77.433 E3.74247
G1 X135.59 Y67.567 E4.31662
G1 X142.567 Y60.59 E4.89083
G1 X152.433 Y60.59 E5.46498
G1 X159.41 Y67.567 E6.03919
G1 X159.41 Y77.031 E6.58995
G1 X159.726 Y77.222 F7200
G1 E5.18995 F4800
;WIPE_START
G1 F5760
G2 X159.158 Y77.685 I0.878 J1.657 E4.58995
;WIPE_END
G92 E0
G1 X127.299 Y109.41 F7200
G1 E2 F4800
G1 F3000
G1 X117.567 Y109.41 E2.56635
G1 X110.59 Y102.433 E3.14056
G1 X110.59 Y92.567 E3.71471
G1 X117.567 Y85.59 E4.28892
G1 X127.433 Y85.59 E4.86307
G1 X134.41 Y92.567 E5.43728
G1 X134.41 Y102.433 E6.01143
G1 X127.433 Y109.41 E6.58564
G1 X127.359 Y109.41 E6.58995
G1 X127.195 Y109.796 F7200
G1 E5.18995 F4800
;WIPE_START
G1 F5760
G1 X126.601 Y109.41 E4.58995
;WIPE_END
G92 E0
G1 X102.55 Y85 F7200
G1 E2 F4800
;TYPE:Perimeter
G1 F3000
G1 X110 Y77.55 E2.61314
G1 X117.45 Y85 E3.22628
G1 X110 Y92.45 E3.83942
G1 X102.593 Y85.042 E4.44906
G1 E3.04906 F4800
;WIPE_START
G1 F5760
G1 X103.126 Y84.503 E2.44906
;WIPE_END
G92 E0
G1 X114.911 Y86.522 F7200
G1 E2 F4800
G1 F3000
G2 X114.911 Y83.482 I-4.908 J-1.520 E2.17953
G1 X115.11 Y83.367 E2.19291
G1 X116.743 Y85 E2.32731
G1 X115.109 Y86.634 E2.46179
G1 X114.963 Y86.551 E2.47156
G1 E1.07156 F4800
;WIPE_START
G1 F5760
G2 X115.074 Y85.801 I-20.288 J-3.386 E0.47156
;WIPE_END
G92 E0
G1 X108.482 Y80.09 F7200
G1 E2 F4800
G1 F3000
G1 X108.367 Y79.89 E2.01343
G1 X110 Y78.257 E2.14783
G1 X111.634 Y79.891 E2.28231
G1 X111.522 Y80.089 E2.29555
G2 X108.540 Y80.074 I-1.516 J4.875 E2.47159
G1 E1.07159 F4800
;WIPE_START
G1 F5760
G1 X108.367 Y79.89 E.87165
G1 X108.724 Y79.533 E.47159
;WIPE_END
G92 E0
G1 X106.24 Y86.724 F7200
G1 E2 F4800
;TYPE:External perimeter
G1 F3000
G3 X106.836 Y87.670 I3.767 J-1.713 E3.44795
G3 X106.265 Y86.778 I2.586 J-2.284 E3.50975
G1 X105.842 Y86.683 F7200
G1 X105.727 Y86.808
;TYPE:Perimeter
G1 F3000
G3 X105.894 Y87.163 I4.279 J-1.796 E5.18309
G1 X105.753 Y86.863 E5.20238
G1 X105.09 Y86.519 F7200
G1 F3000
G1 X104.891 Y86.634 E5.21576
G1 X103.257 Y85 E5.35024
G1 X104.89 Y83.368 E5.48459
G1 X105.088 Y83.478 E5.49777
G2 X105.075 Y86.461 I4.880 J1.513 E5.67386
G1 E4.27386 F4800
;WIPE_START
G1 F5760
G1 X104.891 Y86.634 E4.07392
G1 X104.534 Y86.277 E3.67386
;WIPE_END
G92 E0
G1 X108.483 Y89.911 F7200
G1 E2 F4800
G1 F3000
G2 X111.522 Y89.911 I1.519 J-4.881 E2.17948
G1 X111.633 Y90.11 E2.19274
G1 X110 Y91.743 E2.32714
G1 X108.368 Y90.11 E2.46149
G1 X108.453 Y89.963 E2.47137
G1 E1.07137 F4800
;WIPE_START
G1 F5760
G3 X109.203 Y90.074 I-1.001 J9.353 E0.47137
;WIPE_END
G92 E0
G1 X110.59 Y67.578 F7200
G1 E2 F4800
;TYPE:External perimeter
G1 F3000
G1 X117.567 Y60.59 E2.57466
G1 X127.433 Y60.59 E3.14881
G1 X134.41 Y67.567 E3.72302
G1 X134.41 Y77.433 E4.29717
G1 X127.433 Y84.41 E4.87138
G1 X117.567 Y84.41 E5.44553
