; Postprocessed by [ArcWelder](https://github.com/FormerLurker/ArcWelderLib)
; Copyright(C) 2021 - Brad Hochgesang
; Version: 1.2.0, Branch: master, BuildDate: 2021-11-21T20:04:00Z
; resolution=0.05mm
; path_tolerance=5.0%
; max_radius=9999.00mm
; default_xyz_precision=3
; default_e_precision=5
; extrusion_rate_variance=5.0%

; generated by AnycubicSlicer 1.4.4 on 2025-07-01 at 16:51:46 UTC




; 

; external perimeters extrusion width = 0.42mm
; perimeters extrusion width = 0.45mm
; infill extrusion width = 0.45mm
; solid infill extrusion width = 0.50mm
; top infill extrusion width = 0.42mm
; first layer extrusion width = 0.56mm

; external perimeters extrusion width = 0.42mm
; perimeters extrusion width = 0.45mm
; infill extrusion width = 0.45mm
; solid infill extrusion width = 0.50mm
; top infill extrusion width = 0.42mm
; first layer extrusion width = 0.56mm

; external perimeters extrusion width = 0.42mm
; perimeters extrusion width = 0.45mm
; infill extrusion width = 0.45mm
; solid infill extrusion width = 0.50mm
; top infill extrusion width = 0.42mm
; first layer extrusion width = 0.56mm

; external perimeters extrusion width = 0.42mm
; perimeters extrusion width = 0.45mm
; infill extrusion width = 0.45mm
; solid infill extrusion width = 0.50mm
; top infill extrusion width = 0.42mm
; first layer extrusion width = 0.56mm

; external perimeters extrusion width = 0.42mm
; perimeters extrusion width = 0.45mm
; infill extrusion width = 0.45mm
; solid infill extrusion width = 0.50mm
; top infill extrusion width = 0.42mm
; first layer extrusion width = 0.56mm

; external perimeters extrusion width = 0.42mm
; perimeters extrusion width = 0.45mm
; infill extrusion width = 0.45mm
; solid infill extrusion width = 0.50mm
; top infill extrusion width = 0.42mm
; first layer extrusion width = 0.56mm

M201 X2500 Y2500 Z800 E2500 ; sets maximum accelerations, mm/sec^2
M203 X250 Y250 Z8 E80 ; sets maximum feedrates, mm / sec
M204 S2500 T2500 ; sets acceleration (S) and retract acceleration (R), mm/sec^2
M205 X10.00 Y10.00 Z2.00 E10.00 ; sets the jerk limits, mm/sec
M205 S0 T0 ; sets the minimum extruding and travel feed rate, mm/sec
;TYPE:Custom
G90 ; use absolute coordinates
M83 ; extruder relative mode
M104 S215 ; set extruder temp
M140 S60 ; set bed temp
M190 S60 ; wait for bed temp
M109 S215 ; wait for extruder temp
G28                                        ; move X/Y/Z to min endstops
G1 Z0.28                                   ; lift nozzle a bit 
G92 E0 
G1 Y3 F1800                                    ; zero the extruded length 
G1 X60  E25 F500                       ; Extrude 25mm of filament in a 5cm line. 
G92 E0                                     ; zero the extruded length again 
G1 E-2 F500                                ; Retract a little 
G1 X70 F4000                              ; Quickly wipe away from the filament line
M117
G21 ; set units to millimeters
G90 ; use absolute coordinates
M82 ; use absolute distances for extrusion
G92 E0
M107
;LAYER_CHANGE
;Z:0.28
;HEIGHT:0.28
; BEFORE_LAYER_CHANGE 0 @ 0.28mm
G1 E-2 F4800
G92 E0
G1 Z.28 F7200
; AFTER_LAYER_CHANGE 0 @ 0.28mm
G1 X76.469 Y76.469
G1 E2 F4800
;TYPE:Skirt/Brim
;WIDTH:0.56
G1 F3000
G1 X81.655 Y71.283 E2.42681
G1 X83.654 Y70.407 E2.55382
G1 X86.657 Y70.287 E2.72872
G1 X89.688 Y70.288 E2.90511
G1 X123.716 Y70.638 E4.88547
G1 X126.688 Y70.758 E5.05857
G1 X128.687 Y71.634 E5.18558
G1 X134.882 Y77.829 E5.69543
G1 X135.758 Y79.828 E5.82244
G1 X136.891 Y117.304 E8.00435
G1 X137.085 Y155.247 E10.21247
G3 X136.965 Y161.249 I-75.135 J1.500 E10.56189
G1 X136.089 Y163.248 E10.6889
G1 X129.894 Y169.443 E11.19875
G1 X127.895 Y170.319 E11.32576
G3 X121.862 Y170.439 I-4.518 J-75.403 E11.67699
G1 X87.833 Y170.088 E13.65741
G1 X84.862 Y169.968 E13.83045
G1 X82.863 Y169.092 E13.95746
G1 X76.668 Y162.897 E14.46731
G1 X75.792 Y160.898 E14.59432
G1 X75.673 Y157.946 E14.76625
G1 X74.465 Y85.53 E18.98108
G3 X74.585 Y79.477 I75.798 J-1.525 E19.33347
G1 X75.461 Y77.478 E19.46048
G1 X76.427 Y76.512 E19.53998
G1 X76.781 Y76.865 F7200
G1 F3000
G1 X82.009 Y71.637 E19.97024
G1 X83.675 Y70.907 E20.07609
G3 X89.683 Y70.787 I4.495 J74.589 E20.42587
G1 X123.711 Y71.138 E22.40623
G1 X126.668 Y71.258 E22.57845
G1 X128.333 Y71.988 E22.68425
G1 X134.528 Y78.183 E23.1941
G1 X135.258 Y79.848 E23.2999
G1 X136.391 Y117.306 E25.48076
G1 X136.585 Y155.247 E27.68876
G3 X136.466 Y161.229 I-75.010 J1.500 E28.03702
G1 X135.736 Y162.895 E28.14287
G1 X129.541 Y169.089 E28.65268
G1 X127.875 Y169.819 E28.75853
G3 X121.867 Y169.939 I-4.495 J-74.589 E29.10831
G1 X87.839 Y169.588 E31.08867
G1 X84.882 Y169.468 E31.26089
G1 X83.216 Y168.738 E31.36674
G1 X77.022 Y162.544 E31.87651
G1 X76.292 Y160.878 E31.98236
G1 X76.172 Y157.937 E32.15365
G1 X74.965 Y85.521 E36.36848
G3 X75.084 Y79.497 I75.562 J-1.521 E36.71918
G1 X75.814 Y77.832 E36.82498
G1 X76.738 Y76.908 E36.90103
G1 E35.50103 F4800
;WIPE_START
G1 F5760
G1 X77.274 Y76.372 E34.90103
;WIPE_END
G92 E0
G1 X113.218 Y153.166 F7200
G1 E2 F4800
;TYPE:External perimeter
;WIDTH:0.860085
G1 F3000
G1 X113.218 Y155.247 E2.1938
G1 X112.98 Y155.527 F7200
;WIDTH:0.56
G1 F3000
G1 X113.338 Y155.527 E2.21463
G1 X113.338 Y157.967 E2.35663
G1 X112.98 Y157.967 E2.37746
G1 X112.98 Y155.587 E2.51596
G1 X113.298 Y155.69 F7200
G1 E1.11596 F4800
;WIPE_START
G1 F5760
G1 X113.338 Y155.527 E.82859
G1 X113.338 Y155.922 E.51596
;WIPE_END
G92 E0
G1 X113.218 Y158.247 F7200
G1 E2 F4800
;WIDTH:0.860085
G1 F3000
G1 X113.218 Y160.327 E2.19371
G1 E.79371 F4800
;WIPE_START
G1 F5760
G1 X113.218 Y159.569 E.19371
;WIPE_END
G92 E0
G1 X119.813 Y166.922 F7200
G1 E2 F4800
;WIDTH:0.860093
G1 F3000
G1 X121.893 Y166.922 E2.19371
G1 E.79371 F4800
;WIPE_START
G1 F5760
G1 X121.135 Y166.922 E.19371
;WIPE_END
G92 E0
G1 X124.613 Y166.802 F7200
G1 E2 F4800
;WIDTH:0.56
G1 F3000
G1 X124.613 Y167.159 E2.02078
G1 X122.173 Y167.159 E2.16278
G1 X122.173 Y166.802 E2.18356
G1 X124.553 Y166.802 E2.32206
G1 X124.449 Y167.119 F7200
G1 X124.893 Y166.922
;WIDTH:0.860093
G1 F3000
G1 X126.973 Y166.922 E2.51577
G1 E1.11577 F4800
;WIPE_START
G1 F5760
G1 X126.215 Y166.922 E.51577
;WIPE_END
G92 E0
G1 X133.568 Y160.327 F7200
G1 E2 F4800
G1 F3000
G1 X133.568 Y158.247 E2.19371
G1 E.79371 F4800
;WIPE_START
G1 F5760
G1 X133.568 Y159.005 E.19371
;WIPE_END
G92 E0
G1 X133.448 Y155.527 F7200
G1 E2 F4800
;WIDTH:0.56
G1 F3000
G1 X133.805 Y155.527 E2.02078
G1 X133.805 Y157.967 E2.16278
G1 X133.448 Y157.967 E2.18356
G1 X133.448 Y155.587 E2.32206
G1 X133.766 Y155.69 F7200
G1 X133.568 Y155.247
;WIDTH:0.860093
G1 F3000
G1 X133.568 Y153.166 E2.51586
G1 E1.11586 F4800
;WIPE_START
G1 F5760
G1 X133.568 Y153.924 E.51586
;WIPE_END
G92 E0
G1 X126.973 Y146.572 F7200
G1 E2 F4800
;WIDTH:0.860085
G1 F3000
G1 X124.893 Y146.572 E2.19371
G1 X124.613 Y146.692 F7200
;WIDTH:0.56
G1 F3000
G1 X122.173 Y146.692 E2.33571
G1 X122.173 Y146.334 E2.35654
G1 X124.613 Y146.334 E2.49854
G1 X124.613 Y146.632 E2.51588
G1 X124.213 Y146.672 F7200
G1 E1.11588 F4800
;WIPE_START
G1 F5760
G1 X123.855 Y146.651 E.51588
;WIPE_END
G92 E0
G1 X121.893 Y146.572 F7200
G1 E2 F4800
;WIDTH:0.860084
G1 F3000
G1 X119.813 Y146.572 E2.19371
G1 E.79371 F4800
;WIPE_START
G1 F5760
G1 X120.571 Y146.572 E.19371
;WIPE_END
G92 E0
G1 X119.533 Y165.442 F7200
G1 E2 F4800
;WIDTH:0.56
G1 F3000
G1 X119.533 Y167.042 E2.09311
G1 X119.129 Y167.042 E2.11662
G1 X113.098 Y161.011 E2.61297
G1 X113.098 Y160.607 E2.63648
G1 X114.698 Y160.607 E2.72959
G1 X114.698 Y152.886 E3.17891
G1 X113.098 Y152.886 E3.27202
G1 X113.098 Y152.482 E3.29553
G1 X119.129 Y146.452 E3.79184
G1 X119.533 Y146.452 E3.81535
G1 X119.533 Y148.052 E3.90846
G1 X127.253 Y148.052 E4.35772
G1 X127.253 Y146.452 E4.45083
G1 X127.657 Y146.452 E4.47434
G1 X133.688 Y152.482 E4.97065
G1 X133.688 Y152.886 E4.99416
G1 X132.088 Y152.886 E5.08727
G1 X132.088 Y160.607 E5.53659
G1 X133.688 Y160.607 E5.6297
G1 X133.688 Y161.011 E5.65321
G1 X127.657 Y167.042 E6.14956
G1 X127.253 Y167.042 E6.17307
G1 X127.253 Y165.442 E6.26618
G1 X119.593 Y165.442 E6.71195
G1 X119.134 Y165.414 F7200
G1 X119.033 Y164.942
;TYPE:Perimeter
G1 F3000
G1 X119.033 Y166.239 E6.78743
G1 X113.901 Y161.107 E7.20979
G1 X115.198 Y161.107 E7.28527
G1 X115.198 Y152.386 E7.79279
G1 X113.901 Y152.386 E7.86827
G1 X119.033 Y147.254 E8.29063
G1 X119.033 Y148.551 E8.36611
G1 X127.753 Y148.551 E8.87357
G1 X127.753 Y147.254 E8.94905
G1 X132.885 Y152.386 E9.37141
G1 X131.588 Y152.386 E9.44689
G1 X131.588 Y161.107 E9.95441
G1 X132.885 Y161.107 E10.02989
G1 X127.753 Y166.239 E10.45225
G1 X127.753 Y164.942 E10.52773
G1 X119.093 Y164.942 E11.0317
G1 X118.533 Y164.442 F7200
G1 F3000
G1 X118.533 Y165.032 E11.06604
G1 X115.108 Y161.607 E11.34792
G1 X115.698 Y161.607 E11.38226
G1 X115.698 Y151.886 E11.94797
G1 X115.108 Y151.886 E11.98231
G1 X118.533 Y148.461 E12.26419
G1 X118.533 Y149.051 E12.29853
G1 X128.253 Y149.051 E12.86418
G1 X128.253 Y148.461 E12.89852
G1 X131.678 Y151.886 E13.1804
G1 X131.088 Y151.886 E13.21474
G1 X131.088 Y161.607 E13.78045
G1 X131.678 Y161.607 E13.81479
G1 X128.253 Y165.032 E14.09667
G1 X128.253 Y164.442 E14.13101
G1 X118.593 Y164.442 E14.69317
G1 E13.29317 F4800
;WIPE_START
G1 F5760
G1 X118.533 Y165.032 E12.82368
G1 X118.416 Y164.915 E12.69317
;WIPE_END
G92 E0
G1 X128.437 Y149.251 F7200
G1 E2 F4800
;TYPE:Solid infill
;WIDTH:0.566767
G1 F3000
G1 X130.663 Y151.477 E2.18568
G1 X130.663 Y152.194 E2.22797
G1 X127.946 Y149.476 E2.45465
G1 X127.229 Y149.476 E2.49694
G1 X130.663 Y152.91 E2.78338
G1 X130.663 Y153.627 E2.82567
G1 X126.513 Y149.476 E3.17188
G1 X125.796 Y149.476 E3.21417
G1 X130.663 Y154.343 E3.62015
G1 X130.663 Y155.06 E3.66244
G1 X125.079 Y149.476 E4.12822
G1 X124.363 Y149.476 E4.17045
G1 X130.663 Y155.777 E4.696
G1 X130.663 Y156.493 E4.73823
G1 X123.646 Y149.476 E5.32355
G1 X122.93 Y149.476 E5.36578
G1 X130.663 Y157.21 E6.01086
G1 X130.663 Y157.926 E6.05309
G1 X122.213 Y149.476 E6.75794
G1 X121.497 Y149.476 E6.80017
G1 X130.663 Y158.643 E7.56478
G1 X130.663 Y159.359 E7.60701
G1 X120.78 Y149.476 E8.43139
G1 X120.064 Y149.476 E8.47362
G1 X130.663 Y160.076 E9.35777
G1 X130.663 Y160.792 E9.4
G1 X119.347 Y149.476 E10.34391
G1 X118.631 Y149.476 E10.38614
G1 X130.663 Y161.509 E11.38982
G1 X130.663 Y162.021 E11.42002
G1 X130.561 Y162.123 E11.42853
G1 X118.016 Y149.579 E12.47492
G1 X117.658 Y149.937 E12.50478
G1 X130.203 Y162.481 E13.55117
G1 X129.844 Y162.84 E13.58112
G1 X117.3 Y150.295 E14.62751
G1 X116.942 Y150.654 E14.65741
G1 X129.486 Y163.198 E15.70376
G1 X129.128 Y163.556 E15.73362
G1 X116.583 Y151.012 E16.78001
G1 X116.225 Y151.37 E16.80987
G1 X128.769 Y163.914 E17.85622
G1 X128.667 Y164.017 E17.86477
G1 X128.155 Y164.017 E17.89497
G1 X116.123 Y151.984 E18.89865
G1 X116.123 Y152.701 E18.94094
G1 X127.439 Y164.017 E19.88485
G1 X126.722 Y164.017 E19.92714
G1 X116.123 Y153.417 E20.81129
G1 X116.123 Y154.134 E20.85358
G1 X126.006 Y164.017 E21.67796
G1 X125.289 Y164.017 E21.72025
G1 X116.123 Y154.85 E22.48486
G1 X116.123 Y155.567 E22.52715
G1 X124.572 Y164.017 E23.23196
G1 X123.856 Y164.017 E23.27419
G1 X116.123 Y156.284 E23.91923
G1 X116.123 Y157 E23.96146
G1 X123.139 Y164.017 E24.54673
G1 X122.423 Y164.017 E24.58896
G1 X116.123 Y157.717 E25.11447
G1 X116.123 Y158.433 E25.1567
G1 X121.706 Y164.017 E25.62244
G1 X120.99 Y164.017 E25.66467
G1 X116.123 Y159.15 E26.07065
G1 X116.123 Y159.866 E26.11288
G1 X120.273 Y164.017 E26.45909
G1 X119.557 Y164.017 E26.50132
G1 X116.123 Y160.583 E26.78776
G1 X116.123 Y161.299 E26.82999
G1 X118.84 Y164.017 E27.05667
G1 X118.123 Y164.017 E27.09896
G1 X115.898 Y161.791 E27.2846
G1 E25.8846 F4800
;WIPE_START
G1 F5760
G1 X116.434 Y162.327 E25.2846
;WIPE_END
G92 E0
G1 X79.189 Y152.815 F7200
G1 E2 F4800
;TYPE:External perimeter
;WIDTH:0.860085
G1 F3000
G1 X79.189 Y154.896 E2.1938
G1 X78.952 Y155.176 F7200
;WIDTH:0.56
G1 F3000
G1 X79.309 Y155.176 E2.21458
G1 X79.309 Y157.616 E2.35658
G1 X78.952 Y157.616 E2.37736
G1 X78.952 Y155.236 E2.51586
G1 X79.27 Y155.339 F7200
G1 E1.11586 F4800
;WIPE_START
G1 F5760
G1 X79.309 Y155.176 E.82927
G1 X79.309 Y155.572 E.51586
;WIPE_END
G92 E0
G1 X79.189 Y157.896 F7200
G1 E2 F4800
;WIDTH:0.860085
G1 F3000
G1 X79.189 Y159.976 E2.19371
G1 E.79371 F4800
;WIPE_START
G1 F5760
G1 X79.189 Y159.218 E.19371
;WIPE_END
G92 E0
G1 X85.784 Y166.571 F7200
G1 E2 F4800
;WIDTH:0.860093
G1 F3000
G1 X87.864 Y166.571 E2.19371
G1 E.79371 F4800
;WIPE_START
G1 F5760
G1 X87.106 Y166.571 E.19371
;WIPE_END
G92 E0
G1 X90.584 Y166.451 F7200
G1 E2 F4800
;WIDTH:0.56
G1 F3000
G1 X90.584 Y166.808 E2.02078
G1 X88.144 Y166.808 E2.16278
G1 X88.144 Y166.451 E2.18356
G1 X90.524 Y166.451 E2.32206
G1 X90.421 Y166.768 F7200
G1 X90.864 Y166.571
;WIDTH:0.860093
G1 F3000
G1 X92.945 Y166.571 E2.51586
G1 E1.11586 F4800
;WIPE_START
G1 F5760
G1 X92.187 Y166.571 E.51586
;WIPE_END
G92 E0
G1 X99.539 Y159.976 F7200
G1 E2 F4800
G1 F3000
G1 X99.539 Y157.896 E2.19371
G1 E.79371 F4800
;WIPE_START
G1 F5760
G1 X99.539 Y158.654 E.19371
;WIPE_END
G92 E0
G1 X99.419 Y155.176 F7200
G1 E2 F4800
;WIDTH:0.56
G1 F3000
G1 X99.777 Y155.176 E2.02083
G1 X99.777 Y157.616 E2.16283
G1 X99.419 Y157.616 E2.18366
G1 X99.419 Y155.236 E2.32216
G1 X99.737 Y155.339 F7200
G1 X99.539 Y154.896
;WIDTH:0.860093
G1 F3000
G1 X99.539 Y152.815 E2.51596
G1 E1.11596 F4800
;WIPE_START
G1 F5760
G1 X99.539 Y153.573 E.51596
;WIPE_END
G92 E0
G1 X92.945 Y146.221 F7200
G1 E2 F4800
;WIDTH:0.860085
G1 F3000
G1 X90.864 Y146.221 E2.1938
G1 X90.584 Y146.341 F7200
;WIDTH:0.56
G1 F3000
G1 X88.144 Y146.341 E2.3358
G1 X88.144 Y145.983 E2.35663
G1 X90.584 Y145.983 E2.49863
G1 X90.584 Y146.281 E2.51597
G1 X90.185 Y146.321 F7200
G1 E1.11597 F4800
;WIPE_START
G1 F5760
G1 X89.826 Y146.3 E.51597
;WIPE_END
G92 E0
G1 X87.864 Y146.221 F7200
G1 E2 F4800
;WIDTH:0.860084
G1 F3000
G1 X85.784 Y146.221 E2.19371
G1 E.79371 F4800
;WIPE_START
G1 F5760
G1 X86.542 Y146.221 E.19371
;WIPE_END
G92 E0
G1 X85.504 Y165.091 F7200
G1 E2 F4800
;WIDTH:0.56
G1 F3000
G1 X85.504 Y166.691 E2.09311
G1 X85.1 Y166.691 E2.11662
G1 X79.069 Y160.66 E2.61297
G1 X79.069 Y160.256 E2.63648
G1 X80.669 Y160.256 E2.72959
G1 X80.669 Y152.535 E3.17891
G1 X79.069 Y152.535 E3.27202
G1 X79.069 Y152.131 E3.29553
G1 X85.1 Y146.101 E3.79184
G1 X85.504 Y146.101 E3.81535
G1 X85.504 Y147.701 E3.90846
G1 X93.225 Y147.701 E4.35778
G1 X93.225 Y146.101 E4.45089
G1 X93.629 Y146.101 E4.4744
G1 X99.659 Y152.131 E4.97067
G1 X99.659 Y152.535 E4.99418
G1 X98.059 Y152.535 E5.08729
G1 X98.059 Y160.256 E5.53661
G1 X99.659 Y160.256 E5.62972
G1 X99.659 Y160.66 E5.65323
G1 X93.629 Y166.691 E6.14954
G1 X93.225 Y166.691 E6.17305
G1 X93.225 Y165.091 E6.26616
G1 X85.564 Y165.091 E6.71199
G1 X85.105 Y165.063 F7200
G1 X85.004 Y164.591
;TYPE:Perimeter
G1 F3000
G1 X85.004 Y165.888 E6.78747
G1 X79.872 Y160.756 E7.20983
G1 X81.169 Y160.756 E7.28531
G1 X81.169 Y152.035 E7.79283
G1 X79.872 Y152.035 E7.86831
G1 X85.004 Y146.903 E8.29067
G1 X85.004 Y148.2 E8.36615
G1 X93.725 Y148.2 E8.87367
G1 X93.725 Y146.903 E8.94915
G1 X98.857 Y152.035 E9.37151
G1 X97.56 Y152.035 E9.44699
G1 X97.56 Y160.756 E9.95451
G1 X98.857 Y160.756 E10.02999
G1 X93.725 Y165.888 E10.45235
G1 X93.725 Y164.591 E10.52783
G1 X85.064 Y164.591 E11.03186
G1 X84.504 Y164.091 F7200
G1 F3000
G1 X84.504 Y164.681 E11.0662
G1 X81.079 Y161.256 E11.34808
G1 X81.669 Y161.256 E11.38242
G1 X81.669 Y151.535 E11.94813
G1 X81.079 Y151.535 E11.98247
G1 X84.504 Y148.11 E12.26435
G1 X84.504 Y148.7 E12.29869
G1 X94.225 Y148.7 E12.8644
G1 X94.225 Y148.11 E12.89874
G1 X97.65 Y151.535 E13.18062
G1 X97.06 Y151.535 E13.21496
G1 X97.06 Y161.256 E13.78067
G1 X97.65 Y161.256 E13.81501
G1 X94.225 Y164.681 E14.09689
G1 X94.225 Y164.091 E14.13123
G1 X84.564 Y164.091 E14.69345
G1 E13.29345 F4800
;WIPE_START
G1 F5760
G1 X84.504 Y164.681 E12.82396
G1 X84.387 Y164.564 E12.69345
;WIPE_END
G92 E0
G1 X94.409 Y148.9 F7200
G1 E2 F4800
;TYPE:Solid infill
;WIDTH:0.566767
G1 F3000
G1 X96.635 Y151.126 E2.18568
G1 X96.635 Y151.843 E2.22797
G1 X93.917 Y149.125 E2.45469
G1 X93.201 Y149.125 E2.49692
G1 X96.635 Y152.559 E2.78336
G1 X96.635 Y153.276 E2.82565
G1 X92.484 Y149.125 E3.1719
G1 X91.768 Y149.125 E3.21413
G1 X96.635 Y153.992 E3.62011
G1 X96.635 Y154.709 E3.6624
