; HEADER_BLOCK_START
; generated by AnycubicSlicerNext 1.3.9.3 on 2026-05-02 at 14:28:11
; total layer number: 215
; filament_density: 1.24
; filament_diameter: 1.75
; max_z_height: 43.04
; exclude_object: 0
; model_instances: 1
; source_info: {"models":[{"file_source":0,"mo_file_id":-1,"name":"PatchPanelV1.stl_id_0_copy_0"}],"models_from":0,"plate_index":1,"slice_paras_process":1,"software_version":"AnycubicSlicerNext 1.3.9.3 20260131153104"}
; paint_info = [{"material_type":"PLA","paint_color":[105,164,255],"paint_index":0}]
; project_info = {"flush_multiplier":1.0,"flush_volumes_chan_multipliers":[1.0,1.0,1.0,1.0],"flush_volumes_matrix":[0.0],"flush_volumes_vector":[140.0,140.0]}
; flush_multiplier_calculate_by_acnext: 1
; test_mode: 0
; HEADER_BLOCK_END

; THUMBNAIL_BLOCK_START
; THUMBNAIL_BLOCK_END

; external perimeters extrusion width = 0.42mm
; perimeters extrusion width = 0.45mm
; infill extrusion width = 0.45mm
; solid infill extrusion width = 0.42mm
; top infill extrusion width = 0.42mm
; support material extrusion width = 0.40mm
; first layer extrusion width = 0.50mm

; EXECUTABLE_BLOCK_START
M201 X2000 Y2000 Z800 E2000
M203 X300 Y300 Z8 E100
M204 P2000 R2000 T2000
M205 X10.00 Y10.00 Z2.00 E5.00
;TYPE:Custom
G90 ; use absolute coordinates
M83 ; extruder relative mode
M104 S220 ; set extruder temp
M140 S60 ; set bed temp
M190 S60 ; wait for bed temp
M109 S220 ; wait for extruder temp
G28                                        ; move X/Y/Z to min endstops
G1 Z0.28                                   ; lift nozzle a bit 
G92 E0 
G1 Y3 F1800                                    ; zero the extruded length 
G1 X60  E25 F500                       ; Extrude 25mm of filament in a 5cm line. 
G92 E0                                     ; zero the extruded length again 
G1 E-2 F500                                ; Retract a little 
G1 X70 F4000                              ; Quickly wipe away from the filament line
M117
G90
G21
M83 ; use relative distances for extrusion
; EXECUTABLE_BLOCK_HEAD
; filament start gcode
M75 ; The first extruder is ready.
M106 S0
;LAYER_CHANGE
;Z:0.24
;HEIGHT:0.24
; BEFORE_LAYER_CHANGE 0 @ 0.24mm
G92 E0
; AFTER_LAYER_CHANGE 0 @ 0.24mm
M204 S500
G1 E-.8 F3600
G1 X91.922 Y94.337 F18000
G1 Z.24
G1 E.8 F3600
;TYPE:Skirt
;WIDTH:0.5
G1 F3000
G1 X178.891 Y7.367 E5.39399
G1 X179.728 Y6.688 E.04729
G1 X180.636 Y6.215 E.04491
G1 X181.619 Y5.928 E.04492
G1 X182.781 Y5.841 E.05107
G1 X183.657 Y5.949 E.03873
G1 X184.533 Y6.215 E.04015
G1 X185.317 Y6.609 E.03848
G1 X186.133 Y7.228 E.04491
G1 X211.948 Y33.05 E1.6013
G1 X212.493 Y33.785 E.04015
G1 X212.887 Y34.568 E.03847
G1 X213.153 Y35.445 E.04015
G1 X213.261 Y36.315 E.03848
G1 X213.216 Y37.23 E.04015
G1 X213.023 Y38.086 E.03848
G1 X212.676 Y38.926 E.03988
G1 X212.269 Y39.585 E.03397
G1 X211.735 Y40.211 E.03609
G1 X37.749 Y214.199 E10.79098
G1 X37.041 Y214.78 E.04015
G1 X36.278 Y215.212 E.03849
G1 X35.416 Y215.52 E.04014
G1 X34.551 Y215.67 E.03848
G1 X33.636 Y215.671 E.04014
G1 X32.635 Y215.483 E.04465
G1 X31.811 Y215.165 E.03874
G1 X31.026 Y214.695 E.04014
G1 X30.4 Y214.161 E.0361
G1 X4.565 Y188.283 E1.60365
G1 X4.129 Y187.65 E.03371
G1 X3.738 Y186.823 E.04013
G1 X3.504 Y185.977 E.03849
G1 X3.418 Y185.213 E.03371
G1 X3.445 Y184.445 E.03371
G1 X3.623 Y183.547 E.04014
G1 X3.939 Y182.728 E.03848
G1 X4.409 Y181.943 E.04014
G1 X4.944 Y181.317 E.0361
G1 X91.894 Y94.366 E5.39284
; printing object "PatchPanelV1.stl" id:0 copy 0
G1 E-.8 F3600
G1 X6.344 Y183.636 F18000
G1 E.8 F3600
;TYPE:Outer wall
G1 F2400
G1 X6.488 Y183.42 E.01138
G1 X6.753 Y183.112 E.01784
G1 X180.688 Y9.175 E10.78783
G1 X180.888 Y8.994 E.01182
G1 X181.099 Y8.838 E.01151
G1 X181.324 Y8.703 E.01151
G1 X181.561 Y8.59 E.01151
G1 X181.808 Y8.502 E.01151
G1 X182.063 Y8.438 E.01151
G1 X182.32 Y8.4 E.01138
G1 X182.71 Y8.39 E.01714
G1 X183.11 Y8.439 E.01764
G1 X183.361 Y8.502 E.01137
G1 X183.608 Y8.59 E.01151
G1 X183.845 Y8.703 E.01151
G1 X184.071 Y8.838 E.01151
G1 X184.281 Y8.994 E.01151
G1 X184.481 Y9.175 E.01182
G1 X210.02 Y34.719 E1.58412
G1 X210.269 Y35.039 E.01778
G1 X210.399 Y35.256 E.01113
G1 X210.51 Y35.491 E.01138
G1 X210.636 Y35.87 E.01753
G1 X210.686 Y36.125 E.01138
G1 X210.712 Y36.383 E.01138
G1 X210.702 Y36.782 E.01753
G1 X210.664 Y37.039 E.01138
G1 X210.6 Y37.294 E.01151
G1 X210.512 Y37.541 E.01151
G1 X210.403 Y37.77 E.01113
G1 X210.189 Y38.11 E.01764
G1 X209.925 Y38.416 E.0177
G1 X35.992 Y212.351 E10.7877
G1 X35.684 Y212.617 E.01784
G1 X35.469 Y212.761 E.01138
G1 X35.237 Y212.885 E.01151
G1 X34.995 Y212.985 E.01151
G1 X34.747 Y213.06 E.01138
G1 X34.353 Y213.129 E.01753
G1 X34.094 Y213.141 E.01138
G1 X33.832 Y213.129 E.01151
G1 X33.572 Y213.09 E.01151
G1 X33.326 Y213.028 E.01113
G1 X32.947 Y212.883 E.01778
G1 X32.719 Y212.761 E.01137
G1 X32.503 Y212.617 E.01138
G1 X32.195 Y212.351 E.01784
G1 X6.656 Y186.807 E1.58413
G1 X6.489 Y186.604 E.01151
G1 X6.345 Y186.389 E.01138
G1 X6.166 Y186.032 E.01753
G1 X6.078 Y185.788 E.01138
G1 X6.015 Y185.536 E.01138
G1 X5.967 Y185.142 E.01739
G1 X5.976 Y184.746 E.01739
G1 X6.014 Y184.489 E.01138
G1 X6.077 Y184.238 E.01138
G1 X6.221 Y183.865 E.01753
G1 X6.334 Y183.654 E.0105
G1 X6.738 Y183.872 F18000
;TYPE:Inner wall
G1 F2400
G1 X6.845 Y183.692 E.00919
G1 X7.082 Y183.418 E.01591
G1 X8.097 Y182.403 E.06297
G1 X8.282 Y182.532 E.0099
G1 X8.103 Y182.917 E.01864
G1 X7.962 Y183.32 E.01869
G1 X7.862 Y183.734 E.01869
G1 X7.804 Y184.156 E.01869
G1 X7.788 Y184.582 E.01869
G1 X7.814 Y185.007 E.01869
G1 X7.884 Y185.436 E.01907
G1 X8.06 Y186.032 E.02726
G1 X8.234 Y186.431 E.01907
G1 X8.443 Y186.803 E.01869
G1 X8.687 Y187.152 E.01869
G1 X8.965 Y187.475 E.01869
G1 X9.274 Y187.768 E.01869
G1 X9.61 Y188.03 E.01869
G1 X9.971 Y188.257 E.01869
G1 X10.36 Y188.45 E.01907
G1 X10.947 Y188.655 E.02726
G1 X11.381 Y188.749 E.01946
G1 X12 Y188.803 E.02725
G1 X12.443 Y188.786 E.01946
G1 X13.056 Y188.686 E.02725
G1 X13.474 Y188.563 E.01907
G1 X13.876 Y188.399 E.01907
G1 X14.419 Y188.095 E.02726
G1 X14.768 Y187.837 E.01907
G1 X15.071 Y187.563 E.0179
G1 X18.066 Y184.562 E.18596
G1 X18.447 Y184.071 E.02724
G1 X18.669 Y183.697 E.01907
G1 X18.853 Y183.303 E.01907
G1 X19.044 Y182.712 E.02726
G1 X19.126 Y182.276 E.01946
G1 X19.165 Y181.655 E.02725
G1 X19.137 Y181.213 E.01945
G1 X19.022 Y180.602 E.02728
G1 X18.883 Y180.173 E.01977
G1 X18.623 Y179.616 E.02695
G1 X18.382 Y179.235 E.01976
G1 X17.993 Y178.759 E.02695
G1 X17.666 Y178.449 E.01976
G1 X17.172 Y178.085 E.02693
G1 X16.793 Y177.872 E.01906
G1 X16.394 Y177.698 E.01907
G1 X15.79 Y177.52 E.02764
G1 X15.165 Y177.434 E.02764
G1 X14.722 Y177.429 E.01945
G1 X14.095 Y177.499 E.02764
G1 X13.478 Y177.664 E.02803
G1 X12.888 Y177.922 E.02825
G1 X12.762 Y177.738 E.00978
G1 X175.327 Y15.171 E10.08264
G1 X175.512 Y15.3 E.0099
G1 X175.332 Y15.685 E.01864
G1 X175.191 Y16.088 E.01869
G1 X175.091 Y16.502 E.01869
G1 X175.033 Y16.924 E.01869
G1 X175.017 Y17.35 E.01869
G1 X175.044 Y17.775 E.01869
G1 X175.113 Y18.196 E.01869
G1 X175.223 Y18.607 E.01869
G1 X175.374 Y19.006 E.01869
G1 X175.563 Y19.387 E.01869
G1 X175.79 Y19.748 E.01869
G1 X176.051 Y20.085 E.01869
G1 X176.345 Y20.393 E.01869
G1 X176.668 Y20.671 E.01869
G1 X177.024 Y20.921 E.01907
G1 X177.582 Y21.215 E.02764
G1 X178.177 Y21.423 E.02764
G1 X178.602 Y21.515 E.01907
G1 X179.034 Y21.563 E.01907
G1 X179.664 Y21.556 E.02764
G1 X180.286 Y21.454 E.02764
G1 X180.703 Y21.331 E.01907
G1 X181.106 Y21.167 E.01907
G1 X181.648 Y20.863 E.02726
G1 X181.998 Y20.605 E.01907
G1 X182.3 Y20.331 E.0179
G1 X185.296 Y17.33 E.18596
G1 X185.677 Y16.839 E.02724
G1 X185.899 Y16.465 E.01907
G1 X186.079 Y16.079 E.01869
G1 X186.223 Y15.669 E.01907
G1 X186.353 Y15.061 E.02726
G1 X186.392 Y14.619 E.01945
G1 X186.368 Y13.989 E.02764
G1 X186.251 Y13.369 E.02766
G1 X186.112 Y12.941 E.01977
G1 X185.852 Y12.384 E.02693
G1 X185.616 Y12.009 E.01945
G1 X185.223 Y11.528 E.02725
G1 X184.908 Y11.228 E.01907
G1 X184.565 Y10.961 E.01907
G1 X184.023 Y10.639 E.02764
G1 X183.438 Y10.402 E.02766
G1 X183.003 Y10.286 E.01977
G1 X182.394 Y10.202 E.02693
G1 X181.951 Y10.196 E.01944
G1 X181.325 Y10.267 E.02764
G1 X180.716 Y10.43 E.02764
G1 X180.313 Y10.594 E.01907
G1 X180.131 Y10.691 E.00906
G1 X179.993 Y10.504 E.01016
G1 X180.998 Y9.5 E.0623
G1 X181.173 Y9.341 E.01037
G1 X181.535 Y9.099 E.01913
G1 X181.939 Y8.932 E.01914
G1 X182.358 Y8.848 E.01877
G1 X182.689 Y8.839 E.0145
G1 X183.028 Y8.881 E.01498
G1 X183.436 Y9.005 E.01874
G1 X183.634 Y9.099 E.00958
G1 X183.997 Y9.341 E.01913
G1 X184.172 Y9.5 E.01037
G1 X209.683 Y35.016 E1.58242
G1 X209.898 Y35.292 E.01536
G1 X210.093 Y35.658 E.01815
G1 X210.201 Y35.985 E.01511
G1 X210.263 Y36.399 E.01838
G1 X210.254 Y36.744 E.01511
G1 X210.17 Y37.163 E.01876
G1 X210.01 Y37.554 E.01853
G1 X209.827 Y37.843 E.01498
G1 X209.596 Y38.11 E.01551
G1 X208.52 Y39.187 E.06676
G1 X208.334 Y39.053 E.01003
G1 X208.573 Y38.572 E.02356
G1 X208.766 Y37.972 E.02764
G1 X208.849 Y37.537 E.01946
G1 X208.888 Y36.916 E.02725
G1 X208.86 Y36.482 E.01907
G1 X208.79 Y36.053 E.01907
G1 X208.612 Y35.449 E.02764
G1 X208.346 Y34.877 E.02764
G1 X208.11 Y34.502 E.01946
G1 X207.716 Y34.021 E.02725
G1 X207.395 Y33.715 E.01946
G1 X206.895 Y33.346 E.02725
G1 X206.508 Y33.129 E.01945
G1 X205.932 Y32.895 E.02726
G1 X205.504 Y32.78 E.01946
G1 X204.888 Y32.695 E.02726
G1 X204.444 Y32.689 E.01945
G1 X203.818 Y32.76 E.02764
G1 X203.2 Y32.925 E.02804
G1 X202.616 Y33.181 E.02796
G1 X202.249 Y33.4 E.01874
G1 X201.906 Y33.653 E.01868
G1 X201.604 Y33.926 E.0179
G1 X198.609 Y36.928 E.18596
G1 X198.228 Y37.418 E.02724
G1 X198.005 Y37.792 E.01907
G1 X197.825 Y38.178 E.01869
G1 X197.685 Y38.58 E.01869
G1 X197.585 Y38.995 E.01869
G1 X197.526 Y39.417 E.01869
G1 X197.511 Y39.843 E.01869
G1 X197.537 Y40.268 E.01869
G1 X197.606 Y40.688 E.01869
G1 X197.716 Y41.1 E.01869
G1 X197.867 Y41.499 E.01869
G1 X198.057 Y41.88 E.01869
G1 X198.283 Y42.241 E.01869
G1 X198.545 Y42.577 E.01869
G1 X198.838 Y42.886 E.01869
G1 X199.161 Y43.164 E.01869
G1 X199.518 Y43.414 E.01907
G1 X200.075 Y43.708 E.02764
G1 X200.67 Y43.916 E.02764
G1 X201.103 Y44.009 E.01944
G1 X201.715 Y44.063 E.02693
G1 X202.165 Y44.047 E.01977
G1 X202.779 Y43.947 E.02728
G1 X203.205 Y43.821 E.01945
G1 X203.862 Y43.534 E.03147
G1 X203.988 Y43.719 E.00978
G1 X41.29 Y206.419 E10.09089
G1 X41.105 Y206.285 E.01003
G1 X41.344 Y205.804 E.02356
G1 X41.537 Y205.204 E.02764
G1 X41.619 Y204.769 E.01946
G1 X41.658 Y204.148 E.02725
G1 X41.631 Y203.714 E.01907
G1 X41.561 Y203.285 E.01907
G1 X41.383 Y202.681 E.02764
G1 X41.116 Y202.109 E.02766
G1 X40.876 Y201.728 E.01977
G1 X40.486 Y201.252 E.02695
G1 X40.159 Y200.942 E.01976
G1 X39.665 Y200.578 E.02693
G1 X39.286 Y200.365 E.01906
G1 X38.887 Y200.191 E.01907
G1 X38.283 Y200.013 E.02764
G1 X37.658 Y199.927 E.02764
G1 X37.215 Y199.921 E.01945
G1 X36.597 Y199.991 E.02726
G1 X36.175 Y200.093 E.01907
G1 X35.764 Y200.237 E.01907
G1 X35.2 Y200.517 E.02764
G1 X34.683 Y200.879 E.02764
G1 X34.374 Y201.158 E.01828
G1 X31.379 Y204.16 E.18596
G1 X30.998 Y204.65 E.02724
G1 X30.776 Y205.024 E.01907
G1 X30.596 Y205.41 E.01869
G1 X30.455 Y205.812 E.01869
G1 X30.355 Y206.227 E.01869
G1 X30.297 Y206.649 E.01869
G1 X30.281 Y207.075 E.01869
G1 X30.308 Y207.5 E.01869
G1 X30.378 Y207.929 E.01907
G1 X30.554 Y208.525 E.02726
G1 X30.727 Y208.924 E.01907
G1 X30.936 Y209.295 E.01869
G1 X31.18 Y209.645 E.01869
G1 X31.458 Y209.968 E.01869
G1 X31.767 Y210.261 E.01869
G1 X32.103 Y210.523 E.01869
G1 X32.464 Y210.749 E.01869
G1 X32.853 Y210.943 E.01906
G1 X33.433 Y211.146 E.02693
G1 X33.873 Y211.242 E.01977
G1 X34.493 Y211.296 E.02728
G1 X34.936 Y211.279 E.01945
G1 X35.55 Y211.179 E.02726
G1 X35.975 Y211.053 E.01946
G1 X36.633 Y210.766 E.03147
G1 X36.759 Y210.951 E.00978
G1 X35.687 Y212.022 E.06646
G1 X35.412 Y212.259 E.0159
G1 X35.045 Y212.479 E.01876
G1 X34.844 Y212.562 E.00958
G1 X34.643 Y212.623 E.0092
G1 X34.303 Y212.682 E.01511
G1 X33.876 Y212.682 E.01876
G1 X33.461 Y212.6 E.01853
G1 X33.134 Y212.474 E.01536
G1 X32.775 Y212.259 E.01836
G1 X32.501 Y212.022 E.0159
G1 X6.989 Y186.506 E1.58244
G1 X6.733 Y186.162 E.01876
G1 X6.579 Y185.855 E.01511
G1 X6.457 Y185.454 E.01838
G1 X6.416 Y185.12 E.01473
G1 X6.424 Y184.784 E.01473
G1 X6.506 Y184.373 E.01838
G1 X6.63 Y184.052 E.01511
G1 X6.727 Y183.889 E.00831
G1 E-.8 F3600
G1 X71.075 Y151.741 F18000
G1 E.8 F3600
;TYPE:Outer wall
G1 F2400
G1 X82.99 Y139.826 E.73897
G1 X73.125 Y129.962 E.61179
G1 X72.552 Y130.536 E.03557
G1 X61.211 Y141.877 E.70341
G1 X71.061 Y151.727 E.61091
G1 X71.075 Y152.375 F18000
;TYPE:Inner wall
G1 F2400
G1 X83.624 Y139.826 E.77831
G1 X73.125 Y129.328 E.65113
G1 X72.235 Y130.219 E.05524
G1 X60.576 Y141.877 E.72308
G1 X71.061 Y152.361 E.65025
G1 E-.8 F3600
G1 X157.094 Y65.721 F18000
G1 E.8 F3600
;TYPE:Outer wall
G1 F2400
G1 X147.23 Y55.857 E.61179
G1 X146.656 Y56.43 E.03557
G1 X135.315 Y67.772 E.70341
G1 X145.179 Y77.636 E.61179
G1 X157.08 Y65.735 E.7381
G1 X157.728 Y65.721 F18000
;TYPE:Inner wall
G1 F2400
G1 X147.23 Y55.223 E.65113
G1 X146.339 Y56.113 E.05524
G1 X134.681 Y67.772 E.72308
G1 X145.179 Y78.27 E.65113
G1 X157.714 Y65.735 E.77744
G1 E-.8 F3600
G1 X126.653 Y96.162 F18000
G1 E.8 F3600
;TYPE:Outer wall
G1 F2400
G1 X138.568 Y84.247 E.73897
G1 X128.704 Y74.383 E.61179
G1 X128.13 Y74.957 E.03557
G1 X116.789 Y86.298 E.70341
G1 X126.639 Y96.148 E.61091
G1 X126.653 Y96.796 F18000
;TYPE:Inner wall
G1 F2400
G1 X139.202 Y84.247 E.77831
G1 X128.704 Y73.749 E.65113
G1 X127.813 Y74.64 E.05524
G1 X116.155 Y86.298 E.72308
G1 X126.639 Y96.782 E.65025
G1 E-.8 F3600
G1 X108.127 Y114.689 F18000
G1 E.8 F3600
;TYPE:Outer wall
G1 F2400
G1 X120.042 Y102.774 E.73897
G1 X110.178 Y92.91 E.61179
G1 X109.719 Y93.369 E.02846
G1 X98.263 Y104.824 E.71051
G1 X108.113 Y114.674 E.61091
G1 X108.127 Y115.323 F18000
;TYPE:Inner wall
G1 F2400
G1 X120.676 Y102.774 E.77831
G1 X110.178 Y92.275 E.65113
G1 X109.401 Y93.051 E.04813
G1 X97.629 Y104.824 E.73018
G1 X108.113 Y115.309 E.65025
G1 E-.8 F3600
G1 X101.516 Y121.3 F18000
G1 E.8 F3600
;TYPE:Outer wall
G1 F2400
G1 X91.651 Y111.436 E.61179
G1 X91.193 Y111.895 E.02846
G1 X79.737 Y123.351 E.71051
G1 X89.601 Y133.215 E.61179
G1 X101.502 Y121.314 E.7381
G1 X102.15 Y121.3 F18000
;TYPE:Inner wall
G1 F2400
G1 X91.651 Y110.802 E.65113
G1 X90.875 Y111.578 E.04813
G1 X79.103 Y123.351 E.73018
G1 X89.601 Y133.849 E.65113
G1 X102.136 Y121.314 E.77744
G1 E-.8 F3600
G1 X185.638 Y15.963 F18000
G1 E.8 F3600
;TYPE:Outer wall
G1 F2400
G1 X185.663 Y15.91 E.00259
G1 X185.79 Y15.547 E.01686
G1 X185.909 Y14.994 E.0248
G1 X185.943 Y14.608 E.017
G1 X185.921 Y14.04 E.02494
G1 X185.816 Y13.481 E.02495
G1 X185.694 Y13.105 E.01731
G1 X185.458 Y12.599 E.02448
G1 X185.252 Y12.271 E.017
G1 X184.893 Y11.833 E.0248
G1 X184.615 Y11.568 E.01686
G1 X184.311 Y11.333 E.01686
G1 X183.822 Y11.042 E.02494
G1 X183.296 Y10.828 E.02495
G1 X182.914 Y10.726 E.01731
G1 X182.361 Y10.65 E.02449
G1 X181.974 Y10.645 E.01699
G1 X181.408 Y10.709 E.02494
G1 X180.859 Y10.856 E.02494
G1 X180.503 Y11.001 E.01686
G1 X180.163 Y11.181 E.01686
G1 X179.7 Y11.505 E.0248
G1 X179.42 Y11.758 E.01655
G1 X176.453 Y14.732 E.18424
G1 X176.106 Y15.178 E.02479
G1 X175.909 Y15.509 E.01686
G1 X175.748 Y15.855 E.01673
G1 X175.622 Y16.215 E.01672
G1 X175.533 Y16.585 E.01672
G1 X175.481 Y16.963 E.01672
G1 X175.466 Y17.344 E.01672
G1 X175.49 Y17.725 E.01673
G1 X175.552 Y18.101 E.01672
G1 X175.65 Y18.469 E.01672
G1 X175.785 Y18.826 E.01673
G1 X175.955 Y19.168 E.01673
G1 X176.158 Y19.491 E.01672
G1 X176.392 Y19.792 E.01672
G1 X176.655 Y20.068 E.01672
G1 X176.944 Y20.317 E.01673
G1 X177.259 Y20.537 E.01686
G1 X177.762 Y20.803 E.02494
G1 X178.298 Y20.991 E.02494
G1 X178.674 Y21.072 E.01686
G1 X179.056 Y21.115 E.01686
G1 X179.625 Y21.108 E.02494
G1 X180.186 Y21.016 E.02494
G1 X180.555 Y20.907 E.01686
G1 X180.911 Y20.762 E.01686
G1 X181.404 Y20.486 E.0248
G1 X181.713 Y20.257 E.01686
G1 X181.991 Y20.006 E.01641
G1 X184.958 Y17.032 E.18424
G1 X185.305 Y16.586 E.0248
G1 X185.502 Y16.255 E.01686
G1 X185.63 Y15.981 E.01325
G1 E-.8 F3600
G1 X208.417 Y36.57 F18000
G1 E.8 F3600
G1 F2400
G1 X208.414 Y36.533 E.00164
G1 X208.352 Y36.153 E.01686
G1 X208.191 Y35.608 E.02494
