; HEADER_BLOCK_START
; generated by AnycubicSlicerNext 1.3.9.4 on 2026-06-14 at 21:00:14
; total layer number: 40
; filament_density: 1.24
; filament_diameter: 1.75
; max_z_height: 8.04
; exclude_object: 0
; model_instances: 1
; source_info: {"models":[{"file_source":0,"mo_file_id":-1,"name":"sidepartv2.stl_id_0_copy_0"}],"models_from":0,"plate_index":1,"slice_paras_process":1,"software_version":"AnycubicSlicerNext 1.3.9.4 20260319224604"}
; paint_info = [{"material_type":"PLA","paint_color":[105,164,255],"paint_index":0}]
; project_info = {"flush_multiplier":1.0,"flush_volumes_chan_multipliers":[1.0,1.0,1.0,1.0],"flush_volumes_matrix":[0.0],"flush_volumes_vector":[140.0,140.0]}
; flush_multiplier_calculate_by_acnext: 1
; test_mode: 0
; HEADER_BLOCK_END

; THUMBNAIL_BLOCK_START
; THUMBNAIL_BLOCK_END

; external perimeters extrusion width = 0.42mm
; perimeters extrusion width = 0.45mm
; infill extrusion width = 0.45mm
; solid infill extrusion width = 0.42mm
; top infill extrusion width = 0.42mm
; first layer extrusion width = 0.50mm

; EXECUTABLE_BLOCK_START
M201 X2000 Y2000 Z800 E2000
M203 X300 Y300 Z8 E100
M204 P2000 R2000 T2000
M205 X10.00 Y10.00 Z2.00 E5.00
;TYPE:Custom
G90 ; use absolute coordinates
M83 ; extruder relative mode
M104 S220 ; set extruder temp
M140 S60 ; set bed temp
M190 S60 ; wait for bed temp
M109 S220 ; wait for extruder temp
G28                                        ; move X/Y/Z to min endstops
G1 Z0.28                                   ; lift nozzle a bit 
G92 E0 
G1 Y3 F1800                                    ; zero the extruded length 
G1 X60  E25 F500                       ; Extrude 25mm of filament in a 5cm line. 
G92 E0                                     ; zero the extruded length again 
G1 E-2 F500                                ; Retract a little 
G1 X70 F4000                              ; Quickly wipe away from the filament line
M117
G90
G21
M83 ; use relative distances for extrusion
; EXECUTABLE_BLOCK_HEAD
; filament start gcode
M75 ; The first extruder is ready.
M106 S0
;LAYER_CHANGE
;Z:0.24
;HEIGHT:0.24
; BEFORE_LAYER_CHANGE 0 @ 0.24mm
G92 E0
; AFTER_LAYER_CHANGE 0 @ 0.24mm
M204 S500
G1 E-.8 F3600
G1 X35.376 Y18.254 F18000
G1 Z.24
G1 E.8 F3600
;TYPE:Skirt
;WIDTH:0.5
G1 F3000
G1 X35.162 Y17.476 E.0354
G1 X34.959 Y16.557 E.04128
G1 X34.921 Y15.653 E.03966
G1 X35.039 Y14.755 E.03973
G1 X35.312 Y13.889 E.03982
G1 X35.728 Y13.09 E.0395
G1 X36.276 Y12.371 E.03968
G1 X37.374 Y11.456 E.06265
G1 X38.54 Y10.916 E.05638
G1 X39.424 Y10.715 E.03974
G1 X40.135 Y10.662 E.03127
G1 X180.057 Y10.67 E6.13643
G1 X180.958 Y10.782 E.0398
G1 X182.294 Y11.266 E.06234
G1 X183.355 Y12.004 E.05665
G1 X183.972 Y12.665 E.03969
G1 X184.688 Y13.889 E.06218
G1 X184.961 Y14.755 E.03982
G1 X185.079 Y15.653 E.03973
G1 X184.978 Y16.937 E.05649
G1 X136.682 Y190.547 E7.90296
G1 X134.758 Y194.708 E.20105
G1 X131.993 Y198.754 E.2149
G1 X128.485 Y202.367 E.22087
G1 X124.456 Y205.273 E.21785
G1 X119.985 Y207.441 E.2179
G1 X114.83 Y208.875 E.23466
G1 X109.882 Y209.332 E.21795
G1 X104.931 Y208.927 E.21784
G1 X100.122 Y207.675 E.21794
G1 X95.601 Y205.613 E.2179
G1 X91.803 Y203.045 E.20107
G1 X88.206 Y199.62 E.21784
G1 X85.252 Y195.626 E.21786
G1 X82.895 Y190.833 E.23427
G1 X35.386 Y18.293 E7.84851
; printing object "sidepartv2.stl" id:0 copy 0
G1 E-.8 F3600
G1 X46.355 Y18.211 F18000
G1 E.8 F3600
;TYPE:Outer wall
G1 F2400
G1 X58.464 Y18.211 E.53107
G1 X56.644 Y13.211 E.23336
G1 X105.766 Y13.211 E2.15428
G1 X103.946 Y18.211 E.23336
G1 X116.054 Y18.211 E.53102
G1 X114.234 Y13.211 E.23336
G1 X163.356 Y13.211 E2.15428
G1 X161.536 Y18.211 E.23336
G1 X173.645 Y18.211 E.53107
G1 X171.825 Y13.211 E.23336
G1 X179.851 Y13.211 E.35198
G1 X180.328 Y13.252 E.02098
G1 X180.775 Y13.371 E.0203
G1 X181.196 Y13.567 E.02035
G1 X181.577 Y13.831 E.02036
G1 X181.906 Y14.158 E.02033
G1 X182.173 Y14.537 E.02035
G1 X182.372 Y14.956 E.02034
G1 X182.495 Y15.404 E.02034
G1 X182.539 Y15.865 E.02034
G1 X182.502 Y16.328 E.02035
G1 X182.386 Y16.777 E.02033
G1 X182.188 Y17.211 E.02094
G1 X179.239 Y22.442 E.26335
G1 X135.912 Y148.273 E5.83644
G1 X135.912 Y180.601 E1.41775
G1 X135.52 Y185.127 E.19923
G1 X134.356 Y189.503 E.1986
G1 X132.456 Y193.613 E.19857
G1 X129.91 Y197.283 E.1959
G1 X126.691 Y200.555 E.20129
G1 X123.002 Y203.179 E.19854
G1 X118.914 Y205.127 E.19861
G1 X114.551 Y206.341 E.1986
G1 X110.044 Y206.788 E.19862
G1 X105.529 Y206.449 E.19855
G1 X101.138 Y205.337 E.19867
G1 X97.006 Y203.486 E.19858
G1 X93.254 Y200.949 E.19859
G1 X89.996 Y197.805 E.19857
G1 X87.328 Y194.147 E.19857
G1 X85.331 Y190.081 E.19868
G1 X85.208 Y189.667 E.01893
G1 X85.153 Y189.24 E.01891
G1 X85.168 Y188.807 E.01897
G1 X85.252 Y188.385 E.01888
G1 X85.403 Y187.98 E.01896
G1 X85.617 Y187.605 E.01893
G1 X85.89 Y187.27 E.01896
G1 X86.213 Y186.981 E.019
G1 X86.577 Y186.75 E.01893
G1 X86.974 Y186.579 E.01893
G1 X87.393 Y186.477 E.01893
G1 X87.837 Y186.441 E.01954
G1 X93.968 Y186.441 E.26886
G1 X95.006 Y188.751 E.11109
G1 X96.539 Y191.057 E.12145
G1 X98.431 Y193.08 E.12147
G1 X100.63 Y194.766 E.1215
G1 X103.076 Y196.068 E.12154
G1 X105.701 Y196.95 E.12144
G1 X108.436 Y197.392 E.1215
G1 X111.206 Y197.378 E.12148
G1 X113.935 Y196.908 E.12148
G1 X116.552 Y195.998 E.12149
G1 X118.984 Y194.672 E.12148
G1 X121.166 Y192.964 E.12151
G1 X123.037 Y190.921 E.12152
G1 X124.547 Y188.601 E.1214
G1 X125.657 Y186.061 E.12153
G1 X126.335 Y183.376 E.12145
G1 X126.561 Y180.628 E.12093
G1 X126.561 Y179.808 E.03596
G1 X127.645 Y177.344 E.11807
G1 X128.332 Y174.643 E.12224
G1 X128.562 Y171.865 E.12224
G1 X128.332 Y169.088 E.1222
G1 X127.645 Y166.386 E.12228
G1 X126.56 Y163.919 E.11817
G1 X126.476 Y159.422 E.19728
G1 X125.954 Y156.631 E.12452
G1 X124.969 Y153.967 E.12455
G1 X123.55 Y151.507 E.12455
G1 X121.738 Y149.322 E.1245
G1 X119.583 Y147.471 E.12457
G1 X117.149 Y146.009 E.12454
G1 X114.501 Y144.978 E.1246
G1 X111.719 Y144.406 E.12455
G1 X108.881 Y144.31 E.12454
G1 X106.068 Y144.693 E.12453
G1 X103.358 Y145.544 E.12454
G1 X100.829 Y146.838 E.12459
G1 X98.555 Y148.539 E.12455
G1 X96.599 Y150.598 E.12454
G1 X95.13 Y152.79 E.11574
G1 X85.246 Y152.79 E.43346
G1 X84.971 Y152.768 E.01209
G1 X84.715 Y152.707 E.01154
G1 X84.473 Y152.607 E.01148
G1 X84.249 Y152.469 E.01154
G1 X84.05 Y152.299 E.01147
G1 X83.879 Y152.098 E.01157
G1 X83.741 Y151.875 E.01151
G1 X83.641 Y151.632 E.01153
G1 X83.579 Y151.377 E.01151
G1 X83.558 Y151.102 E.01207
G1 X83.558 Y146.707 E.19277
G1 X40.784 Y22.482 E5.76194
G1 X37.812 Y17.211 E.26536
G1 X37.614 Y16.777 E.02094
G1 X37.498 Y16.328 E.02033
G1 X37.461 Y15.865 E.02035
G1 X37.505 Y15.404 E.02034
G1 X37.628 Y14.956 E.02034
G1 X37.827 Y14.537 E.02034
G1 X38.094 Y14.158 E.02035
G1 X38.423 Y13.831 E.02033
G1 X38.804 Y13.567 E.02036
G1 X39.225 Y13.371 E.02035
G1 X39.672 Y13.252 E.0203
G1 X40.149 Y13.211 E.02098
G1 X48.175 Y13.211 E.35198
G1 X48.143 Y13.297 E.00404
G1 X46.362 Y18.192 E.22844
G1 X45.714 Y18.659 F18000
;TYPE:Inner wall
G1 F2400
G1 X59.105 Y18.659 E.58725
G1 X57.285 Y13.659 E.23336
G1 X105.125 Y13.659 E2.0981
G1 X103.305 Y18.659 E.23336
G1 X116.695 Y18.659 E.58721
G1 X114.875 Y13.659 E.23336
G1 X162.715 Y13.659 E2.0981
G1 X160.895 Y18.659 E.23336
G1 X174.286 Y18.659 E.58725
G1 X172.466 Y13.659 E.23336
G1 X179.832 Y13.659 E.32304
G1 X180.25 Y13.696 E.01841
G1 X180.621 Y13.795 E.01687
G1 X180.972 Y13.957 E.01694
G1 X181.289 Y14.177 E.01692
G1 X181.562 Y14.449 E.01688
G1 X181.785 Y14.764 E.01695
G1 X181.95 Y15.113 E.01693
G1 X182.052 Y15.485 E.0169
G1 X182.089 Y15.869 E.01692
G1 X182.058 Y16.254 E.01694
G1 X181.962 Y16.627 E.01688
G1 X181.788 Y17.008 E.01837
G1 X178.828 Y22.257 E.26431
G1 X135.464 Y148.198 E5.84152
G1 X135.464 Y180.581 E1.42019
G1 X135.076 Y185.049 E.19667
G1 X133.933 Y189.35 E.19518
G1 X132.065 Y193.389 E.19516
G1 X129.564 Y196.996 E.19251
G1 X126.399 Y200.213 E.19788
G1 X122.774 Y202.79 E.1951
G1 X118.756 Y204.706 E.19519
G1 X114.468 Y205.899 E.19519
G1 X110.039 Y206.337 E.19521
G1 X105.602 Y206.004 E.19513
G1 X101.286 Y204.911 E.19525
G1 X97.225 Y203.092 E.19517
G1 X93.538 Y200.6 E.19518
G1 X90.335 Y197.51 E.19516
G1 X87.714 Y193.914 E.19515
G1 X85.75 Y189.917 E.19531
G1 X85.648 Y189.574 E.01569
G1 X85.602 Y189.219 E.01573
G1 X85.615 Y188.859 E.01577
G1 X85.684 Y188.508 E.0157
G1 X85.811 Y188.171 E.01578
G1 X85.988 Y187.859 E.01573
G1 X86.215 Y187.58 E.01578
G1 X86.484 Y187.34 E.01581
G1 X86.787 Y187.148 E.01574
G1 X87.117 Y187.006 E.01573
G1 X87.465 Y186.921 E.01571
G1 X87.855 Y186.889 E.01718
G1 X93.677 Y186.889 E.25534
G1 X94.612 Y188.969 E.09999
G1 X96.186 Y191.336 E.1247
G1 X98.129 Y193.414 E.12472
G1 X100.386 Y195.145 E.12475
G1 X102.898 Y196.482 E.1248
G1 X105.593 Y197.387 E.12468
G1 X108.401 Y197.841 E.12474
G1 X111.245 Y197.826 E.12473
G1 X114.048 Y197.343 E.12473
G1 X116.734 Y196.409 E.12472
G1 X119.231 Y195.048 E.12473
G1 X121.471 Y193.294 E.12476
G1 X123.392 Y191.196 E.12477
G1 X124.943 Y188.814 E.12465
G1 X126.082 Y186.207 E.12478
G1 X126.779 Y183.45 E.1247
G1 X127.009 Y180.647 E.12337
G1 X127.009 Y179.902 E.03263
G1 X128.071 Y177.491 E.11557
G1 X128.776 Y174.717 E.12551
G1 X129.012 Y171.865 E.12551
G1 X128.776 Y169.014 E.12547
G1 X128.071 Y166.239 E.12555
G1 X127.006 Y163.821 E.11586
G1 X126.924 Y159.376 E.19498
G1 X126.388 Y156.511 E.12783
G1 X125.377 Y153.776 E.12789
G1 X123.919 Y151.25 E.12788
G1 X122.059 Y149.007 E.12783
G1 X119.846 Y147.106 E.1279
G1 X117.347 Y145.605 E.12787
G1 X114.629 Y144.546 E.12793
G1 X111.773 Y143.959 E.12788
G1 X108.859 Y143.861 E.12787
G1 X105.97 Y144.254 E.12786
G1 X103.188 Y145.127 E.12787
G1 X100.591 Y146.456 E.12792
G1 X98.256 Y148.203 E.12788
G1 X96.248 Y150.317 E.12787
G1 X94.89 Y152.341 E.10691
G1 X85.264 Y152.341 E.42218
G1 X85.042 Y152.324 E.00978
G1 X84.853 Y152.278 E.00849
G1 X84.677 Y152.206 E.00836
G1 X84.513 Y152.105 E.00842
G1 X84.368 Y151.982 E.00837
G1 X84.243 Y151.834 E.00848
G1 X84.142 Y151.67 E.00844
G1 X84.069 Y151.492 E.00845
G1 X84.023 Y151.306 E.0084
G1 X84.006 Y151.085 E.00972
G1 X84.006 Y146.632 E.19531
G1 X41.194 Y22.297 E5.76702
G1 X38.212 Y17.008 E.26632
G1 X38.038 Y16.627 E.01837
G1 X37.942 Y16.254 E.01688
G1 X37.911 Y15.869 E.01694
G1 X37.948 Y15.485 E.01692
G1 X38.05 Y15.113 E.0169
G1 X38.215 Y14.764 E.01693
G1 X38.438 Y14.449 E.01695
G1 X38.711 Y14.177 E.01688
G1 X39.028 Y13.957 E.01692
G1 X39.379 Y13.795 E.01694
G1 X39.75 Y13.696 E.01687
G1 X40.168 Y13.659 E.01841
G1 X47.534 Y13.659 E.32304
G1 X45.721 Y18.64 E.23248
G1 E-.8 F3600
G1 X106.836 Y139.441 F18000
G1 E.8 F3600
;TYPE:Outer wall
G1 F2400
G1 X106.836 Y22.557 E5.12607
G1 X100.402 Y22.557 E.28219
G1 X100.253 Y22.537 E.00656
G1 X100.109 Y22.486 E.00672
G1 X99.932 Y22.358 E.00959
G1 X99.839 Y22.236 E.00672
G1 X99.773 Y22.097 E.00673
G1 X99.735 Y21.86 E.01054
G1 X99.735 Y20.86 E.04386
G1 X99.675 Y20.479 E.01691
G1 X99.539 Y20.194 E.01387
G1 X99.355 Y19.955 E.01324
G1 X99.182 Y19.807 E.00996
G1 X98.916 Y19.663 E.01326
G1 X98.626 Y19.576 E.01331
G1 X98.422 Y19.561 E.00893
G1 X63.988 Y19.561 E1.51018
G1 X63.78 Y19.577 E.00911
G1 X63.388 Y19.705 E.0181
G1 X63.001 Y20.015 E.02175
G1 X62.822 Y20.276 E.01388
G1 X62.734 Y20.488 E.01007
G1 X62.675 Y20.86 E.01653
G1 X62.675 Y21.86 E.04386
G1 X62.637 Y22.097 E.01054
G1 X62.571 Y22.236 E.00673
G1 X62.475 Y22.361 E.00692
G1 X62.35 Y22.457 E.00692
G1 X62.212 Y22.523 E.00673
G1 X61.999 Y22.557 E.00942
G1 X48.583 Y22.557 E.58841
G1 X88.83 Y139.441 E5.42145
G1 X106.816 Y139.441 E.78881
G1 X107.284 Y139.889 F18000
;TYPE:Inner wall
G1 F2400
G1 X107.284 Y22.108 E5.16541
G1 X100.359 Y22.099 E.30374
G1 X100.248 Y22.033 E.00564
G1 X100.205 Y21.963 E.00359
G1 X100.183 Y21.825 E.00614
G1 X100.183 Y20.825 E.04386
G1 X100.107 Y20.345 E.0213
G1 X99.923 Y19.958 E.01879
G1 X99.682 Y19.644 E.01736
G1 X99.438 Y19.435 E.0141
G1 X99.089 Y19.246 E.01739
G1 X98.708 Y19.133 E.01745
G1 X98.44 Y19.112 E.01179
G1 X63.971 Y19.112 E1.51168
G1 X63.692 Y19.134 E.01223
G1 X63.171 Y19.304 E.02405
G1 X62.669 Y19.707 E.02822
G1 X62.426 Y20.06 E.01884
G1 X62.299 Y20.365 E.01448
G1 X62.227 Y20.825 E.0204
G1 X62.227 Y21.825 E.04386
G1 X62.205 Y21.963 E.00614
G1 X62.155 Y22.041 E.00405
G1 X62.077 Y22.09 E.00404
G1 X61.964 Y22.108 E.00503
G1 X47.954 Y22.108 E.61444
G1 X88.51 Y139.889 E5.46305
G1 X107.264 Y139.889 E.82251
G1 E-.8 F3600
G1 X171.426 Y22.557 F18000
G1 E.8 F3600
;TYPE:Outer wall
G1 F2400
G1 X158.001 Y22.557 E.58878
G1 X157.788 Y22.523 E.00943
G1 X157.65 Y22.457 E.00673
G1 X157.525 Y22.361 E.00692
G1 X157.429 Y22.236 E.00692
G1 X157.363 Y22.097 E.00673
G1 X157.325 Y21.86 E.01054
G1 X157.325 Y20.86 E.04386
G1 X157.265 Y20.479 E.01691
G1 X157.129 Y20.194 E.01387
G1 X156.939 Y19.947 E.01366
G1 X156.692 Y19.757 E.01368
G1 X156.404 Y19.621 E.01397
G1 X156.027 Y19.561 E.01674
G1 X121.564 Y19.561 E1.51139
G1 X121.184 Y19.621 E.01691
G1 X120.898 Y19.757 E.01387
G1 X120.651 Y19.947 E.01366
G1 X120.461 Y20.194 E.01366
G1 X120.325 Y20.479 E.01387
G1 X120.265 Y20.86 E.01691
G1 X120.265 Y21.86 E.04386
G1 X120.227 Y22.097 E.01054
G1 X120.161 Y22.236 E.00673
G1 X120.065 Y22.361 E.00692
G1 X119.94 Y22.457 E.00692
G1 X119.799 Y22.524 E.00684
G1 X119.613 Y22.557 E.00828
G1 X114.186 Y22.557 E.23802
G1 X114.186 Y139.441 E5.12607
G1 X131.179 Y139.441 E.74525
G1 X171.419 Y22.576 E5.42056
G1 X172.055 Y22.108 F18000
;TYPE:Inner wall
G1 F2400
G1 X158.036 Y22.108 E.6148
G1 X157.923 Y22.09 E.00503
G1 X157.813 Y22 E.00622
G1 X157.773 Y21.825 E.00788
G1 X157.773 Y20.825 E.04386
G1 X157.697 Y20.345 E.0213
G1 X157.513 Y19.958 E.01879
G1 X157.259 Y19.627 E.01831
G1 X156.927 Y19.372 E.01835
G1 X156.538 Y19.188 E.0189
G1 X156.062 Y19.112 E.02111
G1 X121.529 Y19.112 E1.51449
G1 X121.049 Y19.188 E.0213
G1 X120.662 Y19.373 E.0188
G1 X120.331 Y19.627 E.01831
G1 X120.077 Y19.958 E.01831
G1 X119.893 Y20.345 E.01879
G1 X119.817 Y20.825 E.0213
G1 X119.817 Y21.825 E.04386
G1 X119.777 Y22 E.00788
G1 X119.745 Y22.041 E.00227
G1 X119.662 Y22.093 E.00432
G1 X119.575 Y22.108 E.00388
G1 X113.738 Y22.108 E.25599
G1 X113.738 Y139.889 E5.16541
G1 X131.499 Y139.889 E.77895
G1 X172.048 Y22.127 E5.46217
G1 E-.8 F3600
G1 X161.996 Y13.794 F18000
G1 E.8 F3600
;TYPE:Bottom surface
;WIDTH:0.500984
G1 F3000
G1 X162.225 Y14.023 E.01422
G1 X162.055 Y14.489 E.0218
G1 X161.562 Y13.996 E.03065
G1 X160.927 Y13.996 E.02794
G1 X161.886 Y14.955 E.05961
G1 X161.716 Y15.421 E.0218
G1 X160.291 Y13.996 E.08858
G1 X159.655 Y13.996 E.02794
G1 X161.547 Y15.887 E.11755
G1 X161.377 Y16.353 E.0218
G1 X159.02 Y13.996 E.14652
G1 X158.384 Y13.996 E.02794
G1 X161.207 Y16.819 E.17548
G1 X161.038 Y17.285 E.0218
G1 X157.748 Y13.996 E.20445
G1 X157.113 Y13.996 E.02794
G1 X160.868 Y17.751 E.23342
G1 X160.698 Y18.217 E.0218
G1 X156.275 Y13.794 E.27493
G1 E-.8 F3600
G1 X180.552 Y13.915 F18000
G1 E.8 F3600
G1 F3000
G1 X181.306 Y14.669 E.04684
G1 X181.493 Y14.935 E.0143
G1 X181.634 Y15.231 E.0144
G1 X181.72 Y15.546 E.01436
G1 X181.738 Y15.737 E.00847
G1 X180.014 Y14.013 E.1072
G1 X179.361 Y13.996 E.0287
G1 X181.692 Y16.327 E.1449
G1 X181.644 Y16.514 E.00849
G1 X181.518 Y16.789 E.01328
G1 X178.725 Y13.996 E.17361
G1 X178.09 Y13.996 E.02794
G1 X181.294 Y17.2 E.19916
G1 X181.064 Y17.606 E.02051
G1 X177.454 Y13.996 E.22442
G1 X176.818 Y13.996 E.02794
G1 X180.835 Y18.013 E.24969
G1 X180.606 Y18.419 E.02051
G1 X176.183 Y13.996 E.27495
G1 X175.547 Y13.996 E.02794
G1 X180.377 Y18.826 E.30022
G1 X180.148 Y19.232 E.02051
G1 X174.911 Y13.996 E.32548
G1 X174.276 Y13.996 E.02794
G1 X179.919 Y19.639 E.35075
G1 X179.689 Y20.045 E.02051
G1 X173.64 Y13.996 E.37602
G1 X173.004 Y13.996 E.02794
G1 X179.46 Y20.451 E.40128
G1 X179.231 Y20.858 E.02051
G1 X173.277 Y14.904 E.37011
G1 X173.64 Y15.903 E.04675
G1 X179.002 Y21.264 E.33325
G1 X178.773 Y21.671 E.02051
G1 X174.004 Y16.903 E.29639
G1 X174.368 Y17.902 E.04675
G1 X178.543 Y22.077 E.25953
G1 X178.374 Y22.543 E.0218
G1 X174.732 Y18.901 E.22638
G1 X174.766 Y18.996 E.0044
G1 X174.19 Y18.996 E.02531
G1 X178.211 Y23.016 E.24992
G1 X178.048 Y23.489 E.02198
G1 X173.555 Y18.996 E.27931
G1 X172.919 Y18.996 E.02794
G1 X177.885 Y23.962 E.3087
G1 X177.723 Y24.435 E.02198
G1 X172.283 Y18.996 E.33809
G1 X171.648 Y18.996 E.02794
G1 X177.56 Y24.908 E.36748
