; HEADER_BLOCK_START
; generated by AnycubicSlicerNext 1.3.9.4 on 2026-06-15 at 10:28:20
; total layer number: 90
; filament_density: 1.24
; filament_diameter: 1.75
; max_z_height: 18.04
; exclude_object: 0
; model_instances: 13
; source_info: {"models":[{"file_source":0,"mo_file_id":-1,"name":"flat-cat7-clip-slimmed-tall.stl_id_0_copy_0"},{"file_source":0,"mo_file_id":-1,"name":"flat-cat7-clip-slimmed-tall.stl_id_1_copy_0"},{"file_source":0,"mo_file_id":-1,"name":"flat-cat7-clip-slimmed-tall.stl_id_2_copy_0"},{"file_source":0,"mo_file_id":-1,"name":"flat-cat7-clip-slimmed-tall.stl_id_3_copy_0"},{"file_source":0,"mo_file_id":-1,"name":"flat-cat7-clip-slimmed-tall.stl_id_4_copy_0"},{"file_source":0,"mo_file_id":-1,"name":"flat-cat7-clip-slimmed-tall.stl_id_5_copy_0"},{"file_source":0,"mo_file_id":-1,"name":"flat-cat7-clip-slimmed-tall.stl_id_6_copy_0"},{"file_source":0,"mo_file_id":-1,"name":"flat-cat7-clip-slimmed.stl_id_7_copy_0"},{"file_source":0,"mo_file_id":-1,"name":"flat-cat7-clip-slimmed.stl_id_8_copy_0"},{"file_source":0,"mo_file_id":-1,"name":"flat-cat7-clip-slimmed.stl_id_9_copy_0"},{"file_source":0,"mo_file_id":-1,"name":"flat-cat7-clip-slimmed.stl_id_10_copy_0"},{"file_source":0,"mo_file_id":-1,"name":"flat-cat7-clip-slimmed.stl_id_11_copy_0"},{"file_source":0,"mo_file_id":-1,"name":"holder-3in1-remix.stl_id_12_copy_0"}],"models_from":0,"plate_index":1,"slice_paras_process":1,"software_version":"AnycubicSlicerNext 1.3.9.4 20260319224604"}
; paint_info = [{"material_type":"PLA","paint_color":[105,164,255],"paint_index":0}]
; project_info = {"flush_multiplier":1.0,"flush_volumes_chan_multipliers":[1.0,1.0,1.0,1.0],"flush_volumes_matrix":[0.0],"flush_volumes_vector":[140.0,140.0]}
; flush_multiplier_calculate_by_acnext: 1
; test_mode: 0
; HEADER_BLOCK_END

; THUMBNAIL_BLOCK_START
; THUMBNAIL_BLOCK_END

; external perimeters extrusion width = 0.42mm
; perimeters extrusion width = 0.45mm
; infill extrusion width = 0.45mm
; solid infill extrusion width = 0.42mm
; top infill extrusion width = 0.42mm
; first layer extrusion width = 0.50mm

; external perimeters extrusion width = 0.42mm
; perimeters extrusion width = 0.45mm
; infill extrusion width = 0.45mm
; solid infill extrusion width = 0.42mm
; top infill extrusion width = 0.42mm
; first layer extrusion width = 0.50mm

; external perimeters extrusion width = 0.42mm
; perimeters extrusion width = 0.45mm
; infill extrusion width = 0.45mm
; solid infill extrusion width = 0.42mm
; top infill extrusion width = 0.42mm
; first layer extrusion width = 0.50mm

; external perimeters extrusion width = 0.42mm
; perimeters extrusion width = 0.45mm
; infill extrusion width = 0.45mm
; solid infill extrusion width = 0.42mm
; top infill extrusion width = 0.42mm
; first layer extrusion width = 0.50mm

; external perimeters extrusion width = 0.42mm
; perimeters extrusion width = 0.45mm
; infill extrusion width = 0.45mm
; solid infill extrusion width = 0.42mm
; top infill extrusion width = 0.42mm
; first layer extrusion width = 0.50mm

; external perimeters extrusion width = 0.42mm
; perimeters extrusion width = 0.45mm
; infill extrusion width = 0.45mm
; solid infill extrusion width = 0.42mm
; top infill extrusion width = 0.42mm
; first layer extrusion width = 0.50mm

; external perimeters extrusion width = 0.42mm
; perimeters extrusion width = 0.45mm
; infill extrusion width = 0.45mm
; solid infill extrusion width = 0.42mm
; top infill extrusion width = 0.42mm
; first layer extrusion width = 0.50mm

; external perimeters extrusion width = 0.42mm
; perimeters extrusion width = 0.45mm
; infill extrusion width = 0.45mm
; solid infill extrusion width = 0.42mm
; top infill extrusion width = 0.42mm
; first layer extrusion width = 0.50mm

; external perimeters extrusion width = 0.42mm
; perimeters extrusion width = 0.45mm
; infill extrusion width = 0.45mm
; solid infill extrusion width = 0.42mm
; top infill extrusion width = 0.42mm
; first layer extrusion width = 0.50mm

; external perimeters extrusion width = 0.42mm
; perimeters extrusion width = 0.45mm
; infill extrusion width = 0.45mm
; solid infill extrusion width = 0.42mm
; top infill extrusion width = 0.42mm
; first layer extrusion width = 0.50mm

; external perimeters extrusion width = 0.42mm
; perimeters extrusion width = 0.45mm
; infill extrusion width = 0.45mm
; solid infill extrusion width = 0.42mm
; top infill extrusion width = 0.42mm
; first layer extrusion width = 0.50mm

; external perimeters extrusion width = 0.42mm
; perimeters extrusion width = 0.45mm
; infill extrusion width = 0.45mm
; solid infill extrusion width = 0.42mm
; top infill extrusion width = 0.42mm
; first layer extrusion width = 0.50mm

; external perimeters extrusion width = 0.42mm
; perimeters extrusion width = 0.45mm
; infill extrusion width = 0.45mm
; solid infill extrusion width = 0.42mm
; top infill extrusion width = 0.42mm
; first layer extrusion width = 0.50mm

; EXECUTABLE_BLOCK_START
M201 X2000 Y2000 Z800 E2000
M203 X300 Y300 Z8 E100
M204 P2000 R2000 T2000
M205 X10.00 Y10.00 Z2.00 E5.00
;TYPE:Custom
G90 ; use absolute coordinates
M83 ; extruder relative mode
M104 S220 ; set extruder temp
M140 S60 ; set bed temp
M190 S60 ; wait for bed temp
M109 S220 ; wait for extruder temp
G28                                        ; move X/Y/Z to min endstops
G1 Z0.28                                   ; lift nozzle a bit 
G92 E0 
G1 Y3 F1800                                    ; zero the extruded length 
G1 X60  E25 F500                       ; Extrude 25mm of filament in a 5cm line. 
G92 E0                                     ; zero the extruded length again 
G1 E-2 F500                                ; Retract a little 
G1 X70 F4000                              ; Quickly wipe away from the filament line
M117
G90
G21
M83 ; use relative distances for extrusion
; EXECUTABLE_BLOCK_HEAD
; filament start gcode
M75 ; The first extruder is ready.
M106 S0
;LAYER_CHANGE
;Z:0.24
;HEIGHT:0.24
; BEFORE_LAYER_CHANGE 0 @ 0.24mm
G92 E0
; AFTER_LAYER_CHANGE 0 @ 0.24mm
M204 S500
G1 E-.8 F3600
G1 X65.809 Y47.715 F18000
G1 Z.24
G1 E.8 F3600
;TYPE:Skirt
;WIDTH:0.5
G1 F3000
G1 X65.892 Y46.178 E.0675
G1 X66.595 Y44.672 E.07288
G1 X75.03 Y36.794 E.5062
G1 X76.668 Y36.198 E.07642
G1 X151.058 Y40.201 E3.26719
G1 X152.622 Y40.968 E.07642
G1 X160.164 Y49.706 E.50618
G1 X160.701 Y51.279 E.07289
G1 X154.108 Y173.824 E5.38211
G1 X153.405 Y175.33 E.0729
G1 X144.969 Y183.206 E.50614
G1 X143.332 Y183.801 E.07641
G1 X68.942 Y179.799 E3.26719
G1 X67.377 Y179.031 E.07642
G1 X59.836 Y170.295 E.50616
G1 X59.298 Y168.722 E.07289
G1 X65.807 Y47.755 E5.31282
; printing object "holder-3in1-remix.stl" id:12 copy 0
G1 E-.8 F3600
G1 X150.145 Y51.116 F18000
G1 E.8 F3600
;TYPE:Outer wall
G1 F2400
G1 X158.134 Y51.546 E.35085
G1 X157.772 Y58.271 E.29536
G1 X149.784 Y57.841 E.35085
G1 X147.051 Y108.621 E2.2302
G1 X155.04 Y109.05 E.35085
G1 X154.952 Y110.693 E.07213
G1 X154.678 Y115.777 E.22329
G1 X146.69 Y115.347 E.35085
G1 X143.958 Y166.125 E2.23015
G1 X151.946 Y166.555 E.35085
G1 X151.584 Y173.282 E.29547
G1 X143.596 Y172.852 E.35085
G1 X143.144 Y181.238 E.36832
G1 X69.403 Y177.271 E3.23868
G1 X69.854 Y168.884 E.36834
G1 X61.866 Y168.454 E.35085
G1 X62.228 Y161.728 E.29541
G1 X70.216 Y162.158 E.35085
G1 X72.771 Y114.681 E2.08514
G1 X72.948 Y111.379 E.14505
G1 X64.96 Y110.949 E.35085
G1 X65.322 Y104.224 E.29536
G1 X73.31 Y104.654 E.35085
G1 X73.568 Y99.862 E.21045
G1 X76.042 Y53.873 E2.0198
G1 X68.054 Y53.443 E.35085
G1 X68.416 Y46.72 E.2953
G1 X76.404 Y47.149 E.35085
G1 X76.855 Y38.761 E.3684
G1 X77.024 Y38.77 E.00742
G1 X150.597 Y42.729 E3.23126
G1 X150.146 Y51.096 E.3675
G1 X149.673 Y51.54 F18000
;TYPE:Inner wall
G1 F2400
G1 X157.662 Y51.97 E.35085
G1 X157.348 Y57.799 E.25602
G1 X149.36 Y57.369 E.35085
G1 X146.58 Y109.044 E2.26954
G1 X154.568 Y109.474 E.35085
G1 X154.254 Y115.305 E.25608
G1 X146.266 Y114.875 E.35085
G1 X143.486 Y166.549 E2.26949
G1 X151.474 Y166.978 E.35085
G1 X151.16 Y172.81 E.25613
G1 X143.172 Y172.38 E.35085
G1 X142.721 Y180.767 E.36832
G1 X69.875 Y176.847 E3.19934
G1 X70.326 Y168.46 E.36834
G1 X62.338 Y168.03 E.35085
G1 X62.651 Y162.2 E.25607
G1 X70.64 Y162.63 E.35085
G1 X73.42 Y110.955 E2.26953
G1 X65.432 Y110.525 E.35085
G1 X65.745 Y104.696 E.25602
G1 X73.734 Y105.125 E.35085
G1 X76.514 Y53.449 E2.26958
G1 X68.526 Y53.02 E.35085
G1 X68.839 Y47.192 E.25596
G1 X76.828 Y47.621 E.35085
G1 X77.279 Y39.233 E.3684
G1 X150.125 Y43.153 E3.19934
G1 X149.675 Y51.52 E.3675
G1 E-.8 F3600
G1 X138.852 Y50.538 F18000
G1 E.8 F3600
;TYPE:Outer wall
G1 F2400
G1 X138.711 Y50.886 E.01649
G1 X138.628 Y51.261 E.01685
G1 X138.607 Y51.644 E.01682
G1 X138.65 Y52.026 E.01685
G1 X138.755 Y52.396 E.01685
G1 X138.92 Y52.743 E.01688
G1 X139.139 Y53.059 E.01686
G1 X139.408 Y53.333 E.01682
G1 X139.717 Y53.561 E.01682
G1 X140.06 Y53.734 E.01689
G1 X140.427 Y53.848 E.01685
G1 X140.794 Y53.898 E.01625
G1 X144.815 Y54.115 E.17659
G1 X145.185 Y54.104 E.01625
G1 X145.562 Y54.03 E.01685
G1 X145.923 Y53.894 E.01689
G1 X146.254 Y53.702 E.01682
G1 X146.55 Y53.458 E.01682
G1 X146.802 Y53.168 E.01686
G1 X147.004 Y52.84 E.01688
G1 X147.148 Y52.483 E.01685
G1 X147.231 Y52.108 E.01685
G1 X147.252 Y51.725 E.01682
G1 X147.209 Y51.343 E.01685
G1 X147.104 Y50.974 E.01685
G1 X146.939 Y50.626 E.01688
G1 X146.72 Y50.31 E.01686
G1 X146.451 Y50.036 E.01682
G1 X146.142 Y49.809 E.01682
G1 X145.799 Y49.636 E.01689
G1 X145.432 Y49.521 E.01685
G1 X145.065 Y49.471 E.01625
G1 X141.044 Y49.255 E.17659
G1 X140.674 Y49.265 E.01625
G1 X140.297 Y49.34 E.01685
G1 X139.936 Y49.475 E.01689
G1 X139.605 Y49.668 E.01682
G1 X139.309 Y49.912 E.01682
G1 X139.057 Y50.202 E.01686
G1 X138.861 Y50.52 E.01636
G1 X138.47 Y50.3 F18000
;TYPE:Inner wall
G1 F2400
G1 X138.453 Y50.327 E.00141
G1 X138.281 Y50.753 E.02013
G1 X138.182 Y51.2 E.02011
G1 X138.158 Y51.657 E.02005
G1 X138.208 Y52.113 E.02011
G1 X138.333 Y52.554 E.02013
G1 X138.531 Y52.969 E.02014
G1 X138.792 Y53.346 E.02013
G1 X139.112 Y53.673 E.02006
G1 X139.481 Y53.944 E.02007
G1 X139.891 Y54.151 E.02017
G1 X140.329 Y54.288 E.02012
G1 X140.752 Y54.345 E.01869
G1 X144.809 Y54.563 E.1782
G1 X145.235 Y54.551 E.01869
G1 X145.685 Y54.463 E.02012
G1 X146.116 Y54.301 E.02017
G1 X146.511 Y54.071 E.02007
G1 X146.864 Y53.78 E.02006
G1 X147.165 Y53.434 E.02013
G1 X147.406 Y53.042 E.02014
G1 X147.578 Y52.617 E.02013
G1 X147.677 Y52.169 E.02011
G1 X147.701 Y51.713 E.02005
G1 X147.651 Y51.257 E.02011
G1 X147.525 Y50.815 E.02013
G1 X147.328 Y50.4 E.02014
G1 X147.066 Y50.024 E.02013
G1 X146.746 Y49.697 E.02006
G1 X146.378 Y49.426 E.02007
G1 X145.967 Y49.218 E.02017
G1 X145.529 Y49.082 E.02012
G1 X145.107 Y49.024 E.01869
G1 X141.05 Y48.806 E.1782
G1 X140.624 Y48.818 E.01869
G1 X140.174 Y48.907 E.02012
G1 X139.743 Y49.069 E.02017
G1 X139.348 Y49.299 E.02007
G1 X138.995 Y49.589 E.02006
G1 X138.694 Y49.936 E.02013
G1 X138.481 Y50.283 E.01786
G1 E-.8 F3600
G1 X80.206 Y58.15 F18000
G1 E.8 F3600
;TYPE:Outer wall
G1 F2400
G1 X77.53 Y107.187 E2.15379
G1 X74.821 Y158.218 E2.24117
G1 X74.814 Y158.368 E.00658
G1 X74.91 Y158.893 E.02341
G1 X75.084 Y159.386 E.02291
G1 X75.333 Y159.844 E.0229
G1 X75.65 Y160.258 E.02287
G1 X76.027 Y160.618 E.02287
G1 X76.458 Y160.915 E.02293
G1 X76.929 Y161.14 E.02288
G1 X77.428 Y161.289 E.02285
G1 X77.933 Y161.356 E.02232
G1 X81.428 Y161.544 E.1535
G1 X81.857 Y161.601 E.01899
G1 X82.258 Y161.721 E.01837
G1 X82.637 Y161.902 E.01841
G1 X82.983 Y162.14 E.01841
G1 X83.286 Y162.43 E.01838
G1 X83.541 Y162.764 E.01844
G1 X83.742 Y163.132 E.01841
G1 X83.881 Y163.528 E.01839
G1 X83.957 Y163.941 E.01842
G1 X83.968 Y164.373 E.01895
G1 X83.699 Y169.365 E.21927
G1 X83.711 Y169.874 E.02231
G1 X83.806 Y170.387 E.02291
G1 X83.979 Y170.88 E.02291
G1 X84.229 Y171.339 E.0229
G1 X84.546 Y171.753 E.02287
G1 X84.923 Y172.113 E.02287
G1 X85.353 Y172.409 E.02293
G1 X85.824 Y172.634 E.02288
G1 X86.323 Y172.783 E.02286
G1 X86.829 Y172.851 E.02236
G1 X87.341 Y172.878 E.02249
G1 X126.294 Y174.974 E1.71082
G1 X126.803 Y174.961 E.02232
G1 X127.317 Y174.867 E.0229
G1 X127.809 Y174.694 E.02289
G1 X128.268 Y174.445 E.02288
G1 X128.682 Y174.128 E.02289
G1 X129.042 Y173.75 E.02289
G1 X129.338 Y173.32 E.02288
G1 X129.564 Y172.849 E.02289
G1 X129.713 Y172.349 E.0229
G1 X129.78 Y171.845 E.02232
G1 X130.048 Y166.852 E.21928
G1 X130.105 Y166.424 E.01895
G1 X130.225 Y166.021 E.01842
G1 X130.406 Y165.643 E.0184
G1 X130.644 Y165.298 E.01838
G1 X130.934 Y164.993 E.01842
G1 X131.267 Y164.738 E.01842
G1 X131.636 Y164.539 E.01838
G1 X132.032 Y164.399 E.0184
G1 X132.445 Y164.323 E.01842
G1 X132.877 Y164.312 E.01895
G1 X136.372 Y164.5 E.1535
G1 X136.88 Y164.488 E.02232
G1 X137.394 Y164.393 E.0229
G1 X137.886 Y164.22 E.02289
G1 X138.345 Y163.971 E.02288
G1 X138.759 Y163.654 E.02289
G1 X139.119 Y163.276 E.02289
G1 X139.416 Y162.847 E.02288
G1 X139.641 Y162.376 E.02289
G1 X139.793 Y161.863 E.02346
G1 X142.469 Y112.823 E2.15392
G1 X145.179 Y61.78 E2.24169
G1 X145.186 Y61.632 E.0065
G1 X145.089 Y61.106 E.02342
G1 X144.913 Y60.609 E.02313
G1 X144.668 Y60.156 E.02263
G1 X144.35 Y59.741 E.02289
G1 X143.972 Y59.381 E.02289
G1 X143.543 Y59.085 E.02288
G1 X143.072 Y58.86 E.02289
G1 X142.572 Y58.711 E.0229
G1 X142.067 Y58.644 E.02231
G1 X138.572 Y58.455 E.1535
G1 X138.144 Y58.398 E.01895
G1 X137.741 Y58.279 E.01842
G1 X137.363 Y58.098 E.0184
G1 X137.018 Y57.859 E.01838
G1 X136.714 Y57.57 E.01842
G1 X136.458 Y57.236 E.01842
G1 X136.259 Y56.868 E.01838
G1 X136.119 Y56.472 E.0184
G1 X136.043 Y56.059 E.01842
G1 X136.033 Y55.627 E.01895
G1 X136.301 Y50.634 E.21928
G1 X136.289 Y50.126 E.02232
G1 X136.194 Y49.612 E.0229
G1 X136.021 Y49.12 E.02289
G1 X135.772 Y48.661 E.02288
G1 X135.455 Y48.247 E.02289
G1 X135.077 Y47.887 E.02289
G1 X134.647 Y47.59 E.02288
G1 X134.177 Y47.365 E.02289
G1 X133.676 Y47.216 E.0229
G1 X133.172 Y47.149 E.02232
G1 X93.701 Y45.026 E1.73354
G1 X93.197 Y45.038 E.02212
G1 X92.684 Y45.133 E.02285
G1 X92.192 Y45.306 E.02288
G1 X91.732 Y45.555 E.02293
G1 X91.319 Y45.872 E.02287
G1 X90.959 Y46.25 E.02287
G1 X90.662 Y46.679 E.0229
G1 X90.436 Y47.15 E.02291
G1 X90.287 Y47.651 E.02291
G1 X90.221 Y48.155 E.02231
G1 X89.952 Y53.148 E.21927
G1 X89.895 Y53.576 E.01895
G1 X89.775 Y53.979 E.01842
G1 X89.594 Y54.357 E.01839
G1 X89.356 Y54.702 E.01841
G1 X89.066 Y55.006 E.01844
G1 X88.733 Y55.262 E.01838
G1 X88.364 Y55.461 E.01841
G1 X87.968 Y55.601 E.01841
G1 X87.556 Y55.677 E.01837
G1 X87.123 Y55.687 E.01899
G1 X83.628 Y55.499 E.1535
G1 X83.119 Y55.512 E.02232
G1 X82.607 Y55.607 E.02285
G1 X82.115 Y55.78 E.02288
G1 X81.655 Y56.028 E.02293
G1 X81.241 Y56.346 E.02287
G1 X80.882 Y56.724 E.02287
G1 X80.584 Y57.153 E.0229
G1 X80.359 Y57.624 E.02291
G1 X80.208 Y58.13 E.02315
G1 X79.773 Y58.019 F18000
;TYPE:Inner wall
G1 F2400
G1 X79.761 Y58.059 E.00185
G1 X77.082 Y107.163 E2.1567
G1 X74.373 Y158.196 E2.24125
G1 X74.363 Y158.399 E.0089
G1 X74.476 Y159.009 E.0272
G1 X74.673 Y159.568 E.02602
G1 X74.956 Y160.089 E.02601
G1 X75.315 Y160.559 E.02592
G1 X75.744 Y160.968 E.02596
G1 X76.233 Y161.304 E.02604
G1 X76.767 Y161.56 E.02597
G1 X77.334 Y161.729 E.02594
G1 X77.891 Y161.803 E.02465
G1 X81.386 Y161.991 E.1535
G1 X81.762 Y162.041 E.01666
G1 X82.096 Y162.141 E.01528
G1 X82.412 Y162.292 E.01533
G1 X82.699 Y162.489 E.01529
G1 X82.951 Y162.73 E.01528
G1 X83.164 Y163.008 E.01538
G1 X83.331 Y163.315 E.0153
G1 X83.447 Y163.643 E.01527
G1 X83.51 Y163.987 E.01533
G1 X83.519 Y164.366 E.01663
G1 X83.251 Y169.358 E.21924
G1 X83.263 Y169.92 E.02463
G1 X83.371 Y170.503 E.02602
G1 X83.568 Y171.063 E.02602
G1 X83.851 Y171.584 E.02601
G1 X84.211 Y172.053 E.02592
G1 X84.639 Y172.462 E.02596
G1 X85.128 Y172.799 E.02604
G1 X85.662 Y173.054 E.02597
G1 X86.229 Y173.223 E.02595
G1 X86.787 Y173.298 E.02469
G1 X126.288 Y175.423 E1.73485
G1 X126.85 Y175.409 E.02464
G1 X127.432 Y175.302 E.02599
G1 X127.991 Y175.105 E.02599
G1 X128.512 Y174.823 E.02598
G1 X128.983 Y174.462 E.02598
G1 X129.391 Y174.033 E.02598
G1 X129.728 Y173.546 E.02598
G1 X129.983 Y173.011 E.02599
G1 X130.152 Y172.443 E.02599
G1 X130.227 Y171.886 E.02464
G1 X130.495 Y166.894 E.21928
