; Postprocessed by [ArcWelder](https://github.com/FormerLurker/ArcWelderLib)
; Copyright(C) 2021 - Brad Hochgesang
; Version: 1.2.0, Branch: master, BuildDate: 2021-11-21T20:04:00Z
; resolution=0.05mm
; path_tolerance=5.0%
; max_radius=9999.00mm
; default_xyz_precision=3
; default_e_precision=5
; extrusion_rate_variance=5.0%

; generated by AnycubicSlicer 1.4.4 on 2025-08-26 at 16:24:50 UTC




; 

; external perimeters extrusion width = 0.42mm
; perimeters extrusion width = 0.45mm
; infill extrusion width = 0.45mm
; solid infill extrusion width = 0.50mm
; top infill extrusion width = 0.42mm
; support material extrusion width = 0.42mm
; first layer extrusion width = 0.56mm

M201 X2500 Y2500 Z800 E2500 ; sets maximum accelerations, mm/sec^2
M203 X250 Y250 Z8 E80 ; sets maximum feedrates, mm / sec
M204 S2500 T2500 ; sets acceleration (S) and retract acceleration (R), mm/sec^2
M205 X10.00 Y10.00 Z2.00 E10.00 ; sets the jerk limits, mm/sec
M205 S0 T0 ; sets the minimum extruding and travel feed rate, mm/sec
;TYPE:Custom
G90 ; use absolute coordinates
M83 ; extruder relative mode
M104 S215 ; set extruder temp
M140 S60 ; set bed temp
M190 S60 ; wait for bed temp
M109 S215 ; wait for extruder temp
G28                                        ; move X/Y/Z to min endstops
G1 Z0.28                                   ; lift nozzle a bit 
G92 E0 
G1 Y3 F1800                                    ; zero the extruded length 
G1 X60  E25 F500                       ; Extrude 25mm of filament in a 5cm line. 
G92 E0                                     ; zero the extruded length again 
G1 E-2 F500                                ; Retract a little 
G1 X70 F4000                              ; Quickly wipe away from the filament line
M117
G21 ; set units to millimeters
G90 ; use absolute coordinates
M82 ; use absolute distances for extrusion
G92 E0
M107
;LAYER_CHANGE
;Z:0.28
;HEIGHT:0.28
; BEFORE_LAYER_CHANGE 0 @ 0.28mm
G1 E-2 F4800
G92 E0
G1 Z.28 F7200
; AFTER_LAYER_CHANGE 0 @ 0.28mm
G1 X37.417 Y11.475
G1 E2 F4800
;TYPE:Skirt/Brim
;WIDTH:0.56
G1 F3000
G1 X38.51 Y10.396 E2.08938
G1 X40 Y10 E2.1791
G1 X180 Y10 E10.32639
G1 X181.485 Y10.394 E10.4158
G1 X182.581 Y11.47 E10.50518
G1 X182.999 Y12.954 E10.5949
G1 X184.499 Y109.954 E16.24048
G1 X179.997 Y207.139 E21.90222
G1 X179.535 Y208.604 E21.99161
G1 X178.408 Y209.649 E22.08105
G1 X177 Y210 E22.1655
G1 X43 Y210 E29.96362
G1 X41.515 Y209.606 E30.05303
G1 X40.419 Y208.53 E30.14241
G1 X40.003 Y207.139 E30.2269
G1 X35.503 Y110.139 E35.87788
G1 X37.001 Y12.954 E41.53423
G1 X37.401 Y11.533 E41.62014
G1 X37.894 Y11.685 F7200
G1 F3000
G1 X37.913 Y11.624 E41.62386
G1 X38.98 Y10.717 E41.70536
G1 X40 Y10.5 E41.76605
G1 X180 Y10.5 E49.91334
G1 X181.344 Y10.892 E49.99481
G1 X182.266 Y11.945 E50.07626
G1 X182.5 Y12.961 E50.13693
G1 X184 Y109.961 E55.78251
G1 X179.497 Y207.116 E61.44251
G1 X179.043 Y208.44 E61.52396
G1 X177.949 Y209.313 E61.60541
G1 X177 Y209.5 E61.6617
G1 X43 Y209.5 E69.45982
G1 X41.656 Y209.108 E69.54129
G1 X40.734 Y208.055 E69.62274
G1 X40.503 Y207.116 E69.67901
G1 X36.003 Y110.116 E75.32999
G1 X37.5 Y12.961 E80.98459
G1 X37.876 Y11.742 E81.05883
G1 E79.65883 F4800
;WIPE_START
G1 F5760
G1 X37.913 Y11.624 E79.56093
G1 X38.396 Y11.213 E79.05883
;WIPE_END
G92 E0
G1 X40.276 Y13.28 F7200
G1 E2 F4800
;TYPE:External perimeter
G1 F3000
G1 X179.724 Y13.28 E10.11517
G1 X181.22 Y109.996 E15.74422
G1 X176.733 Y206.72 E21.37912
G1 X43.267 Y206.72 E29.14617
G1 X38.78 Y109.996 E34.78107
G1 X40.275 Y13.34 E40.40663
G1 X40.623 Y13.478 F7200
G1 X40.768 Y13.78
;TYPE:Perimeter
G1 F3000
G1 X179.232 Y13.78 E48.46453
G1 X180.72 Y109.988 E54.06402
G1 X176.255 Y206.22 E59.67026
G1 X43.745 Y206.22 E67.38167
G1 X39.28 Y109.988 E72.98791
G1 X40.767 Y13.84 E78.58391
G1 X41.26 Y14.28 F7200
G1 F3000
G1 X178.74 Y14.28 E86.58455
G1 X180.22 Y109.98 E92.15447
G1 X175.778 Y205.72 E97.73205
G1 X44.222 Y205.72 E105.38794
G1 X39.78 Y109.98 E110.96552
G1 X41.259 Y14.34 E116.53195
G1 E115.13195 F4800
;WIPE_START
G1 F5760
G1 X42.017 Y14.34 E114.53195
;WIPE_END
G92 E0
G1 X47.733 Y202.28 F7200
G1 E2 F4800
;TYPE:External perimeter
G1 F3000
G1 X43.22 Y110.005 E7.37636
G1 X44.725 Y17.72 E12.74759
G1 X175.275 Y17.72 E20.34494
G1 X176.78 Y110.005 E25.71617
G1 X172.267 Y202.28 E31.09253
G1 X47.793 Y202.28 E38.33629
G1 X47.345 Y202.375 F7200
G1 X47.257 Y202.768
;TYPE:Perimeter
G1 F3000
G1 X42.72 Y110.013 E43.74061
G1 X44.233 Y17.22 E49.14141
G1 X175.767 Y17.22 E56.79602
G1 X177.28 Y110.013 E62.19682
G1 X172.743 Y202.78 E67.60184
G1 X47.306 Y202.78 E74.90164
G1 X46.78 Y203.256 F7200
G1 F3000
G1 X42.22 Y110.021 E80.33393
G1 X43.741 Y16.72 E85.7643
G1 X176.259 Y16.72 E93.47618
G1 X177.78 Y110.021 E98.90655
G1 X173.219 Y203.28 E104.34024
G1 X46.818 Y203.28 E111.69614
G1 E110.29614 F4800
;WIPE_START
G1 F5760
G1 X46.781 Y202.523 E109.69614
;WIPE_END
G92 E0
G1 X178.559 Y15.507 F7200
G1 E2 F4800
;TYPE:Solid infill
;WIDTH:0.560088
G1 F3000
G1 X177.757 Y14.705 E2.06602
G1 X177.05 Y14.705 E2.10717
G1 X178.341 Y15.996 E2.21344
G1 X178.352 Y16.715 E2.25529
G1 X176.343 Y14.705 E2.4207
G1 X175.635 Y14.705 E2.46191
G1 X178.364 Y17.433 E2.68651
G1 X178.375 Y18.151 E2.72831
G1 X174.928 Y14.705 E3.01201
G1 X174.221 Y14.705 E3.05316
G1 X175.812 Y16.295 E3.18408
G1 X175.105 Y16.295 E3.22523
G1 X173.514 Y14.705 E3.35615
G1 X172.807 Y14.705 E3.3973
G1 X174.398 Y16.295 E3.52822
G1 X173.69 Y16.295 E3.56943
G1 X172.1 Y14.705 E3.70031
G1 X171.393 Y14.705 E3.74146
G1 X172.983 Y16.295 E3.87234
G1 X172.276 Y16.295 E3.91349
G1 X170.686 Y14.705 E4.04437
G1 X169.979 Y14.705 E4.08552
G1 X171.569 Y16.295 E4.2164
G1 X170.862 Y16.295 E4.25755
G1 X169.271 Y14.705 E4.38847
G1 X168.564 Y14.705 E4.42962
G1 X170.155 Y16.295 E4.56054
G1 X169.448 Y16.295 E4.60169
G1 X167.857 Y14.705 E4.73261
G1 X167.15 Y14.705 E4.77376
G1 X168.741 Y16.295 E4.90468
G1 X168.034 Y16.295 E4.94583
G1 X166.443 Y14.705 E5.07675
G1 X165.736 Y14.705 E5.1179
G1 X167.326 Y16.295 E5.24878
G1 X166.619 Y16.295 E5.28993
G1 X165.029 Y14.705 E5.42081
G1 X164.322 Y14.705 E5.46196
G1 X165.912 Y16.295 E5.59284
G1 X165.205 Y16.295 E5.63399
G1 X163.615 Y14.705 E5.76487
G1 X162.908 Y14.705 E5.80602
G1 X164.498 Y16.295 E5.9369
G1 X163.791 Y16.295 E5.97805
G1 X162.2 Y14.705 E6.10897
G1 X161.493 Y14.705 E6.15012
G1 X163.084 Y16.295 E6.28104
G1 X162.377 Y16.295 E6.32219
G1 X160.786 Y14.705 E6.45311
G1 X160.079 Y14.705 E6.49426
G1 X161.67 Y16.295 E6.62518
G1 X160.963 Y16.295 E6.66633
G1 X159.372 Y14.705 E6.79725
G1 X158.665 Y14.705 E6.8384
G1 X160.255 Y16.295 E6.96928
G1 X159.548 Y16.295 E7.01043
G1 X157.958 Y14.705 E7.14131
G1 X157.251 Y14.705 E7.18246
G1 X158.841 Y16.295 E7.31334
G1 X158.134 Y16.295 E7.35449
G1 X156.544 Y14.705 E7.48537
G1 X155.836 Y14.705 E7.52658
G1 X157.427 Y16.295 E7.6575
G1 X156.72 Y16.295 E7.69865
G1 X155.129 Y14.705 E7.82957
G1 X154.422 Y14.705 E7.87072
G1 X156.013 Y16.295 E8.00164
G1 X155.306 Y16.295 E8.04279
G1 X153.715 Y14.705 E8.17371
G1 X153.008 Y14.705 E8.21486
G1 X154.599 Y16.295 E8.34578
G1 X153.891 Y16.295 E8.38699
G1 X152.301 Y14.705 E8.51787
G1 X151.594 Y14.705 E8.55902
G1 X153.184 Y16.295 E8.6899
G1 X152.477 Y16.295 E8.73105
G1 X150.887 Y14.705 E8.86193
G1 X150.18 Y14.705 E8.90308
G1 X151.77 Y16.295 E9.03396
G1 X151.063 Y16.295 E9.07511
G1 X149.473 Y14.705 E9.20599
G1 X148.765 Y14.705 E9.2472
G1 X150.356 Y16.295 E9.37812
G1 X149.649 Y16.295 E9.41927
G1 X148.058 Y14.705 E9.55019
G1 X147.351 Y14.705 E9.59134
G1 X148.942 Y16.295 E9.72226
G1 X148.235 Y16.295 E9.76341
G1 X146.644 Y14.705 E9.89433
G1 X145.937 Y14.705 E9.93548
G1 X147.528 Y16.295 E10.0664
G1 X146.82 Y16.295 E10.10761
G1 X145.23 Y14.705 E10.23849
G1 X144.523 Y14.705 E10.27964
G1 X146.113 Y16.295 E10.41052
G1 X145.406 Y16.295 E10.45167
G1 X143.816 Y14.705 E10.58255
G1 X143.109 Y14.705 E10.6237
G1 X144.699 Y16.295 E10.75458
G1 X143.992 Y16.295 E10.79573
G1 X142.401 Y14.705 E10.92665
G1 X141.694 Y14.705 E10.9678
G1 X143.285 Y16.295 E11.09872
G1 X142.578 Y16.295 E11.13987
G1 X140.987 Y14.705 E11.27079
G1 X140.28 Y14.705 E11.31194
G1 X141.871 Y16.295 E11.44286
G1 X141.164 Y16.295 E11.48401
G1 X139.573 Y14.705 E11.61493
G1 X138.866 Y14.705 E11.65608
G1 X140.456 Y16.295 E11.78696
G1 X139.749 Y16.295 E11.82811
G1 X138.159 Y14.705 E11.95899
G1 X137.452 Y14.705 E12.00014
G1 X139.042 Y16.295 E12.13102
G1 X138.335 Y16.295 E12.17217
G1 X136.745 Y14.705 E12.30305
G1 X136.038 Y14.705 E12.3442
G1 X137.628 Y16.295 E12.47508
G1 X136.921 Y16.295 E12.51623
G1 X135.33 Y14.705 E12.64715
G1 X134.623 Y14.705 E12.6883
G1 X136.214 Y16.295 E12.81922
G1 X135.507 Y16.295 E12.86037
G1 X133.916 Y14.705 E12.99129
G1 X133.209 Y14.705 E13.03244
G1 X134.8 Y16.295 E13.16336
G1 X134.093 Y16.295 E13.20451
G1 X132.502 Y14.705 E13.33543
G1 X131.795 Y14.705 E13.37658
G1 X133.385 Y16.295 E13.50746
G1 X132.678 Y16.295 E13.54861
G1 X131.088 Y14.705 E13.67949
G1 X130.381 Y14.705 E13.72064
G1 X131.971 Y16.295 E13.85152
G1 X131.264 Y16.295 E13.89267
G1 X129.674 Y14.705 E14.02355
G1 X128.966 Y14.705 E14.06476
G1 X130.557 Y16.295 E14.19568
G1 X129.85 Y16.295 E14.23683
G1 X128.259 Y14.705 E14.36775
G1 X127.552 Y14.705 E14.4089
G1 X129.143 Y16.295 E14.53982
G1 X128.436 Y16.295 E14.58097
G1 X126.845 Y14.705 E14.71189
G1 X126.138 Y14.705 E14.75304
G1 X127.729 Y16.295 E14.88396
G1 X127.021 Y16.295 E14.92517
G1 X125.431 Y14.705 E15.05605
G1 X124.724 Y14.705 E15.0972
G1 X126.314 Y16.295 E15.22808
G1 X125.607 Y16.295 E15.26923
G1 X124.017 Y14.705 E15.40011
G1 X123.31 Y14.705 E15.44126
G1 X124.9 Y16.295 E15.57214
G1 X124.193 Y16.295 E15.61329
G1 X122.603 Y14.705 E15.74417
G1 X121.895 Y14.705 E15.78538
G1 X123.486 Y16.295 E15.9163
G1 X122.779 Y16.295 E15.95745
G1 X121.188 Y14.705 E16.08837
G1 X120.481 Y14.705 E16.12952
G1 X122.072 Y16.295 E16.26044
G1 X121.365 Y16.295 E16.30159
G1 X119.774 Y14.705 E16.43251
G1 X119.067 Y14.705 E16.47366
G1 X120.658 Y16.295 E16.60458
G1 X119.95 Y16.295 E16.64579
G1 X118.36 Y14.705 E16.77667
G1 X117.653 Y14.705 E16.81782
G1 X119.243 Y16.295 E16.9487
G1 X118.536 Y16.295 E16.98985
G1 X116.946 Y14.705 E17.12073
G1 X116.239 Y14.705 E17.16188
G1 X117.829 Y16.295 E17.29276
G1 X117.122 Y16.295 E17.33391
G1 X115.531 Y14.705 E17.46483
G1 X114.824 Y14.705 E17.50598
G1 X116.415 Y16.295 E17.6369
G1 X115.708 Y16.295 E17.67805
G1 X114.117 Y14.705 E17.80897
G1 X113.41 Y14.705 E17.85012
G1 X115.001 Y16.295 E17.98104
G1 X114.294 Y16.295 E18.02219
G1 X112.703 Y14.705 E18.15311
G1 X111.996 Y14.705 E18.19426
G1 X113.586 Y16.295 E18.32514
G1 X112.879 Y16.295 E18.36629
G1 X111.289 Y14.705 E18.49717
G1 X110.582 Y14.705 E18.53832
G1 X112.172 Y16.295 E18.6692
G1 X111.465 Y16.295 E18.71035
G1 X109.875 Y14.705 E18.84123
G1 X109.168 Y14.705 E18.88238
G1 X110.758 Y16.295 E19.01326
G1 X110.051 Y16.295 E19.05441
G1 X108.46 Y14.705 E19.18533
G1 X107.753 Y14.705 E19.22648
G1 X109.344 Y16.295 E19.3574
G1 X108.637 Y16.295 E19.39855
G1 X107.046 Y14.705 E19.52947
G1 X106.339 Y14.705 E19.57062
G1 X107.93 Y16.295 E19.70154
G1 X107.223 Y16.295 E19.74269
G1 X105.632 Y14.705 E19.87361
G1 X104.925 Y14.705 E19.91476
G1 X106.515 Y16.295 E20.04564
G1 X105.808 Y16.295 E20.08679
G1 X104.218 Y14.705 E20.21767
G1 X103.511 Y14.705 E20.25882
G1 X105.101 Y16.295 E20.3897
G1 X104.394 Y16.295 E20.43085
G1 X102.804 Y14.705 E20.56173
G1 X102.096 Y14.705 E20.60294
G1 X103.687 Y16.295 E20.73386
G1 X102.98 Y16.295 E20.77501
G1 X101.389 Y14.705 E20.90593
G1 X100.682 Y14.705 E20.94708
G1 X102.273 Y16.295 E21.078
G1 X101.566 Y16.295 E21.11915
G1 X99.975 Y14.705 E21.25007
G1 X99.268 Y14.705 E21.29122
G1 X100.859 Y16.295 E21.42214
G1 X100.151 Y16.295 E21.46335
G1 X98.561 Y14.705 E21.59423
G1 X97.854 Y14.705 E21.63538
G1 X99.444 Y16.295 E21.76626
G1 X98.737 Y16.295 E21.80741
G1 X97.147 Y14.705 E21.93829
G1 X96.44 Y14.705 E21.97944
G1 X98.03 Y16.295 E22.11032
G1 X97.323 Y16.295 E22.15147
G1 X95.733 Y14.705 E22.28235
G1 X95.025 Y14.705 E22.32356
G1 X96.616 Y16.295 E22.45448
G1 X95.909 Y16.295 E22.49563
G1 X94.318 Y14.705 E22.62655
G1 X93.611 Y14.705 E22.6677
G1 X95.202 Y16.295 E22.79862
G1 X94.495 Y16.295 E22.83977
G1 X92.904 Y14.705 E22.97069
G1 X92.197 Y14.705 E23.01184
G1 X93.788 Y16.295 E23.14276
G1 X93.08 Y16.295 E23.18397
G1 X91.49 Y14.705 E23.31485
G1 X90.783 Y14.705 E23.356
G1 X92.373 Y16.295 E23.48688
G1 X91.666 Y16.295 E23.52803
G1 X90.076 Y14.705 E23.65891
G1 X89.369 Y14.705 E23.70006
G1 X90.959 Y16.295 E23.83094
G1 X90.252 Y16.295 E23.87209
G1 X88.661 Y14.705 E24.00301
G1 X87.954 Y14.705 E24.04416
G1 X89.545 Y16.295 E24.17508
G1 X88.838 Y16.295 E24.21623
G1 X87.247 Y14.705 E24.34715
G1 X86.54 Y14.705 E24.3883
G1 X88.131 Y16.295 E24.51922
G1 X87.424 Y16.295 E24.56037
G1 X85.833 Y14.705 E24.69129
G1 X85.126 Y14.705 E24.73244
G1 X86.716 Y16.295 E24.86332
G1 X86.009 Y16.295 E24.90447
G1 X84.419 Y14.705 E25.03535
G1 X83.712 Y14.705 E25.0765
G1 X85.302 Y16.295 E25.20738
G1 X84.595 Y16.295 E25.24853
G1 X83.005 Y14.705 E25.37941
G1 X82.298 Y14.705 E25.42056
G1 X83.888 Y16.295 E25.55144
G1 X83.181 Y16.295 E25.59259
G1 X81.59 Y14.705 E25.72351
G1 X80.883 Y14.705 E25.76466
G1 X82.474 Y16.295 E25.89558
G1 X81.767 Y16.295 E25.93673
G1 X80.176 Y14.705 E26.06765
G1 X79.469 Y14.705 E26.1088
G1 X81.06 Y16.295 E26.23972
G1 X80.353 Y16.295 E26.28087
G1 X78.762 Y14.705 E26.41179
G1 X78.055 Y14.705 E26.45294
G1 X79.645 Y16.295 E26.58382
G1 X78.938 Y16.295 E26.62497
G1 X77.348 Y14.705 E26.75585
G1 X76.641 Y14.705 E26.797
G1 X78.231 Y16.295 E26.92788
G1 X77.524 Y16.295 E26.96903
G1 X75.934 Y14.705 E27.09991
G1 X75.226 Y14.705 E27.14112
G1 X76.817 Y16.295 E27.27204
G1 X76.11 Y16.295 E27.31319
G1 X74.519 Y14.705 E27.44411
G1 X73.812 Y14.705 E27.48526
G1 X75.403 Y16.295 E27.61618
G1 X74.696 Y16.295 E27.65733
G1 X73.105 Y14.705 E27.78825
G1 X72.398 Y14.705 E27.8294
G1 X73.989 Y16.295 E27.96032
G1 X73.281 Y16.295 E28.00153
G1 X71.691 Y14.705 E28.13241
G1 X70.984 Y14.705 E28.17356
G1 X72.574 Y16.295 E28.30444
G1 X71.867 Y16.295 E28.34559
G1 X70.277 Y14.705 E28.47647
G1 X69.57 Y14.705 E28.51762
G1 X71.16 Y16.295 E28.6485
G1 X70.453 Y16.295 E28.68965
G1 X68.863 Y14.705 E28.82053
G1 X68.155 Y14.705 E28.86174
G1 X69.746 Y16.295 E28.99266
G1 X69.039 Y16.295 E29.03381
G1 X67.448 Y14.705 E29.16473
G1 X66.741 Y14.705 E29.20588
G1 X68.332 Y16.295 E29.3368
G1 X67.625 Y16.295 E29.37795
G1 X66.034 Y14.705 E29.50887
G1 X65.327 Y14.705 E29.55002
G1 X66.918 Y16.295 E29.68094
G1 X66.21 Y16.295 E29.72215
G1 X64.62 Y14.705 E29.85303
G1 X63.913 Y14.705 E29.89418
G1 X65.503 Y16.295 E30.02506
G1 X64.796 Y16.295 E30.06621
G1 X63.206 Y14.705 E30.19709
G1 X62.499 Y14.705 E30.23824
G1 X64.089 Y16.295 E30.36912
G1 X63.382 Y16.295 E30.41027
G1 X61.791 Y14.705 E30.54119
G1 X61.084 Y14.705 E30.58234
G1 X62.675 Y16.295 E30.71326
G1 X61.968 Y16.295 E30.75441
G1 X60.377 Y14.705 E30.88533
G1 X59.67 Y14.705 E30.92648
G1 X61.261 Y16.295 E31.0574
G1 X60.554 Y16.295 E31.09855
G1 X58.963 Y14.705 E31.22947
G1 X58.256 Y14.705 E31.27062
G1 X59.846 Y16.295 E31.4015
G1 X59.139 Y16.295 E31.44265
G1 X57.549 Y14.705 E31.57353
G1 X56.842 Y14.705 E31.61468
G1 X58.432 Y16.295 E31.74556
G1 X57.725 Y16.295 E31.78671
G1 X56.135 Y14.705 E31.91759
G1 X55.428 Y14.705 E31.95874
G1 X57.018 Y16.295 E32.08962
G1 X56.311 Y16.295 E32.13077
G1 X54.72 Y14.705 E32.26169
G1 X54.013 Y14.705 E32.30284
G1 X55.604 Y16.295 E32.43376
G1 X54.897 Y16.295 E32.47491
G1 X53.306 Y14.705 E32.60583
G1 X52.599 Y14.705 E32.64698
G1 X54.19 Y16.295 E32.7779
G1 X53.483 Y16.295 E32.81905
G1 X51.892 Y14.705 E32.94997
G1 X51.185 Y14.705 E32.99112
G1 X52.775 Y16.295 E33.122
G1 X52.068 Y16.295 E33.16315
G1 X50.478 Y14.705 E33.29403
G1 X49.771 Y14.705 E33.33518
G1 X51.361 Y16.295 E33.46606
G1 X50.654 Y16.295 E33.50721
G1 X49.064 Y14.705 E33.63809
G1 X48.356 Y14.705 E33.6793
G1 X49.947 Y16.295 E33.81022
G1 X49.24 Y16.295 E33.85137
G1 X47.649 Y14.705 E33.98229
G1 X46.942 Y14.705 E34.02344
G1 X48.533 Y16.295 E34.15436
G1 X47.826 Y16.295 E34.19551
G1 X46.235 Y14.705 E34.32643
G1 X45.528 Y14.705 E34.36758
G1 X47.119 Y16.295 E34.4985
G1 X46.411 Y16.295 E34.53971
G1 X44.821 Y14.705 E34.67059
G1 X44.114 Y14.705 E34.71174
G1 X45.704 Y16.295 E34.84262
G1 X44.997 Y16.295 E34.88377
G1 X43.407 Y14.705 E35.01465
